(VECTRIC POST REVISION)
(73AEA2D9E9B67AE7697F0CF21BDB8954)
T1
G17
G21
G90
G0Z50.320
G0X0.000A0.000
S16000M3
G0X96.000A360.000Z35.080
G1Z12.600F381.0
G1A0.000F1270.0
G1X95.682
G1A360.000
G1X95.365
G1A0.000
G1X95.047
G1A360.000
G1X94.730
G1A0.000
G1X94.412
G1A360.000
G1X94.095
G1A0.000
G1X93.777
G1A360.000
G1X93.460
G1A0.000
G1X93.142
G1A360.000
G1X92.825
G1A0.000
G1X92.507
G1A360.000
G1X92.190
G1A0.000
G1X91.872
G1A360.000
G1X91.555
G1A0.000
G1X91.237
G1A360.000
G1X90.920
G1A0.000
G1X90.602
G1A360.000
G1X90.285
G1A0.000
G1X89.967
G1A360.000
G1X89.650
G1A0.000
G1X89.332
G1A360.000
G1X89.015
G1A0.000
G1X88.697
G1A360.000
G1X88.380
G1A0.000
G1X88.062
G1A360.000
G1X87.745
G1A0.000
G1X87.427
G1A360.000
G1X87.110
G1A0.000
G1X86.792
G1A360.000
G1X86.475
G1A0.000
G1X86.157
G1A360.000
G1X85.840Z12.600
G1A0.000
G1X85.522Z12.568
G1A360.000
G1X85.205Z12.467
G1A0.000
G1X84.951Z12.327
G1X84.887Z12.281
G1A360.000
G1X84.633Z12.042
G1X84.570Z11.963
G1A0.000
G1X84.443Z11.763
G1X84.316Z11.451
G1X84.252Z6.269
G1A1.413Z6.319
G1A3.340Z6.296
G1A5.268Z6.244
G1A6.296Z6.331
G1A7.323Z6.429
G1A8.608Z6.592
G1A9.764Z6.879
G1A10.021Z7.010
G1A10.664Z7.342
G1A11.178Z7.524
G1A12.077Z7.749
G1A13.233Z7.968
G1A15.675Z8.287
G1A16.060Z8.367
G1A16.831Z8.650
G1A17.602Z8.976
G1A18.373Z9.316
G1A19.272Z9.621
G1A20.814Z10.071
G1A21.585Z10.209
G1A22.612Z10.368
G1A23.255Z10.394
G1A24.283Z10.363
G1A24.797Z10.297
G1A25.439Z10.143
G1A26.081Z9.912
G1A27.366Z9.388
G1A29.036Z8.835
G1A30.707Z8.336
G1A32.634Z7.839
G1A33.533Z7.630
G1A34.047Z7.429
G1A34.304Z7.277
G1A34.561Z7.065
G1A34.946Z6.606
G1A35.075Z6.326
G1A35.203Z2.691
G1A35.332Z1.176
G1A39.957Z1.084
G1A54.604Z0.962
G1A82.741Z0.839
G1A97.131Z0.801
G1A109.722Z0.808
G1A125.910Z0.937
G1A137.730Z1.078
G1A144.154Z1.181
G1A144.283Z6.268
G1A144.411Z6.617
G1A144.540Z6.799
G1A144.797Z7.026
G1A145.182Z7.267
G1A145.824Z7.524
G1A146.595Z7.718
G1A148.266Z8.122
G1A151.092Z8.918
G1A153.790Z9.839
G1A154.561Z10.075
G1A155.846Z10.406
G1A156.488Z10.486
G1A157.259Z10.500
G1A157.773Z10.444
G1A158.415Z10.341
G1A159.058Z10.147
G1A159.572Z9.931
G1A159.957Z9.699
G1A160.214Z9.535
G1A160.857Z9.344
G1A161.756Z9.104
G1A162.912Z8.914
G1A164.069Z8.774
G1A165.739Z8.648
G1A167.409Z8.533
G1A168.694Z8.370
G1A170.236Z8.099
G1A171.392Z7.810
G1A172.163Z7.607
G1A173.062Z7.428
G1A173.961Z7.314
G1A174.732Z7.285
G1A177.430Z7.214
G1A179.615Z7.046
G1A183.340Z6.646
G1A187.323Z6.335
G1A193.876Z5.911
G1A197.987Z5.717
G1A201.585Z5.618
G1A204.797Z5.588
G1A209.550Z5.577
G1A211.734Z5.517
G1A213.533Z5.404
G1A216.103Z5.236
G1A217.901Z5.211
G1A219.058Z5.232
G1A221.370Z5.342
G1A222.270Z5.415
G1A224.968Z5.697
G1A226.767Z5.812
G1A228.437Z5.858
G1A229.850Z5.824
G1A231.263Z5.722
G1A231.777Z5.651
G1A232.548Z5.481
G1A233.062Z5.303
G1A233.448Z5.123
G1A233.961Z4.972
G1A234.090Z4.921
G1A234.475Z4.916
G1A235.889Z4.972
G1A236.660Z5.052
G1A238.201Z5.310
G1A240.514Z5.735
G1A241.670Z5.955
G1A242.955Z6.128
G1A244.497Z6.271
G1A245.396Z6.311
G1A246.809Z6.239
G1A247.323Z6.186
G1A247.452Z6.175
G1A248.223Z5.942
G1A248.608Z5.694
G1A248.994Z5.540
G1A249.507Z5.423
G1A249.893Z5.304
G1A250.921Z5.393
G1A251.435Z5.414
G1A252.463Z5.726
G1A253.233Z6.022
G1A254.261Z6.348
G1A255.289Z6.600
G1A256.060Z6.718
G1A257.602Z6.846
G1A258.244Z6.847
G1A259.529Z6.784
G1A260.814Z6.601
G1A261.199Z6.497
G1A262.098Z6.155
G1A262.612Z5.853
G1A262.869Z5.670
G1A263.383Z5.444
G1A264.283Z5.294
G1A264.668Z5.254
G1A265.953Z5.398
G1A266.724Z5.728
G1A267.366Z5.977
G1A268.137Z6.145
G1A269.036Z6.292
G1A270.321Z6.352
G1A270.964Z6.339
G1A272.377Z6.237
G1A272.891Z6.139
G1A273.662Z5.962
G1A274.690Z5.563
G1A275.589Z5.353
G1A276.874Z5.142
G1A277.901Z5.105
G1A278.415Z5.115
G1A278.929Z5.228
G1A279.315Z5.585
G1A279.700Z5.786
G1A280.086Z5.907
G1A280.985Z6.134
G1A281.370Z6.174
G1A282.784Z6.227
G1A284.968Z6.117
G1A286.510Z5.914
G1A287.409Z5.753
G1A288.694Z5.401
G1A290.364Z5.040
G1A291.263Z4.924
G1A292.163Z4.772
G1A292.420Z4.738
G1A293.576Z4.653
G1A293.833Z4.638
G1A295.246Z4.842
G1A295.760Z4.936
G1A296.531Z5.154
G1A298.073Z5.397
G1A299.101Z5.456
G1A300.642Z5.512
G1A303.726Z5.455
G1A307.580Z5.264
G1A308.994Z5.140
G1A311.692Z4.879
G1A313.105Z4.792
G1A314.133Z4.761
G1A315.289Z4.788
G1A318.244Z4.938
G1A321.970Z5.017
G1A325.567Z5.050
G1A328.394Z5.035
G1A335.075Z5.001
G1A340.086Z5.042
G1A344.069Z5.167
G1A348.565Z5.377
G1A355.375Z5.830
G1A357.559Z6.045
G1A359.358Z6.229
G1A360.000Z6.269
G1X83.935Z6.440
G1A358.458Z6.311
G1A355.118Z5.968
G1A351.777Z5.742
G1A348.180Z5.534
G1A343.298Z5.347
G1A338.801Z5.242
G1A335.846Z5.231
G1A331.734Z5.283
G1A326.595Z5.373
G1A320.942Z5.401
G1A318.501Z5.369
G1A316.445Z5.271
G1A313.747Z5.103
G1A312.720Z5.110
G1A311.563Z5.161
G1A309.636Z5.365
G1A308.608Z5.489
G1A304.625Z5.807
G1A301.670Z5.965
G1A299.872Z6.020
G1A297.816Z6.048
G1A295.889Z5.880
G1A294.475Z5.645
G1A293.961Z5.544
G1A292.934Z5.486
G1A291.906Z5.532
G1A291.135Z5.590
G1A290.107Z5.758
G1A288.565Z6.220
G1A287.281Z6.500
G1A285.867Z6.707
G1A284.454Z6.820
G1A283.041Z6.876
G1A282.013Z6.888
G1A280.471Z6.823
G1A279.700Z6.709
G1A279.058Z6.592
G1A278.287Z6.328
G1A278.030Z6.229
G1A277.131Z6.073
G1A276.103Z6.089
G1A275.075Z6.302
G1A273.790Z6.645
G1A272.377Z6.923
G1A270.707Z7.084
G1A269.165Z7.098
G1A267.880Z7.034
G1A267.109Z6.903
G1A266.081Z6.668
G1A265.182Z6.499
G1A264.154Z6.473
G1A263.383Z6.723
G1A262.998Z7.034
G1A262.741Z7.140
G1A261.842Z7.400
G1A261.071Z7.515
G1A260.685Z7.600
G1A259.015Z7.727
G1A257.473Z7.713
G1A256.574Z7.625
G1A256.060Z7.586
G1A255.675Z7.503
G1A255.289Z7.379
G1A254.390Z7.163
G1A253.362Z6.896
G1A252.848Z6.769
G1A252.591Z6.763
G1A252.206Z6.775
G1A251.692Z6.992
G1A251.306Z7.116
G1A250.535Z7.230
G1A249.893Z7.289
G1A248.608Z7.301
G1A247.709Z7.280
G1A246.039Z7.155
G1A243.469Z6.867
G1A242.570Z6.729
G1A241.156Z6.471
G1A238.201Z5.772
G1A237.430Z5.617
G1A236.531Z5.484
G1A235.760Z5.423
G1A235.375Z5.448
G1A235.246Z5.470
G1A234.989Z5.707
G1A234.732Z5.813
G1A233.576Z6.142
G1A233.062Z6.199
G1A232.034Z6.272
G1A230.749Z6.314
G1A229.079Z6.311
G1A227.152Z6.228
G1A225.096Z6.065
G1A220.857Z5.582
G1A218.801Z5.477
G1A217.901Z5.472
G1A217.131Z5.483
G1A216.488Z5.615
G1A215.460Z5.736
G1A213.919Z5.785
G1A212.634Z5.800
G1A209.679Z5.860
G1A202.099Z5.832
G1A199.143Z5.875
G1A194.775Z6.033
G1A190.278Z6.271
G1A185.396Z6.628
G1A183.212Z6.823
G1A178.844Z7.346
G1A175.375Z7.691
G1A174.090Z7.803
G1A172.934Z7.946
G1A170.621Z8.359
G1A168.822Z8.612
G1A167.409Z8.749
G1A164.454Z8.951
G1A163.426Z9.062
G1A161.884Z9.320
G1A160.600Z9.607
G1A160.471Z9.640
G1A159.957Z9.999
G1A159.572Z10.193
G1A158.929Z10.404
G1A158.415Z10.620
G1A157.902Z10.750
G1A157.388Z10.810
G1A156.745Z10.820
G1A155.846Z10.799
G1A155.332Z10.728
G1A154.176Z10.434
G1A152.248Z9.754
G1A150.321Z9.112
G1A148.009Z8.460
G1A145.567Z7.846
G1A144.925Z7.610
G1A144.540Z7.379
G1A144.283Z7.151
G1A144.026Z6.752
G1A143.897Z1.170
G1A134.390Z1.042
G1A121.542Z0.913
G1A105.610Z0.809
G1A79.786Z0.871
G1A48.822Z1.033
G1A38.158Z1.098
G1A35.589Z1.142
G1A35.460Z1.207
G1A35.203Z7.115
G1A35.075Z7.296
G1A34.818Z7.518
G1A34.433Z7.729
G1A34.047Z7.870
G1A31.221Z8.605
G1A29.165Z9.224
G1A27.495Z9.820
G1A25.824Z10.500
G1A25.182Z10.676
G1A24.668Z10.747
G1A24.154Z10.758
G1A22.869Z10.680
G1A22.227Z10.592
G1A21.071Z10.318
G1A20.171Z10.071
G1A18.758Z9.634
G1A17.859Z9.270
G1A16.831Z8.811
G1A16.060Z8.572
G1A15.289Z8.438
G1A13.362Z8.200
G1A12.206Z7.987
G1A11.178Z7.709
G1A9.893Z7.233
G1A9.379Z7.079
G1A8.737Z6.945
G1A7.195Z6.772
G1A5.139Z6.617
G1A0.257Z6.456
G1A0.000Z6.440
G1X83.617Z6.652
G1A2.441Z6.824
G1A4.754Z6.958
G1A7.580Z7.189
G1A8.608Z7.317
G1A9.507Z7.486
G1A11.692Z8.068
G1A12.848Z8.307
G1A15.675Z8.756
G1A16.317Z8.898
G1A17.345Z9.230
G1A18.630Z9.722
G1A19.657Z10.050
G1A20.557Z10.360
G1A21.328Z10.637
G1A21.970Z10.821
G1A22.869Z10.996
G1A24.026Z11.126
G1A24.540Z11.138
G1A25.182Z11.072
G1A25.824Z10.917
G1A26.724Z10.607
G1A28.137Z10.038
G1A29.936Z9.414
G1A31.991Z8.797
G1A33.662Z8.374
G1A34.176Z8.244
G1A34.690Z8.048
G1A34.946Z7.908
G1A35.203Z7.686
G1A35.460Z7.396
G1A35.589Z7.205
G1A35.717Z1.069
G1A39.829Z1.024
G1A56.274Z0.961
G1A70.792Z0.890
G1A84.411Z0.829
G1A97.645Z0.790
G1A107.281Z0.788
G1A130.407Z0.955
G1A143.512Z1.112
G1A143.640Z6.886
G1A143.769Z7.200
G1A144.026Z7.525
G1A144.411Z7.811
G1A144.797Z7.993
G1A145.567Z8.240
G1A148.137Z8.885
G1A149.807Z9.383
G1A151.863Z10.073
G1A153.662Z10.727
G1A154.690Z11.025
G1A155.203Z11.112
G1A155.846Z11.134
G1A157.516Z11.032
G1A158.158Z10.927
G1A158.672Z10.779
G1A159.186Z10.546
G1A159.572Z10.342
G1A160.086Z10.106
G1A160.343Z9.954
G1A160.728Z9.849
G1A162.784Z9.419
G1A163.940Z9.258
G1A166.253Z9.033
G1A168.180Z8.909
G1A169.722Z8.739
G1A171.649Z8.479
G1A173.062Z8.267
G1A176.017Z8.031
G1A177.302Z7.881
G1A179.358Z7.533
G1A181.028Z7.275
G1A184.111Z6.907
G1A187.323Z6.649
G1A191.820Z6.374
G1A197.473Z6.112
G1A200.814Z6.028
G1A203.897Z6.021
G1A209.807Z6.072
G1A211.349Z6.077
G1A213.019Z6.184
G1A214.433Z6.241
G1A215.846Z6.232
G1A217.002Z6.165
G1A217.773Z6.052
G1A218.287Z5.950
G1A218.801Z5.795
G1A219.058Z5.691
G1A220.214Z5.763
G1A221.756Z5.921
G1A226.381Z6.475
G1A228.308Z6.638
G1A229.979Z6.721
G1A232.163Z6.747
G1A233.191Z6.701
G1A234.347Z6.588
G1A236.274Z6.207
G1A236.660Z6.125
G1A237.173Z6.068
G1A237.430Z6.091
G1A238.715Z6.332
G1A241.799Z7.057
G1A243.340Z7.348
G1A245.139Z7.621
G1A247.452Z7.834
G1A249.251Z7.925
G1A250.792Z7.915
G1A252.334Z7.807
G1A253.233Z7.767
G1A254.261Z7.817
G1A255.289Z7.970
G1A256.188Z8.085
G1A258.244Z8.130
G1A259.272Z8.122
G1A261.842Z7.926
G1A262.998Z7.770
G1A263.126Z7.744
G1A264.283Z7.714
G1A266.081Z7.607
G1A266.338Z7.554
G1A267.238Z7.596
G1A268.137Z7.659
G1A270.450Z7.684
G1A271.991Z7.634
G1A272.762Z7.568
G1A274.433Z7.274
G1A275.203Z7.145
G1A275.460Z7.100
G1A276.617Z7.052
G1A277.773Z7.140
G1A278.544Z7.267
G1A280.214Z7.410
G1A281.884Z7.437
G1A283.426Z7.400
G1A285.482Z7.261
G1A287.152Z7.091
G1A288.822Z6.786
G1A290.107Z6.463
G1A291.263Z6.228
G1A292.420Z6.172
G1A295.760Z6.515
G1A296.660Z6.553
G1A298.330Z6.545
G1A302.441Z6.331
G1A305.139Z6.110
G1A309.122Z5.666
G1A311.049Z5.418
G1A311.820Z5.367
G1A312.720Z5.361
G1A314.647Z5.482
G1A315.931Z5.612
G1A317.730Z5.725
G1A319.786Z5.750
G1A321.970Z5.715
G1A325.953Z5.640
G1A329.550Z5.574
G1A334.176Z5.433
G1A337.388Z5.402
G1A341.370Z5.468
G1A347.024Z5.654
G1A351.006Z5.843
G1A354.090Z6.041
G1A356.017Z6.214
G1A359.743Z6.628
G1A360.000Z6.652
G1X83.300Z6.896
G1A354.218Z6.215
G1A351.777Z6.022
G1A347.281Z5.810
G1A340.728Z5.613
G1A335.846Z5.550
G1A333.276Z5.610
G1A329.293Z5.785
G1A324.540Z5.882
G1A319.657Z6.052
G1A317.473Z6.070
G1A315.032Z6.019
G1A314.004Z5.945
G1A312.077Z5.745
G1A311.178Z5.633
G1A310.792Z5.609
G1A305.139Z6.388
G1A302.955Z6.635
G1A299.358Z6.911
G1A296.916Z7.024
G1A295.118Z7.009
G1A292.420Z6.814
G1A291.520Z6.834
G1A290.492Z6.938
G1A289.593Z7.097
G1A287.794Z7.449
G1A286.124Z7.664
G1A284.197Z7.807
G1A282.527Z7.860
G1A280.214Z7.831
G1A279.957Z7.825
G1A279.829Z7.840
G1A279.443Z7.970
G1A279.058Z8.011
G1A275.717Z8.079
G1A274.176Z8.056
G1A272.762Z7.981
G1A272.377Z7.976
G1A270.578Z8.021
G1A268.394Z7.989
G1A268.137Z8.024
G1A267.623Z8.167
G1A266.595Z8.317
G1A266.210Z8.371
G1A263.897Z8.465
G1A261.713Z8.466
G1A260.557Z8.418
G1A259.272Z8.374
G1A257.216Z8.391
G1A255.675Z8.337
G1A254.004Z8.221
G1A252.463Z8.235
G1A250.407Z8.314
G1A249.251Z8.319
G1A246.424Z8.164
G1A244.497Z7.944
G1A242.827Z7.651
G1A241.799Z7.433
G1A240.257Z7.056
G1A239.101Z6.828
G1A237.944Z6.695
G1A237.302Z6.676
G1A236.660Z6.734
G1A235.375Z6.883
G1A233.576Z7.036
G1A232.163Z7.087
G1A230.749Z7.045
G1A228.565Z6.939
G1A227.024Z6.775
G1A221.499Z6.080
G1A220.857Z6.019
G1A219.957Z6.235
G1A218.544Z6.435
G1A217.645Z6.516
G1A216.360Z6.574
G1A215.203Z6.574
G1A213.662Z6.516
G1A211.991Z6.392
G1A210.321Z6.249
G1A204.411Z6.185
G1A201.585Z6.201
G1A197.730Z6.294
G1A193.747Z6.482
G1A187.709Z6.832
G1A185.011Z7.036
G1A182.827Z7.254
G1A180.771Z7.532
G1A177.944Z8.059
G1A176.403Z8.277
G1A174.475Z8.479
G1A172.034Z8.696
G1A169.593Z8.972
G1A168.308Z9.088
G1A166.253Z9.240
G1A165.096Z9.389
G1A162.784Z9.752
G1A160.600Z10.145
G1A160.214Z10.239
G1A159.829Z10.418
G1A159.186Z10.736
G1A158.415Z11.020
G1A157.773Z11.183
G1A157.131Z11.279
G1A155.717Z11.422
G1A155.203
G1A154.561Z11.342
G1A153.276Z11.024
G1A152.505Z10.763
G1A150.835Z10.146
G1A148.908Z9.512
G1A147.109Z8.990
G1A145.182Z8.507
G1A144.540Z8.309
G1A144.154Z8.138
G1A143.897Z7.970
G1A143.640Z7.702
G1A143.383Z7.340
G1A143.255Z1.002
G1A119.615Z0.779
G1A104.454Z0.690
G1A87.880Z0.724
G1A57.559Z0.881
G1A43.683Z0.907
G1A38.158Z0.922
G1A36.617Z0.935
G1A36.488Z4.874
G1A36.360Z5.033
G1A36.103Z5.219
G1A35.974Z5.285
G1A35.846Z7.575
G1A35.717Z7.821
G1A35.460Z8.089
G1A35.075Z8.325
G1A34.690Z8.483
G1A32.120Z9.162
G1A30.193Z9.747
G1A28.779Z10.249
G1A27.238Z10.866
G1A26.467Z11.188
G1A25.953Z11.328
G1A25.054Z11.471
G1A24.540Z11.488
G1A24.026Z11.452
G1A22.612Z11.216
G1A21.585Z10.987
G1A21.071Z10.815
G1A19.786Z10.217
G1A18.630Z9.818
G1A17.473Z9.443
G1A16.188Z9.084
G1A15.546Z8.958
G1A12.463Z8.449
G1A10.921Z8.151
G1A9.379Z7.815
G1A8.223Z7.622
G1A6.424Z7.405
G1A4.625Z7.251
G1A2.313Z7.105
G1A0.385Z6.936
G1A0.000Z6.896
G1X82.982Z7.116
G1A2.441Z7.365
G1A5.653Z7.608
G1A8.223Z7.927
G1A9.764Z8.186
G1A11.820Z8.555
G1A15.161Z9.103
G1A17.730Z9.668
G1A18.887Z9.993
G1A19.272Z10.142
G1A20.171Z10.600
G1A21.071Z11.002
G1A22.099Z11.351
G1A23.126Z11.596
G1A23.897Z11.733
G1A24.540Z11.785
G1A25.182Z11.766
G1A26.210Z11.633
G1A26.981Z11.426
G1A27.495Z11.228
G1A29.036Z10.597
G1A30.835Z9.952
G1A33.019Z9.300
G1A34.561Z8.891
G1A35.075Z8.704
G1A35.589Z8.439
G1A35.846Z8.224
G1A36.103Z7.883
G1A36.231Z7.575
G1A36.488Z5.614
G1A36.874Z5.464
G1A37.131Z5.309
G1A37.259Z5.198
G1A37.388Z5.034
G1A37.516Z0.769
G1A44.839Z0.750
G1A58.330Z0.726
G1A89.036Z0.557
G1A105.739Z0.518
G1A120.899Z0.633
G1A131.820Z0.750
G1A142.869Z0.859
G1A142.998Z7.084
G1A143.126Z7.494
G1A143.255Z7.785
G1A143.512Z8.072
G1A144.026Z8.438
G1A144.411Z8.629
G1A145.054Z8.852
G1A147.109Z9.386
G1A148.779Z9.881
G1A150.578Z10.488
G1A152.634Z11.252
G1A153.405Z11.482
G1A154.176Z11.606
G1A155.203Z11.704
G1A155.717
G1A156.231Z11.654
G1A156.874Z11.538
G1A157.516Z11.426
G1A158.415Z11.161
G1A159.443Z10.760
G1A159.700Z10.651
G1A160.728Z10.396
G1A163.940Z9.829
G1A165.867Z9.534
G1A167.409Z9.358
G1A170.364Z9.136
G1A173.191Z8.856
G1A175.246Z8.640
G1A177.173Z8.377
G1A178.844Z8.102
G1A181.670Z7.629
G1A183.212Z7.436
G1A186.809Z7.099
G1A189.764Z6.896
G1A195.931Z6.582
G1A203.512Z6.322
G1A207.238Z6.323
G1A209.936Z6.371
G1A212.505Z6.655
G1A214.561Z6.777
G1A216.617Z6.857
G1A218.929Z6.856
G1A219.957Z6.813
G1A220.985Z6.712
G1A222.141Z6.488
G1A222.655Z6.375
G1A223.298Z6.441
G1A225.353Z6.740
G1A226.895Z6.951
G1A229.079Z7.174
G1A232.034Z7.376
G1A234.090Z7.463
G1A236.017Z7.480
G1A237.045Z7.450
G1A238.715Z7.316
G1A238.844Z7.316
G1A238.972Z7.392
G1A239.229Z7.464
G1A239.358Z7.481
G1A239.615Z7.649
G1A239.872Z7.742
G1A240.000Z7.852
G1A240.128Z7.928
G1A240.514Z7.952
G1A241.028Z7.919
G1A241.927Z7.788
G1A242.827Z7.992
G1A243.854Z8.158
G1A245.011Z8.305
G1A245.396Z8.438
G1A246.424Z8.629
G1A247.323Z8.706
G1A248.480Z8.728
G1A250.021Z8.669
G1A250.792Z8.599
G1A251.049Z8.558
G1A253.490Z8.478
G1A254.647Z8.491
G1A256.317Z8.555
G1A257.345Z8.670
G1A258.630Z8.747
G1A260.814Z8.802
G1A263.255Z8.813
G1A265.439Z8.761
G1A266.595Z8.693
G1A268.137Z8.491
G1A269.422Z8.238
G1A270.321Z8.249
G1A270.964Z8.340
G1A271.606Z8.413
G1A272.377Z8.489
G1A273.790Z8.573
G1A275.203Z8.609
G1A278.544Z8.560
G1A279.829Z8.510
G1A281.242Z8.348
G1A281.884Z8.209
G1A282.270Z8.155
G1A283.298Z8.149
G1A285.225Z8.065
G1A285.867Z8.017
G1A285.996Z8.029
G1A286.381Z8.143
G1A286.895Z8.214
G1A287.537Z8.262
G1A287.923Z8.250
G1A288.437Z8.224
G1A290.107Z8.171
G1A290.621Z8.125
G1A291.006Z8.035
G1A291.777Z7.972
G1A292.291Z7.894
G1A292.548Z7.801
G1A292.805Z7.650
G1A293.062Z7.598
G1A293.191Z7.525
G1A293.448Z7.461
G1A293.576Z7.406
G1A293.704Z7.384
G1A294.604Z7.422
G1A296.274Z7.425
G1A298.330Z7.324
G1A300.771Z7.138
G1A304.240Z6.753
G1A306.681Z6.375
G1A308.737Z6.022
G1A308.994Z6.039
G1A310.150Z6.201
G1A311.692Z6.300
G1A313.233Z6.346
G1A316.188Z6.360
G1A319.015Z6.307
G1A322.869Z6.142
G1A325.567Z6.029
G1A331.221Z5.913
G1A334.433Z5.862
G1A338.672Z5.871
G1A343.683Z5.860
G1A347.666Z5.969
G1A351.006Z6.127
G1A353.062Z6.289
G1A355.760Z6.589
G1A360.000Z7.116
G1X82.665Z7.301
G1A353.319Z6.504
G1A350.749Z6.274
G1A348.694Z6.171
G1A345.096Z6.080
G1A342.141Z6.080
G1A338.030Z6.114
G1A328.908Z6.110
G1A325.696Z6.159
G1A323.255Z6.266
G1A317.088Z6.585
G1A313.619Z6.700
G1A310.921Z6.707
G1A309.122Z6.640
G1A308.094Z6.545
G1A307.066Z6.425
G1A304.240Z6.937
G1A301.927Z7.268
G1A299.486Z7.525
G1A298.073Z7.639
G1A297.816Z7.804
G1A297.559Z7.881
G1A297.302Z7.903
G1A296.403Z7.875
G1A296.017Z7.976
G1A295.889Z7.995
G1A295.503Z8.105
G1A293.704Z8.395
G1A292.548Z8.509
G1A290.107Z8.645
G1A287.666Z8.692
G1A286.767Z8.671
G1A284.711Z8.421
G1A283.940Z8.347
G1A280.985Z8.743
G1A279.443Z8.845
G1A276.488Z8.902
G1A274.304Z8.896
G1A273.019Z8.843
G1A270.064Z8.564
G1A269.293Z8.591
G1A266.981Z8.910
G1A265.310Z9.021
G1A263.126Z9.066
G1A260.043Z9.054
G1A257.730Z8.978
G1A256.445Z8.882
G1A254.775Z8.680
G1A254.133Z8.640
G1A253.362Z8.667
G1A252.206Z8.874
G1A251.049Z9.016
G1A249.507Z9.100
G1A247.966Z9.091
G1A246.424Z9.013
G1A245.653Z8.912
G1A243.597Z8.530
G1A243.084Z8.515
G1A241.413Z8.732
G1A240.514Z8.768
G1A239.358Z8.721
G1A238.844Z8.668
G1A238.587Z8.634
G1A238.073Z8.576
G1A237.302Z8.382
G1A236.916Z8.278
G1A236.403Z8.059
G1A236.146Z7.894
G1A234.732Z7.843
G1A232.163Z7.654
G1A227.024Z7.099
G1A224.325Z6.709
G1A224.197Z6.703
G1A223.298Z6.925
G1A222.398Z7.080
G1A221.242Z7.197
G1A220.214Z7.244
G1A219.186Z7.247
G1A218.030Z7.197
G1A213.276Z6.878
G1A211.991Z6.750
G1A209.936Z6.477
G1A209.036Z6.420
G1A206.595Z6.399
G1A204.540Z6.450
G1A202.612Z6.560
G1A200.043Z6.703
G1A197.987Z6.776
G1A193.876Z6.886
G1A188.994Z7.126
G1A186.296Z7.341
G1A182.827Z7.719
G1A179.358Z8.189
G1A175.503Z8.789
G1A173.961Z8.984
G1A169.979Z9.392
G1A167.666Z9.587
G1A164.197Z10.020
G1A162.784Z10.255
G1A161.113Z10.568
G1A159.572Z10.933
G1A158.929Z11.108
G1A157.902Z11.489
G1A156.488Z11.843
G1A155.846Z11.931
G1A154.304Z12.000
G1A153.662Z11.960
G1A153.148Z11.868
G1A152.634Z11.707
G1A149.807Z10.635
G1A148.266Z10.123
G1A146.467Z9.587
G1A144.283Z9.002
G1A143.897Z8.835
G1A143.512Z8.595
G1A143.255Z8.324
G1A142.869Z7.695
G1A142.741Z0.648
G1A132.719Z0.539
G1A117.816Z0.339
G1A105.225Z0.262
G1A88.908Z0.299
G1A63.597Z0.467
G1A38.158Z0.516
G1A38.030Z5.127
G1A37.901Z5.308
G1A37.645Z5.525
G1A37.259Z5.732
G1A36.874Z5.863
G1A36.745Z5.895
G1A36.488Z7.818
G1A36.360Z8.129
G1A36.231Z8.354
G1A35.974Z8.623
G1A35.589Z8.886
G1A35.075Z9.112
G1A31.991Z9.998
G1A29.550Z10.835
G1A28.266Z11.343
G1A27.238Z11.769
G1A26.595Z11.950
G1A26.081Z12.031
G1A25.054Z12.098
G1A24.540Z12.083
G1A23.897Z11.991
G1A23.383Z11.898
G1A22.612Z11.734
G1A21.842Z11.522
G1A21.071Z11.215
G1A19.015Z10.289
G1A18.758Z10.157
G1A17.987Z9.943
G1A15.675Z9.465
G1A14.261Z9.146
G1A12.719Z8.879
G1A10.278Z8.509
G1A8.223Z8.177
G1A5.011Z7.771
G1A2.313Z7.555
G1A0.000Z7.301
G1X82.347Z7.454
G1A2.441Z7.727
G1A5.268Z7.988
G1A8.351Z8.393
G1A12.719Z9.056
G1A14.518Z9.403
G1A16.317Z9.831
G1A18.116Z10.192
G1A18.501Z10.323
G1A19.529Z10.752
G1A20.300Z11.066
G1A21.585Z11.622
G1A22.227Z11.836
G1A23.255Z12.087
G1A24.154Z12.257
G1A24.925Z12.341
G1A25.567Z12.339
G1A26.595Z12.281
G1A27.238Z12.168
G1A27.880Z11.973
G1A29.422Z11.317
G1A30.964Z10.747
G1A33.276Z9.999
G1A35.203Z9.457
G1A35.717Z9.261
G1A35.974Z9.113
G1A36.231Z8.881
G1A36.488Z8.593
G1A36.617Z8.406
G1A36.745Z8.051
G1A37.002Z6.090
G1A37.516Z5.940
G1A37.901Z5.772
G1A38.287Z5.508
G1A38.415Z5.375
G1A38.544Z5.183
G1A38.672Z0.154
G1A55.889Z0.112
G1A66.167Z0.068
G1A76.317Z0.000
G1A123.726Z0.008
G1A139.657Z0.295
G1A142.484Z0.325
G1A142.612Z7.493
G1A142.741Z8.340
G1A142.869Z8.533
G1A143.255Z8.879
G1A143.769Z9.193
G1A144.283Z9.387
G1A146.338Z9.931
G1A148.908Z10.735
G1A151.092Z11.550
G1A151.991Z11.903
G1A152.762Z12.135
G1A153.405Z12.243
G1A154.433Z12.275
G1A155.203Z12.223
G1A155.974Z12.119
G1A157.259Z11.806
G1A158.544Z11.390
G1A160.086Z11.041
G1A161.627Z10.693
G1A163.940Z10.288
G1A168.308Z9.741
G1A171.649Z9.418
G1A174.604Z9.056
G1A178.587Z8.464
G1A183.340Z7.879
G1A185.525Z7.611
G1A188.223Z7.362
G1A191.435Z7.171
G1A194.004Z7.066
G1A198.116Z7.014
G1A200.685Z6.897
G1A203.640Z6.685
G1A205.439Z6.576
G1A206.595Z6.479
G1A208.137Z6.464
G1A209.422Z6.504
G1A210.193Z6.585
G1A211.863Z6.824
G1A214.818Z7.142
G1A217.516Z7.465
G1A219.058Z7.574
G1A220.728Z7.617
G1A222.527Z7.598
G1A223.683Z7.530
G1A224.711Z7.414
G1A225.353Z7.286
G1A226.124Z7.088
G1A226.253Z7.083
G1A228.951Z7.433
G1A229.079Z7.941
G1A229.208Z8.127
G1A229.336Z8.194
G1A229.593Z8.254
G1A230.749Z8.339
G1A232.677Z8.339
G1A233.191Z8.311
G1A233.576Z8.318
G1A234.475Z8.294
G1A234.989Z8.397
G1A235.760Z8.600
G1A236.660Z8.774
G1A237.430Z8.911
G1A238.330Z9.030
G1A240.000Z9.128
G1A241.542Z9.116
G1A242.441Z9.040
G1A243.726Z8.908
G1A244.111Z8.940
G1A246.167Z9.234
G1A247.323Z9.332
G1A248.994Z9.370
G1A250.664Z9.333
G1A251.692Z9.273
G1A252.976Z9.123
G1A253.876Z8.969
G1A254.261Z8.938
G1A255.161Z8.978
G1A257.602Z9.190
G1A259.143Z9.268
G1A261.713Z9.302
G1A264.797Z9.270
G1A266.210Z9.204
G1A267.623Z9.069
G1A269.422Z8.837
G1A270.193Z8.823
G1A272.505Z9.052
G1A273.790Z9.120
G1A276.103Z9.145
G1A278.801Z9.108
G1A280.214Z9.044
G1A282.013Z8.869
G1A283.426Z8.719
G1A283.940Z8.680
G1A284.711Z8.746
G1A285.739Z8.874
G1A286.895Z8.962
G1A288.822Z8.967
G1A291.520Z8.894
G1A293.319Z8.798
G1A295.246Z8.587
G1A296.017Z8.479
G1A297.816Z8.537
G1A299.101Z8.497
G1A300.000Z8.404
G1A300.771Z8.268
G1A301.156Z8.144
G1A301.670Z7.937
G1A301.927Z7.783
G1A302.056Z7.655
G1A302.184Z7.469
G1A302.313Z7.398
G1A304.368Z7.052
G1A305.653Z6.802
G1A306.809Z6.873
G1A308.351Z6.983
G1A310.535Z7.039
G1A313.105Z6.991
G1A315.546Z6.883
G1A322.998Z6.365
G1A325.310Z6.253
G1A326.724Z6.220
G1A330.193Z6.234
G1A332.634Z6.298
G1A335.974Z6.321
G1A344.582Z6.290
G1A347.923Z6.353
G1A350.621Z6.461
G1A352.677Z6.623
G1A355.375Z6.922
G1A358.201Z7.257
G1A360.000Z7.454
G1X82.030Z7.571
G1A356.531Z7.207
G1A353.576Z6.880
G1A351.520Z6.726
G1A348.565Z6.595
G1A344.069Z6.487
G1A339.443Z6.468
G1A331.734Z6.517
G1A329.936Z6.491
G1A328.137Z6.407
G1A326.081Z6.271
G1A324.154Z6.346
G1A321.071Z6.544
G1A317.602Z6.880
G1A315.546Z7.069
G1A312.591Z7.250
G1A310.792Z7.297
G1A308.737Z7.300
G1A306.809Z7.234
G1A305.139Z7.146
G1A304.754Z7.134
G1A304.625Z7.303
G1A304.497Z7.377
G1A304.368Z7.409
G1A303.983Z7.619
G1A303.597Z7.751
G1A303.212Z8.040
G1A302.827Z8.206
G1A302.184Z8.441
G1A301.285Z8.656
G1A300.514Z8.787
G1A299.615Z8.880
G1A297.559Z8.906
G1A295.760Z8.808
G1A293.191Z9.046
G1A291.777Z9.133
G1A290.107Z9.197
G1A287.537Z9.221
G1A286.510Z9.201
G1A285.225Z9.095
G1A284.197Z8.922
G1A283.812Z8.906
G1A282.655Z8.980
G1A281.242Z9.175
G1A279.700Z9.300
G1A277.901Z9.350
G1A274.690Z9.359
G1A273.276Z9.323
G1A272.120Z9.248
G1A270.321Z9.059
G1A269.679Z9.049
G1A268.394Z9.185
G1A266.852Z9.373
G1A265.567Z9.463
G1A263.640Z9.518
G1A260.557Z9.533
G1A259.015Z9.495
G1A257.345Z9.373
G1A255.546Z9.212
G1A254.647Z9.189
G1A254.004Z9.251
G1A252.848Z9.416
G1A251.820Z9.516
G1A250.278Z9.582
G1A248.737Z9.590
G1A247.580Z9.553
G1A245.782Z9.393
G1A244.368Z9.185
G1A242.441Z9.361
G1A240.899Z9.407
G1A239.229Z9.345
G1A237.944Z9.236
G1A236.017Z8.989
G1A234.861Z8.832
G1A234.347Z8.856
G1A233.191Z8.984
G1A231.392Z9.010
G1A230.493Z8.991
G1A229.336Z8.923
G1A228.565Z8.827
G1A227.666Z8.682
G1A227.409Z8.603
G1A226.895Z8.502
G1A226.381Z8.299
G1A226.253Z8.228
G1A226.124Z8.113
G1A225.996Z7.865
G1A225.867Z7.807
G1A225.096Z7.902
G1A223.683Z7.966
G1A222.141Z7.974
G1A219.957Z7.896
G1A217.901Z7.755
G1A215.332Z7.411
G1A212.762Z6.984
G1A210.578Z6.688
G1A210.193Z6.631
G1A210.064Z6.626
G1A209.293Z6.756
G1A208.266Z6.885
G1A206.981Z6.974
G1A204.668Z7.026
G1A201.585Z6.997
G1A198.758Z7.158
G1A196.959Z7.225
G1A193.233Z7.240
G1A191.563Z7.306
G1A187.709Z7.570
G1A185.268Z7.817
G1A180.899Z8.380
G1A177.559Z8.733
G1A175.246Z9.073
G1A173.062Z9.393
G1A169.850Z9.770
G1A167.537Z10.020
G1A164.968Z10.360
G1A163.683Z10.539
G1A161.756Z10.882
G1A159.957Z11.261
G1A158.158Z11.648
G1A157.131Z11.962
G1A156.488Z12.180
G1A155.717Z12.376
G1A154.818Z12.505
G1A154.176Z12.550
G1A153.405Z12.536
G1A152.505Z12.435
G1A151.991Z12.331
G1A151.606Z12.204
G1A149.679Z11.431
G1A148.009Z10.839
G1A145.696Z10.125
G1A144.283Z9.727
G1A143.640Z9.503
G1A143.255Z9.307
G1A142.869Z9.026
G1A142.612Z8.737
G1A142.355Z8.124
G1A142.227Z0.000
G1A39.058
G1A38.929Z4.967
G1A38.801Z5.302
G1A38.544Z5.600
G1A38.158Z5.873
G1A37.773Z6.057
G1A37.131Z6.268
G1A37.002Z8.344
G1A36.745Z8.927
G1A36.488Z9.251
G1A36.231Z9.442
G1A35.717Z9.677
G1A35.075Z9.880
G1A33.790Z10.232
G1A32.120Z10.757
G1A30.450Z11.347
G1A28.908Z11.977
G1A28.266Z12.245
G1A27.495Z12.462
G1A26.852Z12.556
G1A25.953Z12.592
G1A25.054Z12.570
G1A24.411Z12.493
G1A23.126Z12.221
G1A22.099Z11.952
G1A20.942Z11.518
G1A19.914Z11.045
G1A18.501Z10.549
G1A17.730Z10.348
G1A15.161Z9.771
G1A13.747Z9.447
G1A11.178Z8.966
G1A7.323Z8.400
G1A4.754Z8.079
G1A1.670Z7.762
G1A0.000Z7.571
G1X81.712Z7.695
G1A4.625Z8.183
G1A6.552Z8.415
G1A9.122Z8.792
G1A12.206Z9.317
G1A14.390Z9.785
G1A16.060Z10.198
G1A18.501Z10.777
G1A19.914Z11.206
G1A20.814Z11.610
G1A22.484Z12.191
G1A23.769Z12.533
G1A24.925Z12.750
G1A25.567Z12.809
G1A26.595Z12.802
G1A27.366Z12.758
G1A28.009Z12.663
G1A28.651Z12.492
G1A29.293Z12.249
G1A30.835Z11.620
G1A32.634Z10.982
G1A34.561Z10.381
G1A35.974Z9.989
G1A36.360Z9.837
G1A36.745Z9.593
G1A37.002Z9.307
G1A37.131Z9.136
G1A37.259Z8.624
G1A37.388Z6.417
G1A37.773Z6.285
G1A38.158Z6.085
G1A38.672Z5.689
G1A38.929Z5.381
G1A39.058Z5.103
G1A39.186Z0.000
G1A142.099
G1A142.227Z8.552
G1A142.355Z8.822
G1A142.612Z9.134
G1A143.126Z9.530
G1A143.640Z9.844
G1A144.283Z10.095
G1A146.852Z10.856
G1A148.137Z11.284
G1A149.807Z11.910
G1A151.221Z12.450
G1A151.863Z12.615
G1A152.505Z12.718
G1A153.662Z12.783
G1A154.176Z12.769
G1A155.589Z12.605
G1A156.103Z12.494
G1A156.617Z12.329
G1A157.388Z12.014
G1A158.030Z11.835
G1A161.242Z11.153
G1A163.169Z10.809
G1A166.638Z10.312
G1A169.336Z9.970
G1A173.319Z9.456
G1A176.788Z8.922
G1A178.458Z8.754
G1A180.514Z8.571
G1A182.827Z8.278
G1A185.396Z7.960
G1A187.709Z7.742
G1A192.463Z7.417
G1A194.390Z7.358
G1A197.088Z7.339
G1A199.914Z7.219
G1A201.071Z7.171
G1A204.411Z7.301
G1A207.366Z7.327
G1A209.036Z7.287
G1A210.707Z7.193
G1A212.248Z6.998
G1A212.377Z6.998
G1A214.690Z7.460
G1A216.874Z7.808
G1A218.030Z7.953
G1A220.600Z8.179
G1A222.527Z8.274
G1A224.582Z8.282
G1A225.096Z8.588
G1A225.482Z8.731
G1A226.253Z8.893
G1A227.666Z9.108
G1A229.336Z9.277
G1A230.749Z9.321
G1A232.677Z9.331
G1A234.090Z9.268
G1A235.246Z9.164
G1A236.274Z9.244
G1A239.358Z9.549
G1A240.771Z9.621
G1A242.056Z9.636
G1A243.597Z9.556
G1A244.882Z9.434
G1A245.268Z9.463
G1A246.424Z9.626
G1A247.709Z9.744
G1A248.994Z9.791
G1A250.921Z9.782
G1A252.077Z9.728
G1A252.976Z9.650
G1A254.647Z9.409
G1A255.161Z9.386
G1A256.060Z9.424
G1A257.987Z9.634
G1A259.015Z9.715
G1A260.171Z9.761
G1A262.612Z9.762
G1A265.567Z9.689
G1A266.981Z9.581
G1A269.036Z9.307
G1A269.936Z9.254
G1A270.578Z9.290
G1A272.120Z9.463
G1A273.019Z9.530
G1A274.561Z9.574
G1A277.773Z9.562
G1A279.315Z9.517
G1A280.343Z9.458
G1A282.013Z9.266
G1A283.041Z9.121
G1A283.683Z9.119
G1A284.968Z9.305
G1A285.739Z9.382
G1A286.767Z9.439
G1A289.208Z9.439
G1A291.135Z9.388
G1A292.548Z9.306
G1A294.861Z9.081
G1A295.118Z9.071
G1A296.146Z9.146
G1A297.559Z9.191
G1A299.486Z9.150
G1A300.899Z9.013
G1A301.670Z8.891
G1A302.441Z8.706
G1A303.469Z8.386
G1A303.726Z8.283
G1A304.240Z8.185
G1A305.139Z8.153
G1A306.809Z8.295
G1A307.452Z8.299
G1A308.608Z8.236
G1A308.994Z8.171
G1A309.379Z8.136
G1A309.893Z7.998
G1A310.278Z7.843
G1A310.535Z7.700
G1A310.792Z7.522
G1A312.848Z7.432
G1A315.675Z7.206
G1A317.730Z6.963
G1A319.786Z6.707
G1A321.842Z6.496
G1A322.741Z6.431
G1A324.026Z6.540
G1A325.953Z6.628
G1A329.679Z6.705
G1A332.248Z6.696
G1A338.544Z6.582
G1A342.527Z6.608
G1A346.381Z6.707
G1A351.649Z6.929
G1A353.833Z7.076
G1A356.660Z7.353
G1A360.000Z7.695
G1X81.395Z7.829
G1A355.246Z7.365
G1A352.548Z7.159
G1A346.253Z6.825
G1A343.426Z6.722
G1A339.700Z6.659
G1A337.259Z6.679
G1A331.349Z6.862
G1A327.495Z6.897
G1A324.668Z6.862
G1A323.255Z6.809
G1A321.328Z6.695
G1A320.557Z6.616
G1A319.143Z6.796
G1A316.445Z7.214
G1A314.904Z7.399
G1A312.463Z7.612
G1A312.334Z7.620
G1A312.077Z7.763
G1A311.820Z7.935
G1A311.306Z8.167
G1A310.535Z8.438
G1A310.021Z8.551
G1A309.122Z8.639
G1A307.452Z8.723
G1A306.039Z8.694
G1A304.240Z8.544
G1A303.726Z8.568
G1A302.827Z8.823
G1A301.670Z9.093
G1A300.514Z9.250
G1A299.101Z9.356
G1A297.302Z9.420
G1A295.503Z9.382
G1A294.604Z9.313
G1A293.961Z9.322
G1A292.291Z9.505
G1A290.364Z9.617
G1A287.794Z9.653
G1A286.381Z9.632
G1A285.096Z9.543
G1A283.426Z9.331
G1A282.912Z9.316
G1A280.600Z9.624
G1A279.186Z9.718
G1A277.002Z9.769
G1A274.304Z9.777
G1A272.762Z9.724
G1A271.478Z9.610
G1A270.064Z9.439
G1A269.679Z9.426
G1A269.165Z9.448
G1A267.238Z9.761
G1A265.824Z9.887
G1A263.512Z9.964
G1A260.557Z9.982
G1A258.887Z9.917
G1A257.345Z9.733
G1A256.188Z9.589
G1A255.418Z9.549
G1A255.032Z9.581
G1A253.362Z9.836
G1A251.820Z9.953
G1A250.021Z9.978
G1A248.737Z9.954
G1A247.323Z9.875
G1A246.039Z9.712
G1A245.525Z9.644
G1A243.469Z9.814
G1A242.570Z9.855
G1A240.899Z9.827
G1A238.458Z9.632
G1A236.660Z9.435
G1A236.146Z9.406
G1A235.632Z9.432
G1A234.604Z9.510
G1A233.062Z9.564
G1A230.749Z9.528
G1A229.208Z9.488
G1A226.510Z9.258
G1A225.353Z9.084
G1A224.454Z8.827
G1A223.940Z8.619
G1A223.812Z8.550
G1A221.627Z8.461
G1A219.700Z8.302
G1A217.388Z8.013
G1A214.690Z7.572
G1A213.662Z7.365
G1A213.405Z7.374
G1A211.606Z7.552
G1A210.321Z7.621
G1A208.908Z7.637
G1A206.595Z7.590
G1A203.126Z7.443
G1A200.300Z7.285
G1A199.272Z7.288
G1A196.831Z7.411
G1A195.546Z7.440
G1A193.747Z7.517
G1A192.077Z7.560
G1A187.580Z7.917
G1A185.268Z8.109
G1A183.084Z8.353
G1A180.257Z8.704
G1A176.788Z9.011
G1A174.989Z9.264
G1A171.649Z9.759
G1A165.739Z10.589
G1A162.270Z11.124
G1A160.600Z11.447
G1A157.902Z12.057
G1A156.617Z12.476
G1A155.846Z12.710
G1A155.075Z12.856
G1A154.176Z12.959
G1A153.405Z12.976
G1A152.120Z12.932
G1A151.478Z12.845
G1A150.707Z12.666
G1A150.064Z12.445
G1A148.394Z11.779
G1A146.338Z11.078
G1A143.897Z10.337
G1A143.383Z10.149
G1A142.998Z9.924
G1A142.741Z9.675
G1A142.484Z9.270
G1A142.227Z8.925
G1A142.099Z8.628
G1A141.970Z0.000
G1A39.315
G1A39.186Z5.187
G1A38.929Z5.744
G1A38.801Z5.927
G1A38.544Z6.159
G1A38.158Z6.380
G1A37.645Z6.578
G1A37.516Z8.947
G1A37.388Z9.422
G1A37.259Z9.609
G1A37.002Z9.845
G1A36.617Z10.070
G1A36.103Z10.292
G1A33.405Z11.118
G1A31.734Z11.691
G1A29.936Z12.408
G1A29.165Z12.692
G1A28.522Z12.854
G1A27.623Z12.994
G1A26.981Z13.026
G1A25.696Z13.021
G1A24.797Z12.918
G1A24.026Z12.780
G1A23.126Z12.544
G1A20.428Z11.579
G1A20.043Z11.431
G1A17.473Z10.741
G1A15.161Z10.202
G1A12.591Z9.570
G1A11.692Z9.379
G1A7.452Z8.666
G1A5.910Z8.474
G1A2.570Z8.118
G1A0.000Z7.829
G1X81.077Z7.935
G1A1.927Z8.169
G1A4.882Z8.528
G1A7.323Z8.784
G1A8.351Z8.937
G1A11.820Z9.542
G1A13.233Z9.894
G1A15.289Z10.406
G1A17.088Z10.822
G1A19.143Z11.406
G1A20.171Z11.657
G1A21.199Z11.981
G1A22.484Z12.522
G1A23.383Z12.803
G1A24.411Z13.020
G1A25.567Z13.165
G1A26.338Z13.203
G1A27.495Z13.216
G1A28.266Z13.140
G1A29.293Z12.974
G1A29.936Z12.798
G1A30.578Z12.564
G1A31.991Z12.001
G1A34.047Z11.288
G1A35.717Z10.778
G1A36.488Z10.542
G1A37.002Z10.328
G1A37.259Z10.170
G1A37.516Z9.921
G1A37.773Z9.522
G1A37.901Z6.818
G1A38.030Z6.714
G1A38.415Z6.519
G1A38.801Z6.275
G1A39.058Z6.037
G1A39.186Z5.851
G1A39.315Z5.543
G1A39.443Z0.000
G1A141.456
G1A141.585Z6.846
G1A141.713Z7.114
G1A141.970Z7.391
G1A142.099Z8.900
G1A142.227Z9.454
G1A142.355Z9.710
G1A142.612Z9.984
G1A143.126Z10.337
G1A143.640Z10.586
G1A144.283Z10.826
G1A146.595Z11.539
G1A148.522Z12.230
G1A149.679Z12.695
G1A150.321Z12.895
G1A151.092Z13.054
G1A152.120Z13.137
G1A153.533Z13.137
G1A154.690Z13.050
G1A155.332Z12.961
G1A156.360Z12.710
G1A157.902Z12.267
G1A160.343Z11.723
G1A161.884Z11.362
G1A163.426Z11.085
G1A168.308Z10.318
G1A173.833Z9.496
G1A175.889Z9.189
G1A178.073Z8.968
G1A180.514Z8.741
G1A183.340Z8.408
G1A186.039Z8.173
G1A189.636Z7.881
G1A190.278Z7.837
G1A194.004Z7.889
G1A196.188Z7.850
G1A197.730Z7.758
G1A199.015Z7.606
G1A199.657Z7.507
G1A200.171Z7.393
G1A200.300Z7.379
G1A206.595Z7.804
G1A209.679Z7.934
G1A211.221Z7.953
G1A212.891Z7.933
G1A214.304Z7.823
G1A214.561Z7.796
G1A214.818Z7.953
G1A215.075Z8.061
G1A215.332Z8.218
G1A215.717Z8.326
G1A216.231Z8.475
G1A216.874Z8.593
G1A217.388Z8.671
G1A218.030Z8.729
G1A218.801Z8.789
G1A219.572Z8.810
G1A220.728Z8.796
G1A222.013Z8.770
G1A222.784Z8.786
G1A223.298Z8.823
G1A223.683Z8.909
G1A224.325Z9.098
G1A225.482Z9.325
G1A226.510Z9.463
G1A228.951Z9.623
G1A231.777Z9.735
G1A233.704Z9.757
G1A234.861Z9.728
G1A236.146Z9.644
G1A236.660Z9.597
G1A238.073Z9.717
G1A239.743Z9.898
G1A241.670Z10.028
G1A243.340Z10.039
G1A244.111Z9.999
G1A245.910Z9.831
G1A246.552Z9.897
G1A248.094Z10.067
G1A249.636Z10.141
G1A251.435Z10.145
G1A252.848Z10.091
G1A254.133Z9.966
G1A255.675Z9.719
G1A256.188Z9.733
G1A256.831Z9.812
G1A258.116Z10.010
G1A259.400Z10.135
G1A261.071Z10.181
G1A264.026Z10.154
G1A265.824Z10.083
G1A266.595Z10.024
G1A268.009Z9.843
G1A269.293Z9.588
G1A269.550Z9.583
G1A271.092Z9.758
G1A272.120Z9.877
G1A273.405Z9.956
G1A275.717Z9.975
G1A278.801Z9.923
G1A280.214Z9.836
G1A281.113Z9.741
G1A282.398Z9.530
G1A282.912Z9.496
G1A283.683Z9.571
G1A285.353Z9.773
G1A286.895Z9.832
G1A289.336Z9.821
G1A291.006Z9.757
G1A292.291Z9.658
G1A293.704Z9.509
G1A294.475Z9.544
G1A295.632Z9.615
G1A297.302Z9.608
G1A299.229Z9.513
G1A300.771Z9.351
G1A302.056Z9.130
G1A303.340Z8.831
G1A303.726Z8.858
G1A305.396Z8.998
G1A306.295Z9.010
G1A308.351Z8.962
G1A309.764Z8.869
G1A310.407Z8.782
G1A311.435Z8.547
G1A312.077Z8.328
G1A312.591Z8.099
G1A312.848Z7.949
G1A313.105Z7.734
G1A313.233Z7.664
G1A315.418Z7.404
G1A317.088Z7.146
G1A317.345Z7.104
G1A318.116Z7.089
G1A318.373Z7.047
G1A318.501Z7.000
G1A318.630Z6.908
G1A318.758Z6.847
G1A319.015Z6.801
G1A319.400Z6.820
G1A321.071Z6.967
G1A323.897Z7.078
G1A326.852Z7.083
G1A330.578Z7.006
G1A334.561Z6.853
G1A337.516Z6.717
G1A339.443Z6.699
G1A342.527Z6.743
G1A344.968Z6.826
G1A346.381Z6.906
G1A349.079Z7.136
G1A353.062Z7.360
G1A357.687Z7.716
G1A360.000Z7.935
G1X80.760Z8.040
G1A356.017Z7.711
G1A351.649Z7.407
G1A347.923Z7.176
G1A345.225Z6.947
G1A342.784Z6.813
G1A341.756Z6.724
G1A339.700Z6.697
G1A338.030Z6.713
G1A336.745Z6.761
G1A332.248Z7.029
G1A329.036Z7.164
G1A325.696Z7.242
G1A323.255Z7.249
G1A321.842Z7.216
G1A321.199Z7.188
G1A321.071Z7.228
G1A320.814Z7.485
G1A320.557Z7.619
G1A320.300Z7.684
G1A320.043Z7.790
G1A319.143Z7.989
G1A318.244Z8.113
G1A317.216Z8.170
G1A315.032Z8.159
G1A314.004Z8.128
G1A313.362Z8.154
G1A313.105Z8.220
G1A312.463Z8.496
G1A311.692Z8.722
G1A310.921Z8.891
G1A309.379Z9.081
G1A307.709Z9.214
G1A306.039Z9.274
G1A304.882Z9.270
G1A303.212Z9.161
G1A302.570Z9.101
G1A302.441Z9.108
G1A301.156Z9.374
G1A299.872Z9.572
G1A298.715Z9.693
G1A297.045Z9.791
G1A295.246Z9.806
G1A293.319Z9.698
G1A292.677Z9.745
G1A291.392Z9.875
G1A290.236Z9.943
G1A288.308Z9.993
G1A286.381Z9.987
G1A285.225Z9.939
G1A284.069Z9.825
G1A282.912Z9.664
G1A282.527Z9.673
G1A282.141Z9.713
G1A280.985Z9.905
G1A279.572Z10.048
G1A277.901Z10.126
G1A274.818Z10.162
G1A273.148Z10.132
G1A271.991Z10.053
G1A269.807Z9.789
G1A269.422Z9.767
G1A269.036Z9.805
G1A268.266Z9.978
G1A267.238Z10.138
G1A266.210Z10.237
G1A264.925Z10.306
G1A262.098Z10.354
G1A260.557Z10.341
G1A259.400Z10.289
G1A258.116Z10.165
G1A256.574Z9.903
G1A256.188Z9.869
G1A255.803Z9.911
G1A254.261Z10.154
G1A252.976Z10.273
G1A251.435Z10.314
G1A249.893Z10.301
G1A248.737Z10.250
G1A247.195Z10.089
G1A246.424Z10.005
G1A246.039Z10.025
G1A244.497Z10.193
G1A242.955Z10.228
G1A241.542Z10.172
G1A240.385Z10.090
G1A237.559Z9.771
G1A237.302Z9.755
G1A236.274Z9.858
G1A234.989Z9.929
G1A232.934Z9.923
G1A230.621Z9.842
G1A227.923Z9.689
G1A226.124Z9.548
G1A225.096Z9.405
G1A223.683Z9.162
G1A223.169Z9.108
G1A221.884Z9.092
G1A220.600Z9.120
G1A219.443Z9.140
G1A217.901Z9.090
G1A216.488Z8.979
G1A215.460Z8.848
G1A214.818Z8.744
G1A214.047Z8.571
G1A213.276Z8.355
G1A213.019Z8.265
G1A211.734Z8.257
G1A209.807Z8.179
G1A206.981Z8.004
G1A202.484Z7.610
G1A201.456Z7.824
G1A200.171Z7.989
G1A199.015Z8.070
G1A196.445Z8.169
G1A194.390Z8.176
G1A192.077Z8.125
G1A189.122Z8.031
G1A188.094Z8.105
G1A182.313Z8.575
G1A178.458Z8.970
G1A176.017Z9.222
G1A174.347Z9.444
G1A169.208Z10.253
G1A166.895Z10.614
G1A164.069Z11.085
G1A162.527Z11.391
G1A159.572Z12.106
G1A157.645Z12.526
G1A155.846Z12.961
G1A154.818Z13.145
G1A153.405Z13.280
G1A151.734Z13.330
G1A150.835Z13.272
G1A150.193Z13.178
G1A149.550Z13.028
G1A148.908Z12.798
G1A146.981Z12.063
G1A145.182Z11.453
G1A143.897Z11.055
G1A143.383Z10.851
G1A142.998Z10.622
G1A142.484Z10.189
G1A142.099Z9.661
G1A141.970Z9.259
G1A141.842Z8.263
G1A141.713Z7.623
G1A141.456Z7.337
G1A141.328Z7.019
G1A141.199Z0.000
G1A39.572
G1A39.443Z5.847
G1A39.186Z6.219
G1A38.929Z6.465
G1A38.544Z6.715
G1A38.287Z6.871
G1A38.158Z9.404
G1A38.030Z9.875
G1A37.901Z10.139
G1A37.645Z10.409
G1A37.259Z10.655
G1A36.874Z10.817
G1A34.818Z11.415
G1A33.276Z11.931
G1A31.349Z12.657
G1A30.835Z12.869
G1A29.936Z13.127
G1A29.165Z13.250
G1A28.009Z13.352
G1A27.109Z13.361
G1A25.953Z13.317
G1A24.668Z13.179
G1A23.640Z12.998
G1A22.741Z12.758
G1A21.713Z12.382
G1A20.685Z11.991
G1A19.786Z11.722
G1A18.244Z11.333
G1A16.574Z10.850
G1A14.518Z10.361
G1A11.820Z9.661
G1A9.893Z9.301
G1A8.094Z8.999
G1A5.782Z8.735
G1A2.955Z8.411
G1A0.385Z8.082
G1A0.000Z8.040
G1X80.442Z8.155
G1A2.313Z8.409
G1A5.653Z8.808
G1A8.480Z9.139
G1A10.278Z9.434
G1A11.692Z9.708
G1A13.233Z10.108
G1A15.032Z10.617
G1A17.088Z11.129
G1A20.428Z12.083
G1A21.713Z12.510
G1A22.741Z12.859
G1A23.640Z13.086
G1A24.411Z13.226
G1A25.696Z13.380
G1A26.852Z13.464
G1A28.009Z13.503
G1A29.165Z13.457
G1A29.936Z13.393
G1A30.578Z13.286
G1A31.349Z13.054
G1A33.919Z12.087
G1A35.332Z11.622
G1A37.131Z11.072
G1A37.645Z10.856
G1A37.901Z10.698
G1A38.158Z10.460
G1A38.287Z10.308
G1A38.415Z10.064
G1A38.544Z9.251
G1A38.672Z7.028
G1A38.801Z6.806
G1A39.058Z6.619
G1A39.315Z6.327
G1A39.443Z6.137
G1A39.572Z5.848
G1A39.700Z0.000
G1A140.942
G1A141.071Z7.273
G1A141.199Z7.495
G1A141.456Z7.755
G1A141.713Z7.937
G1A141.970Z9.661
G1A142.227Z10.268
G1A142.355Z10.487
G1A142.612Z10.742
G1A143.255Z11.143
G1A143.769Z11.371
G1A144.540Z11.621
G1A145.953Z12.084
G1A147.623Z12.692
G1A149.293Z13.317
G1A149.807Z13.433
G1A150.450Z13.493
G1A151.478Z13.511
G1A152.377Z13.474
G1A154.690Z13.246
G1A156.231Z12.973
G1A160.214Z12.140
G1A162.013Z11.680
G1A163.555Z11.277
G1A164.839Z11.016
G1A167.537Z10.569
G1A168.951Z10.333
G1A171.263Z9.980
G1A174.604Z9.440
G1A177.045Z9.124
G1A181.799Z8.650
G1A186.681Z8.284
G1A187.580Z8.203
G1A194.647Z8.417
G1A197.216Z8.433
G1A199.786Z8.385
G1A201.456Z8.295
G1A202.355Z8.209
G1A203.640Z8.031
G1A204.154Z7.897
G1A204.283Z7.859
G1A204.540Z7.876
G1A206.338Z8.087
G1A209.036Z8.301
G1A211.092Z8.453
G1A211.734Z8.482
G1A212.377Z8.685
G1A213.276Z8.866
G1A215.203Z9.136
G1A216.745Z9.257
G1A218.544Z9.342
G1A220.086Z9.352
G1A222.784Z9.291
G1A223.683Z9.318
G1A225.996Z9.605
G1A228.051Z9.798
G1A230.749Z9.977
G1A233.448Z10.082
G1A235.118Z10.104
G1A236.531Z10.065
G1A237.944Z9.930
G1A238.201Z9.905
G1A241.156Z10.285
G1A242.313Z10.358
G1A243.726Z10.394
G1A245.268Z10.341
G1A246.809Z10.170
G1A247.323Z10.214
G1A248.480Z10.350
G1A249.764Z10.443
G1A251.692Z10.466
G1A252.848Z10.434
G1A253.747Z10.375
G1A255.032Z10.212
G1A256.188Z10.027
G1A256.445Z10.019
G1A257.216Z10.130
G1A258.373Z10.318
G1A259.914Z10.454
G1A261.585Z10.504
G1A264.668Z10.473
G1A266.210Z10.392
G1A267.238Z10.297
G1A268.394Z10.113
G1A269.165Z9.968
G1A269.679Z9.944
G1A272.505Z10.273
G1A273.919Z10.333
G1A276.874Z10.323
G1A278.544Z10.266
G1A279.700Z10.186
G1A280.857Z10.047
G1A282.270Z9.816
G1A282.784Z9.812
G1A284.454Z10.033
G1A285.739Z10.124
G1A287.281Z10.150
G1A289.208Z10.115
G1A290.492Z10.055
G1A292.548Z9.878
G1A293.191Z9.880
G1A294.475Z9.959
G1A295.632Z9.981
G1A297.430Z9.914
G1A298.844Z9.791
G1A300.128Z9.621
G1A301.542Z9.341
G1A303.340Z9.469
G1A305.011Z9.507
G1A306.938Z9.433
G1A308.351Z9.332
G1A310.150Z9.131
G1A311.563Z8.907
G1A312.334Z8.713
G1A312.976Z8.504
G1A313.105Z8.475
G1A313.619Z8.476
G1A315.931Z8.564
G1A317.216Z8.533
G1A319.143Z8.400
G1A320.171Z8.285
G1A321.199Z8.115
G1A322.227Z7.863
G1A322.741Z7.658
G1A322.998Z7.530
G1A323.126Z7.433
G1A323.255Z7.402
G1A326.467Z7.342
G1A329.807Z7.216
G1A333.276Z7.001
G1A336.488Z6.762
G1A337.901Z6.677
G1A338.158Z6.699
G1A339.443Z6.865
G1A341.627Z7.044
G1A343.298Z7.134
G1A346.381Z7.231
G1A352.934Z7.588
G1A357.944Z7.971
G1A360.000Z8.155
G1X80.125Z8.225
G1A354.347Z7.761
G1A351.135Z7.563
G1A347.537Z7.407
G1A344.069Z7.338
G1A341.756Z7.284
G1A340.214Z7.199
G1A338.287Z7.046
G1A336.617Z6.814
G1A336.103Z6.733
G1A330.321Z7.234
G1A327.238Z7.395
G1A324.668Z7.486
G1A324.283Z7.704
G1A323.769Z7.931
G1A322.998Z8.139
G1A321.970Z8.341
G1A320.814Z8.511
G1A317.987Z8.744
G1A316.317Z8.823
G1A315.032Z8.837
G1A312.591Z8.735
G1A311.692Z8.960
G1A310.150Z9.224
G1A308.351Z9.456
G1A306.424Z9.618
G1A304.754Z9.703
G1A302.698Z9.689
G1A300.771Z9.557
G1A300.642Z9.563
G1A299.229Z9.820
G1A297.816Z9.999
G1A296.274Z10.109
G1A295.118Z10.139
G1A293.704Z10.106
G1A292.291Z9.994
G1A289.722Z10.209
G1A287.794Z10.277
G1A286.381Z10.282
G1A285.225Z10.241
G1A284.069Z10.148
G1A282.655Z9.963
G1A282.141Z9.957
G1A281.499Z10.046
G1A280.214Z10.248
G1A279.315Z10.352
G1A278.158Z10.438
G1A276.488Z10.487
G1A273.919Z10.486
G1A272.377Z10.411
G1A270.321Z10.182
G1A269.550Z10.088
G1A269.165Z10.093
G1A267.880Z10.335
G1A266.467Z10.503
G1A265.310Z10.578
G1A262.998Z10.624
G1A261.199Z10.619
G1A259.914Z10.556
G1A258.501Z10.422
G1A257.602Z10.291
G1A256.959Z10.315
G1A256.188Z10.417
G1A253.490Z10.717
G1A252.206Z10.793
G1A251.306Z10.808
G1A250.407Z10.774
G1A249.379Z10.745
G1A248.094Z10.642
G1A247.452Z10.515
G1A247.066Z10.372
G1A246.938Z10.350
G1A246.039Z10.477
G1A245.011Z10.537
G1A243.983Z10.551
G1A242.313Z10.488
G1A240.771Z10.340
G1A238.972Z10.047
G1A237.559Z10.207
G1A236.274Z10.264
G1A235.118Z10.273
G1A232.420Z10.177
G1A229.593Z10.003
G1A227.409Z9.808
G1A224.197Z9.448
G1A223.812Z9.422
G1A220.343Z9.496
G1A218.544Z9.497
G1A215.203Z9.349
G1A214.047Z9.241
G1A212.762Z9.085
G1A211.863Z8.925
G1A211.221Z8.773
G1A210.707Z8.575
G1A208.009Z8.341
G1A205.567Z8.073
G1A205.439Z8.057
G1A204.925Z8.241
G1A204.540Z8.337
G1A203.255Z8.527
G1A202.484Z8.578
G1A200.171Z8.659
G1A197.473Z8.674
G1A194.390Z8.617
G1A186.039Z8.366
G1A180.642Z8.742
G1A177.687Z9.043
G1A175.375Z9.348
G1A172.420Z9.818
G1A166.124Z10.862
G1A164.582Z11.115
G1A163.683Z11.325
G1A161.242Z12.053
G1A159.957Z12.365
G1A158.287Z12.690
G1A155.203Z13.208
G1A152.634Z13.559
G1A151.991Z13.672
G1A151.349Z13.716
G1A150.064Z13.722
G1A149.422Z13.649
G1A148.779Z13.511
G1A147.880Z13.193
G1A146.081Z12.498
G1A144.411Z11.943
G1A143.769Z11.724
G1A143.255Z11.512
G1A142.741Z11.200
G1A142.355Z10.844
G1A142.099Z10.524
G1A141.970Z10.301
G1A141.713Z8.220
G1A141.328Z7.976
G1A141.071Z7.742
G1A140.942Z7.562
G1A140.814Z7.257
G1A140.685Z0.000
G1A39.700
G1A39.572Z6.335
G1A39.443Z6.525
G1A39.058Z6.881
G1A38.929Z7.234
G1A38.801Z9.313
G1A38.672Z10.275
G1A38.544Z10.521
G1A38.287Z10.793
G1A37.901Z11.059
G1A37.516Z11.266
G1A36.874Z11.515
G1A34.946Z12.108
G1A32.891Z12.849
G1A31.734Z13.290
G1A31.221Z13.446
G1A30.578Z13.567
G1A29.165Z13.654
G1A28.522Z13.662
G1A26.338Z13.501
G1A24.797Z13.327
G1A23.640Z13.140
G1A22.741Z12.929
G1A20.814Z12.338
G1A19.272Z11.880
G1A17.730Z11.401
G1A14.775Z10.652
G1A12.591Z9.976
G1A11.178Z9.644
G1A9.893Z9.408
G1A8.351Z9.190
G1A1.156Z8.339
G1A0.000Z8.225
G1X79.807Z8.272
G1A2.827Z8.581
G1A8.223Z9.230
G1A9.636Z9.438
G1A11.949Z9.888
G1A12.719Z10.072
G1A13.747Z10.398
G1A14.775Z10.715
G1A16.445Z11.141
G1A17.473Z11.408
G1A19.143Z11.972
G1A20.557Z12.402
G1A23.255Z13.101
G1A24.283Z13.283
G1A27.109Z13.651
G1A28.394Z13.818
G1A29.165Z13.846
G1A30.450Z13.840
G1A31.092Z13.758
G1A31.863Z13.602
G1A32.762Z13.294
G1A34.433Z12.665
G1A36.103Z12.099
G1A37.516Z11.669
G1A37.901Z11.501
G1A38.287Z11.252
G1A38.544Z10.978
G1A38.801Z10.587
G1A38.929Z10.336
G1A39.058Z7.926
G1A39.186Z7.065
G1A39.443Z6.828
G1A39.572Z6.666
G1A39.829Z6.146
G1A39.957Z0.000
G1A140.428
G1A140.557Z7.267
G1A140.685Z7.602
G1A140.814Z7.802
G1A141.071Z8.052
G1A141.456Z8.298
G1A141.585Z8.365
G1A141.842Z10.314
G1A141.970Z10.652
G1A142.227Z11.068
G1A142.484Z11.333
G1A142.998Z11.716
G1A143.512Z11.986
G1A144.797Z12.428
G1A146.595Z13.070
G1A148.009Z13.631
G1A148.394Z13.748
G1A148.908Z13.843
G1A149.807Z13.924
G1A150.707Z13.908
G1A151.991Z13.803
G1A152.634Z13.684
G1A153.405Z13.504
G1A154.690Z13.291
G1A157.773Z12.883
G1A159.443Z12.614
G1A160.728Z12.332
G1A162.013Z11.973
G1A163.298Z11.549
G1A164.197Z11.251
G1A164.968Z11.075
G1A168.951Z10.450
G1A175.246Z9.370
G1A177.816Z8.997
G1A179.872Z8.776
G1A182.570Z8.577
G1A184.754Z8.443
G1A188.223Z8.577
G1A193.490Z8.755
G1A197.345Z8.874
G1A200.428Z8.883
G1A202.612Z8.836
G1A203.640Z8.753
G1A204.797Z8.592
G1A205.567Z8.398
G1A206.081Z8.207
G1A206.210Z8.194
G1A208.908Z8.504
G1A209.936Z8.603
G1A210.578Z8.863
G1A211.349Z9.062
G1A212.505Z9.255
G1A214.433Z9.443
G1A215.974Z9.516
G1A218.929Z9.609
G1A221.242Z9.625
G1A223.169Z9.589
G1A224.968Z9.534
G1A227.024Z9.794
G1A229.208Z10.049
G1A231.777Z10.254
G1A234.732Z10.410
G1A236.788Z10.440
G1A238.073Z10.377
G1A239.101Z10.257
G1A239.486Z10.196
G1A239.615Z10.197
G1A240.899Z10.424
G1A242.441Z10.602
G1A243.983Z10.703
G1A245.396Z10.731
G1A245.910Z10.839
G1A246.938Z11.041
G1A247.837Z11.186
G1A248.737Z11.250
G1A250.535Z11.297
G1A252.719Z11.238
G1A254.133Z11.133
G1A256.445Z10.864
G1A257.345Z10.807
G1A258.501Z10.873
G1A260.043Z10.958
G1A261.585Z10.948
G1A264.154Z10.818
G1A265.054Z10.730
G1A265.439Z10.664
G1A266.595Z10.586
G1A268.266Z10.363
G1A268.651Z10.291
G1A270.835Z10.408
G1A273.148Z10.573
G1A274.818Z10.624
G1A277.259Z10.607
G1A279.700Z10.490
G1A281.242Z10.324
G1A282.398Z10.179
G1A282.655Z10.187
G1A283.812Z10.311
G1A285.096Z10.376
G1A287.152Z10.400
G1A288.694Z10.356
G1A290.107Z10.263
G1A291.649Z10.109
G1A291.906Z10.115
G1A292.934Z10.223
G1A294.090Z10.284
G1A295.632Z10.277
G1A297.045Z10.185
G1A298.201Z10.050
G1A299.872Z9.768
G1A300.514Z9.796
G1A301.670Z9.868
G1A303.084Z9.900
G1A304.497Z9.868
G1A305.910Z9.788
G1A307.709Z9.623
G1A309.251Z9.422
G1A310.921Z9.138
G1A311.820Z8.956
G1A314.133Z9.062
G1A315.546Z9.060
G1A317.473Z8.975
G1A321.199Z8.691
G1A322.484Z8.537
G1A323.640Z8.338
G1A324.411Z8.119
G1A325.054Z7.846
G1A325.310Z7.686
G1A325.439Z7.577
G1A325.567Z7.525
G1A328.908Z7.349
G1A331.092Z7.166
G1A334.561Z6.782
G1A336.360Z7.066
G1A338.030Z7.256
G1A339.700Z7.370
G1A341.370Z7.436
G1A344.839Z7.476
G1A347.923Z7.509
G1A351.135Z7.616
G1A353.833Z7.765
G1A359.615Z8.236
G1A360.000Z8.272
G1X79.490Z8.291
G1A355.760Z7.918
G1A353.062Z7.728
G1A350.364Z7.632
G1A346.638Z7.578
G1A340.985Z7.555
G1A338.672Z7.474
G1A336.874Z7.338
G1A335.203Z7.156
G1A333.790Z6.926
G1A333.276Z6.830
G1A333.019Z6.849
G1A332.248Z6.963
G1A332.120Z7.175
G1A331.991Z7.269
G1A331.734Z7.368
G1A330.964Z7.583
G1A330.193Z7.648
G1A328.908Z7.688
G1A327.495Z7.592
G1A326.852Z7.494
G1A325.953Z7.558
G1A325.696Z7.808
G1A325.310Z8.043
G1A324.668Z8.299
G1A323.897Z8.497
G1A322.741Z8.694
G1A320.428Z8.927
G1A316.702Z9.192
G1A314.647Z9.270
G1A313.233Z9.263
G1A311.049Z9.180
G1A310.792Z9.174
G1A308.865Z9.533
G1A307.066Z9.780
G1A305.139Z9.967
G1A303.469Z10.062
G1A301.799Z10.072
G1A300.771Z10.046
G1A299.615Z9.978
G1A299.229Z9.963
G1A298.715Z10.036
G1A297.559Z10.232
G1A296.403Z10.351
G1A295.246Z10.408
G1A293.833Z10.406
G1A292.420Z10.325
G1A291.906Z10.276
G1A291.135Z10.486
G1A290.749Z10.532
G1A290.364Z10.552
G1A289.979Z10.608
G1A289.208Z10.616
G1A287.923Z10.599
G1A286.895Z10.606
G1A285.353Z10.526
G1A283.555Z10.460
G1A283.169Z10.471
G1A282.141Z10.551
G1A279.957Z10.771
G1A278.801Z10.852
G1A277.259Z10.906
G1A273.919Z10.895
G1A272.377Z10.821
G1A269.550Z10.605
G1A268.394Z10.569
G1A268.009Z10.573
G1A267.495Z10.618
G1A265.696Z10.974
G1A264.411Z11.123
G1A261.970Z11.256
G1A260.428Z11.282
G1A258.887Z11.220
G1A257.216Z11.107
G1A256.574Z11.141
G1A254.904Z11.337
G1A253.747Z11.470
G1A252.334Z11.558
G1A250.278Z11.604
G1A248.737Z11.572
G1A247.837Z11.510
G1A246.295Z11.257
G1A245.139Z11.041
G1A244.754Z11.009
G1A242.827Z11.045
G1A242.184Z11.013
G1A241.413Z10.944
G1A240.000Z10.661
G1A239.486Z10.523
G1A239.229Z10.482
G1A238.201Z10.586
G1A237.173Z10.612
G1A235.246Z10.561
G1A232.677Z10.417
G1A230.364Z10.227
G1A228.565Z10.023
G1A226.124Z9.653
G1A223.426Z9.744
G1A220.857Z9.748
G1A216.874Z9.639
G1A213.919Z9.501
G1A212.377Z9.370
G1A211.092Z9.165
G1A210.450Z9.017
G1A209.679Z8.742
G1A209.422Z8.623
G1A209.293Z8.586
G1A208.908Z8.550
G1A206.852Z8.695
G1A205.439Z8.724
G1A205.182Z8.719
G1A203.897Z8.911
G1A202.227Z9.036
G1A200.300Z9.062
G1A197.473Z9.037
G1A194.518Z8.936
G1A189.251Z8.709
G1A185.011Z8.534
G1A183.983Z8.723
G1A182.570Z8.893
G1A179.101Z9.029
G1A176.660Z9.110
G1A174.475Z9.482
G1A169.979Z10.331
G1A167.409Z10.751
G1A165.096Z11.072
G1A164.582Z11.185
G1A163.940Z11.424
G1A163.169Z11.740
G1A161.113Z12.365
G1A159.957Z12.632
G1A158.672Z12.852
G1A156.488Z13.110
G1A154.561Z13.301
G1A153.148Z13.606
G1A152.377Z13.819
G1A151.606Z13.944
G1A150.964Z14.038
G1A150.321Z14.123
G1A149.550Z14.139
G1A148.908Z14.110
G1A148.266Z14.013
G1A147.752Z13.899
G1A146.981Z13.619
G1A145.696Z13.119
G1A143.512Z12.342
G1A143.126Z12.144
G1A142.612Z11.755
G1A142.227Z11.375
G1A141.970Z11.011
G1A141.842Z10.690
G1A141.585Z8.571
G1A141.071Z8.272
G1A140.685Z7.954
G1A140.428Z7.636
G1A140.300Z7.079
G1A140.171Z0.000
G1A39.957
G1A39.829Z6.459
G1A39.700Z6.736
G1A39.443Z7.048
G1A39.315Z7.159
G1A39.186Z8.360
G1A39.058Z10.719
G1A38.929Z11.038
G1A38.672Z11.354
G1A38.287Z11.654
G1A37.901Z11.846
G1A37.002Z12.185
G1A35.717Z12.586
G1A33.662Z13.327
G1A32.505Z13.768
G1A31.863Z13.953
G1A31.221Z14.057
G1A30.578Z14.093
G1A29.550Z14.049
G1A28.137Z13.913
G1A27.109Z13.759
G1A26.081Z13.566
G1A23.769Z13.238
G1A21.585Z12.780
G1A20.171Z12.425
G1A18.758Z11.973
G1A17.216Z11.419
G1A16.702Z11.239
G1A14.775Z10.746
G1A12.976Z10.196
G1A11.949Z9.966
G1A9.636Z9.520
G1A7.837Z9.240
G1A3.212Z8.686
G1A0.000Z8.291
G1X79.172Z8.284
G1A2.313Z8.605
G1A4.882Z8.953
G1A8.094Z9.347
G1A10.535Z9.742
G1A13.105Z10.268
G1A14.004Z10.516
G1A15.418Z10.927
G1A16.445Z11.225
G1A18.373Z11.956
G1A19.657Z12.436
G1A20.685Z12.708
G1A22.484Z13.058
G1A24.154Z13.344
G1A26.210Z13.672
G1A28.651Z14.123
G1A29.936Z14.296
G1A30.578Z14.321
G1A31.734Z14.257
G1A32.377Z14.160
G1A32.891Z14.017
G1A34.946Z13.218
G1A37.259Z12.442
G1A37.773Z12.266
G1A38.287Z11.998
G1A38.672Z11.698
G1A38.929Z11.456
G1A39.058Z11.282
G1A39.186Z11.027
G1A39.443Z7.386
G1A39.572Z7.061
G1A39.700Z6.904
G1A39.829Z6.661
G1A39.957Z0.000
G1A140.043
G1A140.171Z7.441
G1A140.300Z7.860
G1A140.557Z8.202
G1A140.814Z8.408
G1A141.199Z8.614
G1A141.585Z8.760
G1A141.842Z11.003
G1A141.970Z11.273
G1A142.099Z11.437
G1A142.227Z11.751
G1A142.484Z12.116
G1A142.869Z12.425
G1A143.255Z12.628
G1A143.769Z12.820
G1A145.054Z13.252
G1A146.724Z13.899
G1A147.238Z14.100
G1A147.880Z14.250
G1A148.522Z14.327
G1A149.550Z14.343
G1A150.321Z14.280
G1A151.221Z14.146
G1A151.991Z13.968
G1A153.148Z13.668
G1A154.818Z13.360
G1A155.846Z13.229
G1A158.672Z12.945
G1A159.957Z12.743
G1A160.985Z12.516
G1A162.784Z12.003
G1A163.683Z11.680
G1A164.325Z11.379
G1A164.582Z11.259
G1A165.096Z11.129
G1A166.638Z10.912
G1A168.565Z10.628
G1A171.906Z9.993
G1A175.632Z9.296
G1A177.944Z9.244
G1A180.899Z9.230
G1A182.570Z9.148
G1A184.240Z9.010
G1A185.653Z8.813
G1A186.296Z8.707
G1A186.552Z8.645
G1A192.463Z8.932
G1A196.060Z9.120
G1A198.887Z9.195
G1A201.713Z9.174
G1A203.640Z9.044
G1A204.283Z8.985
G1A205.567Z9.032
G1A206.595Z9.021
G1A209.165Z8.852
G1A209.550Z8.847
G1A210.321Z9.086
G1A210.964Z9.231
G1A212.120Z9.415
G1A213.662Z9.551
G1A217.645Z9.740
G1A221.370Z9.860
G1A223.812Z9.884
G1A225.610Z9.850
G1A227.152Z9.786
G1A229.079Z10.114
G1A230.878Z10.346
G1A233.576Z10.586
G1A236.274Z10.744
G1A237.045Z10.770
G1A238.201Z10.986
G1A240.000Z11.238
G1A241.542Z11.394
G1A242.570Z11.437
G1A243.469Z11.419
G1A245.011Z11.291
G1A245.396Z11.312
G1A246.681Z11.566
G1A247.580Z11.697
G1A248.608Z11.794
G1A250.021Z11.829
G1A252.077Z11.787
G1A253.619Z11.699
G1A254.775Z11.563
G1A256.317Z11.363
G1A256.959Z11.301
G1A257.345Z11.305
G1A259.400Z11.467
G1A260.814Z11.485
G1A262.741Z11.432
G1A264.411Z11.334
G1A265.824Z11.185
G1A266.981Z10.962
G1A267.623Z10.837
G1A268.394Z10.774
G1A269.165Z10.783
G1A270.193Z10.843
G1A273.148Z11.070
G1A274.818Z11.129
G1A277.516Z11.110
G1A278.929Z11.050
G1A281.756Z10.811
G1A282.527Z10.742
G1A283.426Z10.704
G1A284.968Z10.805
G1A285.996Z10.878
G1A287.409Z10.930
G1A289.850Z10.964
G1A291.006Z10.916
G1A291.906Z10.800
G1A292.548Z10.683
G1A292.934Z10.606
G1A293.576Z10.508
G1A294.989Z10.514
G1A296.146Z10.461
G1A297.045Z10.380
G1A298.073Z10.234
G1A298.587Z10.160
G1A300.771Z10.272
G1A302.698Z10.247
G1A304.625Z10.117
G1A306.681Z9.903
G1A308.608Z9.611
G1A309.893Z9.374
G1A312.463Z9.454
G1A314.004Z9.454
G1A316.188Z9.373
G1A319.529Z9.137
G1A321.842Z8.923
G1A323.255Z8.744
G1A324.411Z8.526
G1A325.054Z8.332
G1A325.567Z8.107
G1A325.696Z8.032
G1A325.824Z8.002
G1A328.009Z8.163
G1A329.293Z8.189
G1A330.064Z8.175
G1A331.734Z8.069
G1A332.634Z7.907
G1A333.276Z7.731
G1A333.790Z7.495
G1A334.176Z7.271
G1A334.304Z7.221
G1A335.589Z7.380
G1A337.516Z7.540
G1A339.443Z7.621
G1A342.655Z7.659
G1A349.850Z7.669
G1A353.448Z7.727
G1A355.632Z7.870
G1A359.486Z8.225
G1A360.000Z8.284
G1X78.855Z8.245
G1A357.816Z7.993
G1A355.118Z7.747
G1A354.218Z7.695
G1A351.520Z7.696
G1A341.627Z7.726
G1A338.801Z7.691
G1A336.745Z7.608
G1A335.846Z7.519
G1A335.203Z7.780
G1A334.433Z7.983
G1A333.919Z8.092
G1A332.505Z8.309
G1A331.221Z8.431
G1A329.679Z8.503
G1A328.651Z8.512
G1A326.467Z8.444
G1A325.310Z8.337
G1A324.540Z8.576
G1A323.383Z8.801
G1A321.328Z9.071
G1A318.630Z9.327
G1A315.289Z9.551
G1A313.233Z9.627
G1A310.792Z9.606
G1A308.994Z9.557
G1A307.066Z9.894
G1A305.011Z10.162
G1A303.084Z10.375
G1A301.413Z10.490
G1A300.128Z10.643
G1A299.101Z10.692
G1A296.660Z10.704
G1A295.632Z10.720
G1A294.732Z10.783
G1A293.319Z10.940
G1A292.291Z11.033
G1A291.135Z11.140
G1A289.336Z11.180
G1A287.409Z11.151
G1A285.996Z11.100
G1A284.968Z11.024
G1A283.426Z10.905
G1A282.912Z10.892
G1A281.884Z10.937
G1A278.929Z11.191
G1A277.388Z11.264
G1A275.075Z11.277
G1A273.276Z11.222
G1A271.478Z11.078
G1A269.550Z10.923
G1A268.651Z10.908
G1A268.137Z10.939
G1A267.495Z11.022
G1A265.953Z11.322
G1A264.668Z11.466
G1A263.255Z11.561
G1A260.942Z11.636
G1A259.529Z11.614
G1A257.987Z11.502
G1A257.216Z11.438
G1A256.702Z11.454
G1A255.803Z11.556
G1A254.261Z11.789
G1A253.105Z11.895
G1A251.435Z11.974
G1A249.764Z11.996
G1A248.608Z11.955
G1A247.066Z11.796
G1A246.167Z11.629
G1A245.525Z11.496
G1A243.597Z11.681
G1A242.441Z11.707
G1A240.899Z11.650
G1A239.872Z11.564
G1A237.687Z11.304
G1A236.274Z11.059
G1A235.118Z10.811
G1A233.319Z10.673
G1A230.878Z10.398
G1A229.208Z10.139
G1A228.051Z9.917
G1A226.253Z10.004
G1A223.555Z10.011
G1A220.214Z9.912
G1A215.589Z9.700
G1A212.762Z9.512
G1A211.478Z9.357
G1A210.193Z9.103
G1A209.936Z9.049
G1A207.366Z9.199
G1A205.953Z9.238
G1A204.026Z9.204
G1A203.255Z9.135
G1A201.585Z9.240
G1A198.887Z9.285
G1A197.088Z9.252
G1A194.518Z9.132
G1A189.764Z8.824
G1A187.837Z8.714
G1A186.552Z8.984
G1A184.882Z9.186
G1A183.726Z9.283
G1A181.670Z9.391
G1A179.358Z9.413
G1A176.017Z9.375
G1A175.246Z9.392
G1A172.163Z9.954
G1A170.493Z10.274
G1A168.308Z10.713
G1A165.996Z11.058
G1A165.096Z11.206
G1A164.711Z11.317
G1A163.940Z11.699
G1A163.041Z12.046
G1A161.756Z12.431
G1A160.600Z12.711
G1A159.315Z12.941
G1A157.902Z13.110
G1A156.231Z13.292
G1A154.176Z13.635
G1A152.248Z14.022
G1A151.221Z14.283
G1A150.193Z14.472
G1A149.550Z14.528
G1A148.522Z14.545
G1A147.880Z14.502
G1A147.238Z14.395
G1A146.467Z14.170
G1A144.540Z13.430
G1A143.255Z12.995
G1A142.869Z12.808
G1A142.355Z12.450
G1A142.099Z12.176
G1A141.970Z11.914
G1A141.713Z10.046
G1A141.585Z8.925
G1A141.071Z8.748
G1A140.685Z8.549
G1A140.300Z8.249
G1A140.171Z8.098
G1A140.043Z7.871
G1A139.914Z0.000
G1A39.957
G1A39.829Z6.727
G1A39.700Z6.947
G1A39.572Z7.319
G1A39.315Z11.261
G1A39.058Z11.710
G1A38.801Z11.992
G1A38.415Z12.289
G1A37.901Z12.553
G1A37.259Z12.796
G1A35.460Z13.405
G1A33.790Z14.045
G1A33.276Z14.258
G1A32.634Z14.436
G1A31.991Z14.523
G1A31.221Z14.546
G1A30.321Z14.521
G1A29.679Z14.438
G1A27.623Z14.041
G1A26.724Z13.848
G1A23.255Z13.254
G1A20.942Z12.880
G1A19.914Z12.659
G1A19.015Z12.357
G1A17.088Z11.584
G1A16.188Z11.203
G1A14.904Z10.788
G1A13.747Z10.460
G1A11.306Z9.929
G1A9.764Z9.655
G1A7.323Z9.299
G1A4.111Z8.892
G1A2.056Z8.556
G1A0.514Z8.311
G1A0.000Z8.245
G1X78.791Z8.231
G1X78.537Z8.391
G1A1.156Z8.493
G1A2.313Z8.594
G1A2.570Z8.624
G1A3.854Z8.866
G1A6.167Z9.196
G1A9.122Z9.588
G1A10.921Z9.881
G1A13.362Z10.418
G1A14.518Z10.717
G1A15.546Z11.041
G1A16.317Z11.345
G1A17.473Z11.867
G1A19.272Z12.555
G1A20.171Z12.815
G1A21.456Z13.054
G1A23.769Z13.408
G1A27.238Z14.005
G1A29.679Z14.595
G1A30.321Z14.698
G1A31.606Z14.788
G1A32.248Z14.773
G1A32.891Z14.680
G1A33.533Z14.510
G1A36.231Z13.496
G1A37.388Z13.100
G1A38.030Z12.864
G1A38.544Z12.598
G1A38.929Z12.265
G1A39.186Z11.974
G1A39.315Z11.787
G1A39.443Z11.525
G1A39.572Z8.977
G1A39.700Z7.104
G1A39.829Z0.000
G1A139.786
G1A139.914Z7.872
G1A140.043Z8.120
G1A140.300Z8.405
G1A140.685Z8.677
G1A141.071Z8.860
G1A141.456Z9.010
G1A141.585Z10.898
G1A141.713Z11.992
G1A141.842Z12.245
G1A142.227Z12.743
G1A142.484Z12.971
G1A142.869Z13.185
G1A143.512Z13.438
G1A145.182Z14.045
G1A146.210Z14.443
G1A146.981Z14.637
G1A147.623Z14.711
G1A148.137Z14.738
G1A149.807Z14.646
G1A150.578Z14.527
G1A152.505Z14.082
G1A154.561Z13.688
G1A156.874Z13.338
G1A159.829Z12.954
G1A161.113Z12.710
G1A162.398Z12.377
G1A163.426Z12.029
G1A164.197Z11.705
G1A164.968Z11.329
G1A165.482Z11.200
G1A168.308Z10.726
G1A170.107Z10.334
G1A171.135Z10.117
G1A173.319Z9.744
G1A174.732Z9.451
G1A175.889Z9.436
G1A177.944Z9.495
G1A180.000Z9.545
G1A182.056Z9.510
G1A184.625Z9.382
G1A186.167Z9.262
G1A187.709Z9.060
G1A188.994Z8.843
G1A189.251Z8.796
G1A195.161Z9.219
G1A197.345Z9.327
G1A199.272Z9.329
G1A202.227Z9.218
G1A203.897Z9.344
G1A205.182Z9.397
G1A207.109Z9.386
G1A209.550Z9.280
G1A210.707Z9.203
G1A211.863Z9.392
G1A213.148Z9.535
G1A216.103Z9.761
G1A220.086Z9.973
G1A223.683Z10.117
G1A225.610Z10.150
G1A227.281Z10.129
G1A228.822Z10.029
G1A230.107Z10.288
G1A232.163Z10.616
G1A233.704Z10.816
G1A234.861Z11.103
G1A236.788Z11.439
G1A238.587Z11.667
G1A240.000Z11.805
G1A241.542Z11.890
G1A242.955Z11.895
G1A244.240Z11.820
G1A245.653Z11.657
G1A245.910Z11.663
G1A246.938Z11.876
G1A247.837Z11.995
G1A249.122Z12.101
G1A250.664Z12.116
G1A252.463Z12.058
G1A253.619Z11.978
G1A254.775Z11.837
G1A256.317Z11.590
G1A256.831Z11.544
G1A257.473Z11.542
G1A259.143Z11.687
G1A260.300Z11.735
G1A261.456Z11.730
G1A263.769Z11.646
G1A265.182Z11.531
G1A266.595Z11.315
G1A267.495Z11.125
G1A268.009Z11.047
G1A268.651Z11.001
G1A269.422Z11.004
G1A270.707Z11.087
G1A273.019Z11.307
G1A274.176Z11.371
G1A275.846Z11.392
G1A278.158Z11.346
G1A279.443Z11.259
G1A281.756Z11.024
G1A282.398Z11.003
G1A282.912Z10.997
G1A284.197Z11.099
G1A285.867Z11.231
G1A287.794Z11.313
G1A290.107Z11.331
G1A291.392Z11.297
G1A294.218Z11.110
G1A295.118Z11.042
G1A295.889Z11.005
G1A297.302Z11.022
G1A299.101Z11.035
G1A300.514Z10.977
G1A301.542Z10.896
G1A302.698Z10.737
G1A303.726Z10.519
G1A304.240Z10.374
G1A306.681Z9.978
G1A308.094Z9.735
G1A309.251Z9.739
G1A311.563Z9.786
G1A313.490Z9.752
G1A316.060Z9.615
G1A319.143Z9.369
G1A321.199Z9.147
G1A322.998Z8.886
G1A324.283Z8.656
G1A324.540Z8.594
G1A326.852Z8.755
G1A328.137Z8.786
G1A329.679Z8.750
G1A331.606Z8.631
G1A333.533Z8.447
G1A334.818Z8.267
G1A335.846Z8.078
G1A336.617Z7.846
G1A337.002Z7.696
G1A338.287Z7.756
G1A341.884Z7.789
G1A349.079Z7.743
G1A351.906Z7.671
G1A353.833Z7.619
G1A354.989Z7.862
G1A356.531Z8.093
G1A358.458Z8.282
G1A360.000Z8.391
G1X78.220Z8.535
G1A357.302Z8.388
G1A355.760Z8.243
G1A354.090Z8.023
G1A352.548Z7.703
G1A352.163Z7.607
G1A349.465Z7.736
G1A343.812Z7.819
G1A340.600Z7.831
G1A338.030Z7.784
G1A336.617Z8.215
G1A335.717Z8.386
G1A333.919Z8.609
G1A331.092Z8.853
G1A329.422Z8.951
G1A327.623Z8.982
G1A326.467Z8.957
G1A324.411Z8.835
G1A323.640Z8.772
G1A320.942Z9.206
G1A318.244Z9.515
G1A315.931Z9.708
G1A313.233Z9.873
G1A311.435Z9.917
G1A307.580Z9.908
G1A307.066Z9.926
G1A305.782Z10.192
G1A305.139Z10.471
G1A304.368Z10.722
G1A303.597Z10.892
G1A302.313Z11.087
G1A301.028Z11.194
G1A299.486Z11.260
G1A297.687Z11.232
G1A296.274Z11.202
G1A295.375Z11.209
G1A293.961Z11.286
G1A292.034Z11.395
G1A290.364Z11.444
G1A288.180Z11.434
G1A285.867Z11.341
G1A284.197Z11.200
G1A282.912Z11.062
G1A282.013Z11.046
G1A281.499Z11.076
G1A279.186Z11.351
G1A277.901Z11.432
G1A275.589Z11.474
G1A273.919Z11.446
G1A272.377Z11.335
G1A270.064Z11.106
G1A269.036Z11.062
G1A268.266Z11.088
G1A267.623Z11.157
G1A266.338Z11.432
G1A265.182Z11.610
G1A263.769Z11.719
G1A261.585Z11.804
G1A259.914Z11.806
G1A258.501Z11.708
G1A257.602Z11.611
G1A256.959Z11.598
G1A256.445Z11.642
G1A254.518Z11.967
G1A253.362Z12.090
G1A251.692Z12.179
G1A250.021Z12.206
G1A249.122Z12.186
G1A247.837Z12.068
G1A246.681Z11.880
G1A246.167Z11.766
G1A245.910Z11.769
G1A244.240Z11.966
G1A242.955Z12.044
G1A241.670Z12.047
G1A240.000Z11.973
G1A238.201Z11.810
G1A236.274Z11.559
G1A234.347Z11.232
G1A232.677Z10.888
G1A231.649Z10.610
G1A231.263Z10.484
G1A229.465Z10.113
G1A227.794Z10.249
G1A225.996Z10.275
G1A223.555Z10.202
G1A220.214Z10.033
G1A216.617Z9.812
G1A214.047Z9.590
G1A211.991Z9.356
G1A211.863Z9.337
G1A209.550Z9.458
G1A207.623Z9.515
G1A205.182Z9.501
G1A202.612Z9.399
G1A200.557Z9.279
G1A200.300Z9.268
G1A198.630Z9.343
G1A196.831Z9.328
G1A194.261Z9.176
G1A190.535Z8.884
G1A190.278Z8.912
G1A188.094Z9.232
G1A185.653Z9.448
G1A183.340Z9.569
G1A180.385Z9.643
G1A178.201Z9.618
G1A175.760Z9.577
G1A173.833Z9.607
G1A173.576Z9.626
G1A172.420Z9.885
G1A170.236Z10.262
G1A167.794Z10.826
G1A165.482Z11.259
G1A165.225Z11.331
G1A163.940Z11.993
G1A163.169Z12.294
G1A162.141Z12.590
G1A160.985Z12.848
G1A159.443Z13.107
G1A154.818Z13.734
G1A153.148Z14.024
G1A151.478Z14.386
G1A150.321Z14.658
G1A149.036Z14.850
G1A148.394Z14.918
G1A147.495Z14.929
G1A146.595Z14.835
G1A146.081Z14.724
G1A145.439Z14.518
G1A143.640Z13.828
G1A142.612Z13.450
G1A142.227Z13.243
G1A141.842Z12.901
G1A141.713Z12.727
G1A141.585Z12.357
G1A141.456Z11.040
G1A141.328Z9.083
G1A140.814Z8.837
G1A140.300Z8.469
G1A140.043Z8.201
G1A139.914Z7.980
G1A139.786Z0.000
G1A39.829
G1A39.700Z7.555
G1A39.572Z11.589
G1A39.443Z12.062
G1A39.186Z12.462
G1A38.929Z12.726
G1A38.544Z12.996
G1A38.030Z13.229
G1A36.231Z13.848
G1A34.818Z14.377
G1A33.919Z14.723
G1A33.276Z14.890
G1A32.634Z14.994
G1A31.991Z15.025
G1A31.221Z14.975
G1A30.450Z14.888
G1A29.807Z14.760
G1A28.779Z14.481
G1A27.495Z14.113
G1A22.998Z13.330
G1A20.814Z13.001
G1A19.914Z12.805
G1A18.887Z12.502
G1A17.216Z11.891
G1A16.317Z11.477
G1A15.803Z11.234
G1A13.876Z10.598
G1A11.563Z10.023
G1A10.150Z9.754
G1A8.480Z9.516
G1A6.039Z9.192
G1A3.854Z8.831
G1A3.084Z8.687
G1A1.028Z8.588
G1A0.000Z8.535
G1X77.902Z8.646
G1A3.726Z8.707
G1A6.296Z9.206
G1A7.966Z9.466
G1A10.021Z9.722
G1A11.178Z9.942
G1A12.976Z10.401
G1A14.133Z10.752
G1A15.546Z11.269
G1A16.702Z11.827
G1A17.602Z12.172
G1A18.887Z12.580
G1A20.171Z12.903
G1A21.328Z13.114
G1A23.640Z13.450
G1A27.880Z14.277
G1A29.036Z14.656
G1A30.064Z14.958
G1A31.606Z15.251
G1A32.248Z15.296
G1A32.891Z15.265
G1A33.533Z15.175
G1A34.047Z15.041
G1A36.360Z14.160
G1A38.287Z13.466
G1A38.801Z13.228
G1A39.186Z12.960
G1A39.443Z12.686
G1A39.572Z12.444
G1A39.700Z11.869
G1A39.829Z0.000
G1A139.786
G1A139.914Z8.032
G1A140.043Z8.254
G1A140.428Z8.672
G1A140.814Z8.936
G1A141.071Z9.063
G1A141.199Z11.644
G1A141.328Z12.535
G1A141.456Z12.990
G1A141.585Z13.207
G1A141.842Z13.445
G1A142.227Z13.672
G1A142.741Z13.869
G1A144.925Z14.684
G1A145.567Z14.913
G1A146.081Z15.036
G1A146.595Z15.099
G1A147.623Z15.128
G1A148.522Z15.064
G1A149.679Z14.854
G1A151.221Z14.497
G1A153.148Z14.051
G1A154.433Z13.837
G1A155.846Z13.659
G1A158.544Z13.319
G1A160.985Z12.949
G1A162.398Z12.666
G1A163.426Z12.395
G1A164.069Z12.151
G1A164.711Z11.823
G1A165.482Z11.352
G1A166.124Z11.167
G1A168.437Z10.647
G1A169.722Z10.337
G1A171.392Z10.047
G1A172.677Z9.765
G1A172.934Z9.717
G1A175.118Z9.684
G1A180.257Z9.722
G1A183.340Z9.654
G1A186.039Z9.530
G1A188.480Z9.348
G1A190.150Z9.151
G1A191.049Z8.997
G1A191.435Z8.929
G1A195.032Z9.212
G1A196.831Z9.303
G1A198.630Z9.303
G1A199.015Z9.282
G1A200.300Z9.399
G1A203.640Z9.544
G1A206.724Z9.618
G1A209.036Z9.618
G1A211.221Z9.552
G1A213.276Z9.443
G1A215.846Z9.731
G1A218.287Z9.940
G1A222.527Z10.217
G1A225.353Z10.355
G1A227.024Z10.382
G1A228.437Z10.318
G1A229.465Z10.205
G1A230.493Z10.602
G1A231.649Z10.913
G1A232.677Z11.121
G1A236.531Z11.743
G1A238.972Z12.026
G1A240.771Z12.138
G1A242.184Z12.174
G1A243.084Z12.158
G1A244.368Z12.075
G1A245.525Z11.941
G1A246.424Z11.836
G1A247.837Z12.112
G1A248.608Z12.197
G1A249.764Z12.270
G1A251.563Z12.252
G1A253.233Z12.170
G1A254.390Z12.057
G1A255.675Z11.853
G1A256.702Z11.672
G1A257.088Z11.639
G1A257.473Z11.642
G1A259.143Z11.820
G1A260.557Z11.874
G1A262.484Z11.834
G1A264.283Z11.746
G1A265.567Z11.618
G1A266.467Z11.468
G1A267.623Z11.195
G1A268.137Z11.132
G1A269.036Z11.120
G1A269.936Z11.166
G1A273.019Z11.470
G1A274.561Z11.530
G1A277.002Z11.523
G1A278.544Z11.453
G1A279.957Z11.298
G1A281.113Z11.121
G1A281.756Z11.058
G1A282.527Z11.071
G1A283.426Z11.179
G1A284.839Z11.350
G1A286.253Z11.446
G1A288.308Z11.514
G1A290.364Z11.525
G1A292.163Z11.480
G1A294.989Z11.328
G1A296.274Z11.334
G1A298.844Z11.414
G1A300.385Z11.394
G1A301.799Z11.317
G1A302.827Z11.219
G1A303.983Z11.045
G1A304.882Z10.841
G1A305.653Z10.584
G1A306.295Z10.286
G1A306.681Z10.062
G1A307.837Z10.041
G1A311.178Z10.040
G1A313.362Z9.953
G1A316.188Z9.752
G1A318.373Z9.542
G1A320.942Z9.193
G1A322.484Z8.922
G1A322.869Z8.936
G1A324.797Z9.076
G1A326.595Z9.142
G1A328.522Z9.126
G1A330.321Z9.047
G1A333.533Z8.800
G1A335.589Z8.597
G1A336.745Z8.409
G1A337.901Z8.115
G1A338.672Z7.835
G1A338.801Z7.805
G1A341.884Z7.848
G1A344.839Z7.823
G1A349.593Z7.698
G1A350.878Z7.620
G1A351.006Z7.633
G1A351.777Z7.854
G1A352.677Z8.039
G1A354.218Z8.271
G1A355.889Z8.442
G1A357.944Z8.578
G1A360.000Z8.646
G1X77.585Z8.750
G1A357.816Z8.685
G1A355.503Z8.547
G1A353.705Z8.376
G1A352.291Z8.175
G1A351.392Z8.000
G1A350.107Z7.618
G1A349.465Z7.637
G1A345.867Z7.779
G1A343.041Z7.837
G1A339.957Z7.856
G1A339.186Z7.829
G1A338.929Z7.931
G1A338.415Z8.132
G1A337.516Z8.380
G1A336.617Z8.572
G1A335.332Z8.757
G1A332.891Z8.977
G1A329.422Z9.205
G1A327.366Z9.272
G1A325.567Z9.270
G1A323.640Z9.176
G1A321.585Z9.033
G1A318.887Z9.485
G1A317.345Z9.676
G1A315.032Z9.894
G1A312.334Z10.083
G1A310.535Z10.151
G1A307.837Z10.163
G1A307.066Z10.161
G1A306.938Z10.204
G1A306.295Z10.540
G1A305.525Z10.829
G1A304.754Z11.049
G1A303.597Z11.258
G1A302.056Z11.427
G1A300.514Z11.513
G1A298.972Z11.528
G1A297.302Z11.470
G1A295.760Z11.385
G1A294.861Z11.385
G1A291.263Z11.572
G1A289.208Z11.593
G1A286.895Z11.548
G1A285.353Z11.461
G1A284.325Z11.363
G1A282.141Z11.073
G1A281.756Z11.043
G1A281.242Z11.073
G1A279.700Z11.362
G1A278.544Z11.501
G1A277.259Z11.577
G1A275.075Z11.605
G1A273.276Z11.570
G1A271.991Z11.480
G1A269.550Z11.238
G1A267.880Z11.201
G1A267.495Z11.236
G1A266.210Z11.560
G1A265.054Z11.737
G1A263.512Z11.847
G1A261.071Z11.927
G1A259.529Z11.895
G1A258.116Z11.759
G1A257.345Z11.680
G1A256.959Z11.692
G1A254.518Z12.104
G1A253.233Z12.225
G1A251.306Z12.310
G1A249.893Z12.311
G1A248.608Z12.227
G1A247.580Z12.075
G1A246.809Z11.916
G1A246.295Z11.954
G1A244.882Z12.131
G1A243.469Z12.240
G1A242.184Z12.270
G1A240.514Z12.224
G1A238.587Z12.090
G1A236.788Z11.885
G1A235.118Z11.632
G1A233.833Z11.435
G1A232.291Z11.231
G1A231.006Z10.994
G1A230.107Z10.771
G1A229.336Z10.524
G1A228.951Z10.358
G1A227.666Z10.435
G1A226.381Z10.453
G1A224.582Z10.389
G1A220.214Z10.088
G1A216.745Z9.779
G1A214.690Z9.535
G1A214.047Z9.566
G1A211.734Z9.685
G1A208.908Z9.731
G1A205.953Z9.689
G1A201.328Z9.541
G1A199.400Z9.441
G1A197.987Z9.280
G1A197.602Z9.228
G1A195.931Z9.206
G1A194.004Z9.096
G1A192.077Z8.950
G1A190.407Z9.258
G1A189.379Z9.386
G1A187.580Z9.531
G1A184.497Z9.683
G1A180.642Z9.781
G1A177.687Z9.783
G1A173.319Z9.736
G1A172.420Z9.750
G1A171.135Z10.076
G1A170.107Z10.264
G1A168.951Z10.468
G1A166.253Z11.178
G1A165.739Z11.347
G1A165.482Z11.494
G1A164.839Z11.974
G1A164.454Z12.192
G1A163.812Z12.453
G1A163.041Z12.666
G1A161.884Z12.901
G1A159.315Z13.287
G1A156.360Z13.665
G1A154.304Z13.876
G1A153.533Z13.995
G1A152.377Z14.311
G1A149.936Z14.886
G1A148.522Z15.257
G1A147.366Z15.442
G1A146.852Z15.460
G1A146.338Z15.422
G1A145.696Z15.311
G1A144.925Z15.055
G1A143.255Z14.402
G1A141.970Z13.924
G1A141.585Z13.714
G1A141.328Z13.519
G1A141.199Z13.381
G1A141.071Z13.174
G1A140.814Z8.970
G1A140.428Z8.688
G1A140.171Z8.416
G1A139.914Z7.935
G1A139.786Z0.000
G1A40.086
G1A39.957Z8.165
G1A39.829Z12.501
G1A39.700Z12.808
G1A39.572Z12.999
G1A39.186Z13.350
G1A38.801Z13.596
G1A38.158Z13.873
G1A35.589Z14.803
G1A34.433Z15.263
G1A33.790Z15.427
G1A33.148Z15.516
G1A32.377Z15.565
G1A31.734Z15.532
G1A31.092Z15.427
G1A30.064Z15.123
G1A29.293Z14.841
G1A27.880Z14.415
G1A25.310Z13.825
G1A23.769Z13.467
G1A22.355Z13.248
G1A20.814Z13.040
G1A19.272Z12.730
G1A17.730Z12.332
G1A16.702Z12.000
G1A15.931Z11.668
G1A14.904Z11.136
G1A13.876Z10.711
G1A12.206Z10.191
G1A10.792Z9.843
G1A9.893Z9.696
G1A7.966Z9.442
G1A6.938Z9.271
G1A5.653Z8.983
G1A4.882Z8.807
G1A4.497Z8.793
G1A0.000Z8.750
G1X77.267Z8.833
G1A4.497Z8.877
G1A5.910Z8.885
G1A7.323Z9.263
G1A8.608Z9.511
G1A10.792Z9.817
G1A11.692Z10.015
G1A13.362Z10.541
G1A14.004Z10.816
G1A15.032Z11.366
G1A15.803Z11.805
G1A16.445Z12.076
G1A17.345Z12.342
G1A19.272Z12.768
G1A20.557Z12.998
G1A23.126Z13.360
G1A24.026Z13.565
G1A25.310Z13.926
G1A27.752Z14.495
G1A29.165Z14.934
G1A29.550Z15.076
G1A30.064Z15.298
G1A30.964Z15.588
G1A31.606Z15.723
G1A32.377Z15.795
G1A33.019Z15.816
G1A33.662Z15.763
G1A34.304Z15.632
G1A35.075Z15.378
G1A36.745Z14.719
G1A38.672Z14.029
G1A39.186Z13.763
G1A39.443Z13.576
G1A39.700Z13.270
G1A39.957Z12.809
G1A40.214Z8.442
G1A40.343Z0.000
G1A139.914
G1A140.043Z7.764
G1A140.171Z8.230
G1A140.428Z8.603
G1A140.557Z8.731
G1A140.685Z13.396
G1A140.814Z13.590
G1A141.071Z13.835
G1A141.456Z14.070
G1A142.099Z14.336
G1A144.026Z15.050
G1A145.054Z15.469
G1A145.696Z15.659
G1A146.467Z15.784
G1A146.981Z15.816
G1A147.495Z15.784
G1A148.137Z15.655
G1A148.908Z15.413
G1A149.422Z15.167
G1A150.707Z14.772
G1A152.762Z14.321
G1A154.047Z13.979
G1A154.946Z13.856
G1A157.645Z13.566
G1A160.600Z13.190
G1A162.527Z12.910
G1A163.426Z12.728
G1A164.069Z12.544
G1A164.711Z12.276
G1A165.225Z11.959
G1A165.867Z11.375
G1A166.124Z11.241
G1A167.666Z10.753
G1A168.565Z10.503
G1A170.621Z10.134
G1A171.649Z9.858
G1A172.034Z9.747
G1A172.291Z9.727
G1A174.347Z9.761
G1A177.687Z9.824
G1A181.028Z9.811
G1A184.625Z9.737
G1A187.837Z9.611
G1A190.021Z9.401
G1A191.692Z9.128
G1A192.334Z8.975
G1A192.976Z8.971
G1A195.931Z9.104
G1A196.831Z9.103
G1A197.473Z9.260
G1A198.244Z9.383
G1A199.400Z9.502
G1A202.484Z9.657
G1A207.366Z9.799
G1A210.578Z9.822
G1A213.019Z9.775
G1A215.075Z9.669
G1A215.974Z9.610
G1A218.929Z9.943
G1A222.527Z10.270
G1A225.225Z10.466
G1A227.152Z10.488
G1A228.437Z10.432
G1A229.465Z10.801
G1A230.749Z11.114
G1A232.291Z11.368
G1A234.604Z11.610
G1A236.788Z11.963
G1A238.458Z12.153
G1A240.257Z12.283
G1A241.670Z12.337
G1A243.212Z12.330
G1A244.625Z12.245
G1A246.039Z12.087
G1A246.809Z11.994
G1A247.066Z11.983
G1A248.480Z12.224
G1A249.379Z12.304
G1A250.535Z12.352
G1A252.077Z12.323
G1A253.747Z12.229
G1A254.904Z12.101
G1A256.959Z11.736
G1A257.345Z11.720
G1A259.143Z11.909
G1A260.171Z11.969
G1A261.585Z11.971
G1A263.769Z11.890
G1A264.925Z11.798
G1A265.696Z11.695
G1A266.852Z11.439
G1A266.981Z11.405
G1A269.293Z11.490
G1A270.964Z11.523
G1A273.148Z11.660
G1A274.946Z11.689
G1A277.002Z11.653
G1A278.287Z11.568
G1A279.572Z11.404
G1A280.600Z11.197
G1A281.113Z11.092
G1A281.499Z11.071
G1A282.013Z11.101
G1A284.325Z11.423
G1A285.610Z11.542
G1A287.281Z11.623
G1A289.593Z11.649
G1A291.520Z11.601
G1A294.732Z11.410
G1A295.632Z11.428
G1A297.816Z11.588
G1A299.101Z11.620
G1A300.771Z11.595
G1A302.056Z11.523
G1A303.597Z11.356
G1A304.497Z11.209
G1A305.396Z10.991
G1A306.424Z10.641
G1A306.938Z10.412
G1A307.837Z10.266
G1A310.150Z10.247
G1A311.949Z10.169
G1A314.518Z9.970
G1A316.959Z9.714
G1A318.887Z9.441
G1A320.557Z9.136
G1A320.814Z9.133
G1A322.998Z9.296
G1A324.540Z9.364
G1A326.338Z9.384
G1A328.522Z9.332
G1A331.606Z9.160
G1A334.047Z8.963
G1A336.103Z8.729
G1A337.259Z8.528
G1A338.287Z8.267
G1A338.415Z8.231
G1A340.214Z8.264
G1A341.370Z8.247
G1A343.940Z8.120
G1A345.739Z7.867
G1A346.381Z7.725
G1A346.510Z7.695
G1A349.336Z7.537
G1A350.236Z7.866
G1A351.392Z8.162
G1A353.319Z8.458
G1A355.246Z8.624
G1A357.944Z8.775
G1A360.000Z8.833
G1X76.950Z8.900
G1A357.173Z8.798
G1A354.218Z8.612
G1A352.677Z8.450
G1A351.263Z8.241
G1A350.236Z7.988
G1A349.593Z7.762
G1A349.079Z7.515
G1A348.951Z7.478
G1A348.565Z7.627
G1A348.051Z7.775
G1A347.152Z7.966
G1A345.996Z8.149
G1A344.325Z8.347
G1A341.756Z8.494
G1A339.315Z8.546
G1A337.645Z8.510
G1A337.388Z8.516
G1A336.231Z8.731
G1A334.176Z8.992
G1A331.734Z9.212
G1A328.908Z9.383
G1A326.210Z9.470
G1A324.026Z9.470
G1A322.355Z9.404
G1A321.199Z9.307
G1A320.043Z9.196
G1A319.786Z9.181
G1A317.987Z9.513
G1A316.188Z9.782
G1A313.876Z10.049
G1A311.563Z10.240
G1A309.507Z10.331
G1A309.251Z10.341
G1A307.966Z10.539
G1A306.681Z10.660
G1A306.424Z10.728
G1A305.139Z11.130
G1A304.368Z11.302
G1A303.212Z11.481
G1A301.927Z11.606
G1A300.257Z11.690
G1A298.587Z11.698
G1A297.302Z11.644
G1A295.889Z11.513
G1A294.989Z11.436
G1A294.090Z11.433
G1A290.749Z11.660
G1A288.951Z11.698
G1A286.895Z11.664
G1A285.225Z11.570
G1A283.940Z11.434
G1A281.756Z11.115
G1A281.242Z11.107
G1A280.857Z11.145
G1A278.929Z11.523
G1A277.516Z11.697
G1A275.974Z11.766
G1A273.533Z11.783
G1A271.092Z11.752
G1A269.036Z11.728
G1A266.981Z11.627
G1A266.595Z11.636
G1A264.668Z11.881
G1A262.998Z11.978
G1A261.071Z12.020
G1A260.043Z12.003
G1A258.758Z11.914
G1A257.345Z11.758
G1A256.959Z11.777
G1A255.032Z12.132
G1A253.747Z12.269
G1A252.077Z12.354
G1A250.535Z12.367
G1A248.994Z12.267
G1A248.223Z12.173
G1A247.452Z12.041
G1A247.066Z12.043
G1A245.396Z12.249
G1A243.854Z12.370
G1A242.441Z12.402
G1A240.899Z12.366
G1A238.844Z12.238
G1A237.302Z12.082
G1A235.889Z11.868
G1A234.732Z11.676
G1A232.420Z11.486
G1A231.135Z11.306
G1A229.979Z11.074
G1A228.951Z10.791
G1A228.051Z10.462
G1A226.510Z10.494
G1A224.839Z10.449
G1A222.655Z10.262
G1A218.929Z9.868
G1A217.259Z9.664
G1A215.203Z9.817
G1A213.276Z9.890
G1A210.707Z9.913
G1A206.081Z9.840
G1A202.099Z9.691
G1A199.272Z9.508
G1A198.244Z9.401
G1A197.216Z9.238
G1A196.831Z9.137
G1A194.647Z9.243
G1A192.976Z9.269
G1A191.178Z9.263
G1A189.507Z9.513
G1A187.452Z9.688
G1A183.983Z9.796
G1A180.385Z9.840
G1A177.045Z9.835
G1A174.347Z9.748
G1A172.034Z9.665
G1A171.906Z9.663
G1A171.649Z9.729
G1A170.621Z10.038
G1A169.722Z10.228
G1A168.565Z10.444
G1A167.923Z10.597
G1A166.381Z11.135
G1A166.253Z11.192
G1A166.124Z11.284
G1A165.610Z11.877
G1A165.225Z12.176
G1A164.711Z12.453
G1A164.069Z12.686
G1A163.298Z12.879
G1A162.141Z13.066
G1A158.030Z13.574
G1A154.946Z13.912
G1A154.176Z14.047
G1A152.505Z14.466
G1A150.835Z14.838
G1A150.193Z15.051
G1A149.293Z15.565
G1A148.651Z15.795
G1A148.009Z15.969
G1A147.366Z16.070
G1A146.724Z16.084
G1A145.953Z16.029
G1A145.439Z15.930
G1A144.797Z15.730
G1A142.998Z15.012
G1A141.199Z14.337
G1A140.814Z14.124
G1A140.557Z13.926
G1A140.428Z13.786
G1A140.300Z13.563
G1A140.171Z0.000
G1A40.600
G1A40.471Z8.461
G1A40.343Z8.676
G1A40.214Z11.546
G1A40.086Z13.236
G1A39.829Z13.697
G1A39.572Z13.943
G1A39.186Z14.169
G1A38.415Z14.466
G1A36.874Z15.017
G1A34.690Z15.894
G1A34.176Z16.025
G1A33.662Z16.101
G1A33.019Z16.113
G1A32.248Z16.060
G1A31.734Z15.985
G1A31.221Z15.852
G1A30.064Z15.429
G1A28.779Z14.906
G1A27.495Z14.495
G1A26.081Z14.160
G1A24.797Z13.883
G1A23.126Z13.472
G1A21.842Z13.220
G1A19.529Z12.852
G1A17.088Z12.389
G1A16.188Z12.141
G1A15.675Z11.933
G1A14.904Z11.514
G1A14.261Z11.051
G1A13.619Z10.665
G1A13.105Z10.417
G1A11.820Z9.991
G1A11.178Z9.841
G1A8.737Z9.487
G1A7.709Z9.238
G1A6.809Z8.948
G1A4.882Z8.930
G1A2.313Z8.936
G1A0.000Z8.900
G1X76.632Z8.938
G1A2.441Z8.982
G1A4.625Z8.955
G1A6.938Z8.939
G1A7.452Z8.947
G1A8.223Z9.245
G1A8.865Z9.398
G1A9.893Z9.565
G1A11.435Z9.819
G1A12.206Z10.014
G1A12.976Z10.304
G1A13.490Z10.589
G1A14.004Z10.980
G1A14.647Z11.550
G1A15.289Z11.919
G1A15.803Z12.132
G1A16.702Z12.394
G1A17.859Z12.618
G1A21.713Z13.261
G1A23.897Z13.735
G1A25.567Z14.098
G1A26.210Z14.240
G1A26.981Z14.453
G1A28.779Z15.100
G1A31.092Z16.034
G1A31.734Z16.201
G1A32.505Z16.311
G1A33.276Z16.380
G1A33.790Z16.365
G1A34.304Z16.296
G1A34.946Z16.133
G1A35.717Z15.832
G1A37.516Z15.122
G1A39.186Z14.510
G1A39.700Z14.256
G1A39.957Z14.079
G1A40.214Z13.796
G1A40.343Z13.539
G1A40.600Z8.442
G1A40.728Z0.000
G1A139.786
G1A139.914Z13.651
G1A140.043Z13.907
G1A140.300Z14.177
G1A140.685Z14.450
G1A141.328Z14.746
G1A143.383Z15.513
G1A144.797Z16.093
G1A145.310Z16.216
G1A145.824Z16.292
G1A146.467Z16.330
G1A147.366Z16.296
G1A147.880Z16.227
G1A148.522Z16.058
G1A149.550Z15.690
G1A150.707Z15.127
G1A151.734Z14.782
G1A153.148Z14.397
G1A154.561Z14.033
G1A155.974Z13.842
G1A159.186Z13.485
G1A161.370Z13.223
G1A162.784Z13.066
G1A163.555Z12.935
G1A164.197Z12.773
G1A164.839Z12.547
G1A165.353Z12.288
G1A165.739Z11.996
G1A165.996Z11.719
G1A166.381Z11.156
G1A166.767Z10.957
G1A167.794Z10.558
G1A168.694Z10.328
G1A169.336Z10.175
G1A170.878Z10.016
G1A172.291Z9.807
G1A173.062Z9.648
G1A173.961Z9.685
G1A176.274Z9.801
G1A179.229Z9.853
G1A184.111Z9.820
G1A187.066Z9.727
G1A188.865Z9.586
G1A189.764Z9.477
G1A190.278Z9.406
G1A191.049Z9.442
G1A193.876Z9.454
G1A196.317Z9.373
G1A197.730Z9.299
G1A198.758Z9.438
G1A201.585Z9.676
G1A204.925Z9.851
G1A209.036Z9.961
G1A212.762Z9.997
G1A215.332Z9.947
G1A217.131Z9.841
G1A218.672Z9.709
G1A222.655Z10.206
G1A224.711Z10.405
G1A226.638Z10.462
G1A227.409Z10.446
G1A227.537Z10.459
G1A229.722Z11.104
G1A230.878Z11.352
G1A232.034Z11.526
G1A233.062Z11.626
G1A235.118Z11.758
G1A237.173Z12.095
G1A238.587Z12.250
G1A240.642Z12.392
G1A242.313Z12.442
G1A243.597Z12.431
G1A244.754Z12.373
G1A246.039Z12.252
G1A247.452Z12.072
G1A247.837Z12.085
G1A249.251Z12.282
G1A250.921Z12.380
G1A252.463Z12.361
G1A253.747Z12.299
G1A254.775Z12.198
G1A255.675Z12.065
G1A256.831Z11.821
G1A257.216Z11.788
G1A257.730Z11.827
G1A259.529Z12.007
G1A261.071Z12.059
G1A262.869Z12.035
G1A264.797Z11.952
G1A266.338Z11.831
G1A266.852Z11.840
G1A267.238Z11.889
G1A268.137Z12.024
G1A268.779Z12.082
G1A269.807Z12.087
G1A271.863Z11.950
G1A273.533Z11.900
G1A276.360Z11.839
G1A277.773Z11.740
G1A278.929Z11.563
G1A280.471Z11.210
G1A281.113Z11.133
G1A281.499Z11.144
G1A282.141Z11.228
G1A283.940Z11.496
G1A285.096Z11.617
G1A286.510Z11.698
G1A288.565Z11.734
G1A290.236Z11.698
G1A291.777Z11.594
G1A293.319Z11.453
G1A294.218Z11.428
G1A294.989Z11.481
G1A296.788Z11.690
G1A298.073Z11.761
G1A299.615Z11.771
G1A301.413Z11.709
G1A302.827Z11.590
G1A303.983Z11.429
G1A304.882Z11.236
G1A306.167Z10.838
G1A306.424Z10.804
G1A307.966Z10.721
G1A309.122Z10.573
G1A310.150Z10.383
G1A310.407Z10.329
G1A312.591Z10.178
G1A314.390Z9.983
G1A316.445Z9.687
G1A318.373Z9.325
G1A318.758Z9.250
G1A321.328Z9.481
G1A323.126Z9.547
G1A325.054Z9.555
G1A328.009Z9.472
G1A330.707Z9.327
G1A332.891Z9.137
G1A334.818Z8.904
G1A336.103Z8.729
G1A337.773Z8.761
G1A339.829Z8.744
G1A342.141Z8.658
G1A344.968Z8.481
G1A347.152Z8.239
G1A348.565Z8.017
G1A349.465Z7.816
G1A349.593Z7.817
G1A350.236Z8.042
G1A351.263Z8.285
G1A352.548Z8.476
G1A354.347Z8.658
G1A356.917Z8.820
G1A360.000Z8.938
G1X76.315Z8.951
G1A356.403Z8.806
G1A354.604Z8.688
G1A353.062Z8.537
G1A351.520Z8.331
G1A350.749Z8.160
G1A350.107Z7.985
G1A349.979Z7.985
G1A349.208Z8.141
G1A347.281Z8.406
G1A345.482Z8.585
G1A341.370Z8.828
G1A338.544Z8.930
G1A335.974Z8.958
G1A334.304Z8.929
G1A332.505Z9.169
G1A330.450Z9.358
G1A327.752Z9.516
G1A324.411Z9.620
G1A322.227Z9.625
G1A320.814Z9.575
G1A319.272Z9.453
G1A317.730Z9.323
G1A317.602Z9.325
G1A315.546Z9.742
G1A314.004Z9.992
G1A312.463Z10.173
G1A311.563Z10.256
G1A310.021Z10.564
G1A308.737Z10.761
G1A307.709Z10.839
G1A305.910Z10.924
G1A305.782Z10.939
G1A304.882Z11.248
G1A304.240Z11.416
G1A303.340Z11.577
G1A302.184Z11.707
G1A300.642Z11.804
G1A298.844Z11.841
G1A297.559Z11.813
G1A296.403Z11.732
G1A295.118Z11.574
G1A294.218Z11.447
G1A293.448Z11.422
G1A292.548Z11.481
G1A290.749Z11.662
G1A289.208Z11.750
G1A287.281Z11.760
G1A285.482Z11.700
G1A284.197Z11.591
G1A282.655Z11.385
G1A281.242Z11.175
G1A280.985Z11.168
G1A280.600Z11.193
G1A279.700Z11.416
G1A278.672Z11.657
G1A277.901Z11.774
G1A276.745Z11.896
G1A275.203Z11.968
G1A272.891Z12.061
G1A272.248Z12.140
G1A270.964Z12.345
G1A270.064Z12.443
G1A268.908Z12.473
G1A267.752Z12.401
G1A266.595Z12.230
G1A265.567Z12.014
G1A265.310Z12.011
G1A263.769Z12.076
G1A261.328Z12.098
G1A259.786Z12.055
G1A258.373Z11.911
G1A257.473Z11.810
G1A257.088Z11.805
G1A256.702Z11.863
G1A255.931Z12.052
G1A254.775Z12.230
G1A253.362Z12.344
G1A251.692Z12.380
G1A250.792Z12.363
G1A249.251Z12.248
G1A248.223Z12.116
G1A247.837Z12.097
G1A247.195Z12.167
G1A245.782Z12.345
G1A244.368Z12.448
G1A243.084Z12.478
G1A241.670Z12.457
G1A240.000Z12.375
G1A238.073Z12.216
G1A236.916Z12.065
G1A235.375Z11.811
G1A233.062Z11.690
G1A231.649Z11.544
G1A230.493Z11.351
G1A229.336Z11.072
G1A228.051Z10.687
G1A227.152Z10.513
G1A226.253Z10.402
G1A225.225Z10.335
G1A224.197Z10.278
G1A223.298Z10.205
G1A219.829Z9.998
G1A218.415Z9.855
G1A217.002Z9.979
G1A215.332Z10.058
G1A213.019Z10.074
G1A208.651Z10.007
G1A205.182Z9.887
G1A201.970Z9.681
G1A199.529Z9.451
G1A199.272Z9.421
G1A195.675Z9.555
G1A192.848Z9.571
G1A190.278Z9.537
G1A189.379Z9.486
G1A187.966Z9.634
G1A185.910Z9.766
G1A183.854Z9.832
G1A179.743Z9.840
G1A176.916Z9.774
G1A174.861Z9.673
G1A174.732Z9.682
G1A173.961Z9.860
G1A172.034Z10.182
G1A170.749Z10.326
G1A167.666Z10.542
G1A167.281Z10.664
G1A166.638Z11.053
G1A166.510Z11.144
G1A166.253Z11.684
G1A165.996Z12.002
G1A165.739Z12.222
G1A165.225Z12.519
G1A164.711Z12.727
G1A163.940Z12.949
G1A163.169Z13.094
G1A162.013Z13.222
G1A159.700Z13.456
G1A155.460Z13.977
G1A154.433Z14.145
G1A153.533Z14.405
G1A151.863Z14.968
G1A150.964Z15.270
G1A150.064Z15.648
G1A149.293Z15.957
G1A148.266Z16.308
G1A147.752Z16.413
G1A146.981Z16.495
G1A146.210Z16.534
G1A145.567Z16.502
G1A144.925Z16.398
G1A144.283Z16.231
G1A143.640Z15.981
G1A142.099Z15.364
G1A141.071Z14.983
G1A140.685Z14.789
G1A140.171Z14.447
G1A139.914Z14.185
G1A139.657Z13.723
G1A139.529Z0.000
G1A40.728
G1A40.600Z13.755
G1A40.343Z14.133
G1A40.086Z14.383
G1A39.572Z14.700
G1A38.929Z14.958
G1A36.874Z15.714
G1A35.846Z16.139
G1A35.075Z16.436
G1A34.433Z16.585
G1A33.790Z16.686
G1A33.276Z16.701
G1A32.634Z16.641
G1A31.606Z16.413
G1A31.092Z16.231
G1A29.550Z15.599
G1A26.852Z14.582
G1A25.182Z14.041
G1A21.842Z13.367
G1A20.557Z13.109
G1A17.088Z12.551
G1A16.060Z12.322
G1A15.418Z12.112
G1A14.904Z11.886
G1A14.390Z11.560
G1A14.133Z11.324
G1A13.747Z10.826
G1A13.362Z10.450
G1A12.976Z10.202
G1A12.591Z10.031
G1A11.178Z9.644
G1A10.021Z9.428
G1A9.251Z9.296
G1A8.480Z9.101
G1A7.966Z8.904
G1A7.709Z8.889
G1A4.497Z8.941
G1A2.184Z8.983
G1A0.128Z8.954
G1A0.000Z8.951
G1X75.997Z8.933
G1A2.056Z8.952
G1A4.240Z8.898
G1A7.580Z8.790
G1A9.122Z9.044
G1A9.893Z9.154
G1A10.535Z9.286
G1A11.435Z9.554
G1A12.848Z9.993
G1A13.105Z10.136
G1A13.362Z10.342
G1A13.490Z10.515
G1A13.747Z11.086
G1A14.004Z11.450
G1A14.261Z11.671
G1A14.775Z11.970
G1A15.289Z12.189
G1A16.060Z12.412
G1A17.088Z12.619
G1A20.300Z13.115
G1A22.998Z13.674
G1A24.540Z13.967
G1A24.925Z14.085
G1A26.081Z14.499
G1A27.238Z14.887
G1A29.936Z15.934
G1A31.092Z16.456
G1A31.734Z16.671
G1A32.377Z16.835
G1A33.019Z16.922
G1A33.662Z16.931
G1A34.304Z16.865
G1A35.203Z16.695
G1A35.717Z16.536
G1A37.773Z15.715
G1A39.700Z15.011
G1A40.086Z14.805
G1A40.343Z14.613
G1A40.600Z14.304
G1A40.728Z14.070
G1A40.857Z13.566
G1A40.985Z0.000
G1A139.400
G1A139.529Z14.078
G1A139.657Z14.296
G1A140.300Z14.921
G1A140.685Z15.162
G1A141.456Z15.476
G1A142.869Z16.010
G1A143.769Z16.365
G1A144.283Z16.517
G1A144.925Z16.635
G1A145.824Z16.700
G1A146.467Z16.693
G1A147.366Z16.601
G1A148.009Z16.481
G1A148.651Z16.292
G1A149.807Z15.873
G1A150.964Z15.422
G1A153.662Z14.590
G1A155.075Z14.159
G1A156.231Z13.959
G1A159.829Z13.499
G1A163.169Z13.162
G1A164.069Z13.010
G1A164.839Z12.820
G1A165.482Z12.598
G1A165.867Z12.395
G1A166.124Z12.193
G1A166.381Z11.889
G1A166.767Z11.009
G1A167.024Z10.790
G1A167.152Z10.713
G1A170.236Z10.559
G1A172.163Z10.385
G1A173.319Z10.224
G1A174.861Z9.945
G1A176.017Z9.675
G1A176.274Z9.670
G1A179.615Z9.793
G1A183.084Z9.825
G1A184.754Z9.787
G1A186.424Z9.690
G1A188.094Z9.539
G1A190.535Z9.618
G1A195.418Z9.662
G1A198.116Z9.642
G1A199.914Z9.586
G1A200.942Z9.527
G1A204.154Z9.807
G1A206.852Z9.969
G1A210.707Z10.096
G1A214.433Z10.148
G1A216.745Z10.070
G1A217.516Z10.020
G1A218.929Z10.167
G1A220.471Z10.255
G1A225.482Z10.436
G1A226.767Z10.550
G1A227.666Z10.688
G1A228.180Z10.813
G1A229.465Z11.185
G1A230.749Z11.460
G1A232.034Z11.653
G1A233.448Z11.770
G1A235.889Z11.875
G1A237.687Z12.165
G1A239.229Z12.323
G1A241.413Z12.465
G1A243.084Z12.501
G1A244.497Z12.476
G1A245.782Z12.396
G1A247.195Z12.237
G1A247.966Z12.133
G1A248.480Z12.123
G1A250.278Z12.315
G1A251.692Z12.376
G1A253.105Z12.358
G1A254.133Z12.305
G1A255.161Z12.204
G1A256.317Z12.015
G1A257.088Z11.835
G1A257.345Z11.810
G1A257.987Z11.871
G1A259.015Z12.013
G1A260.300Z12.113
G1A262.612Z12.153
G1A264.540Z12.154
G1A266.338Z12.530
G1A267.238Z12.669
G1A268.266Z12.759
G1A269.293Z12.783
G1A270.450Z12.724
G1A271.606Z12.568
G1A273.533Z12.184
G1A273.919Z12.125
G1A276.745Z11.953
G1A277.773Z11.842
G1A278.672Z11.691
G1A279.700Z11.439
G1A280.343Z11.271
G1A280.728Z11.214
G1A281.113Z11.234
G1A283.555Z11.592
G1A285.096Z11.732
G1A286.767Z11.790
G1A288.565Z11.783
G1A289.850Z11.722
G1A291.392Z11.567
G1A292.677Z11.421
G1A293.319Z11.413
G1A294.090Z11.487
G1A295.246Z11.681
G1A296.403Z11.810
G1A297.559Z11.879
G1A299.101Z11.895
G1A300.899Z11.842
G1A302.441Z11.726
G1A303.469Z11.598
G1A304.240Z11.449
G1A304.882Z11.259
G1A305.525Z11.011
G1A306.552Z10.957
G1A308.094Z10.886
G1A309.122Z10.788
G1A310.792Z10.531
G1A313.105Z10.077
G1A314.775Z9.854
G1A317.730Z9.559
G1A318.373Z9.476
G1A320.557Z9.639
G1A322.355Z9.689
G1A324.540Z9.653
G1A328.009Z9.511
G1A330.321Z9.351
G1A332.248Z9.147
G1A332.891Z9.068
G1A334.818Z9.119
G1A337.002Z9.105
G1A340.471Z8.973
G1A345.096Z8.712
G1A346.895Z8.568
G1A348.694Z8.367
G1A349.979Z8.177
G1A350.621Z8.051
G1A351.392Z8.249
G1A352.291Z8.398
G1A354.475Z8.663
G1A356.531Z8.804
G1A360.000Z8.933
G1X75.680Z8.892
G1A356.917Z8.793
G1A354.989Z8.664
G1A352.420Z8.329
G1A351.520Z8.154
G1A351.135Z8.054
G1A350.107Z8.268
G1A348.694Z8.459
G1A346.510Z8.682
G1A343.169Z8.906
G1A338.415Z9.155
G1A335.589Z9.245
G1A333.533Z9.254
G1A331.863Z9.207
G1A331.349Z9.180
G1A329.293Z9.390
G1A326.467Z9.577
G1A323.769Z9.688
G1A321.713Z9.711
G1A319.914Z9.656
G1A319.015Z9.593
G1A316.831Z9.803
G1A314.390Z10.008
G1A313.105Z10.167
G1A312.077Z10.342
G1A310.535Z10.630
G1A309.251Z10.820
G1A307.966Z10.950
G1A306.809Z11.009
G1A305.396Z11.068
G1A305.139Z11.158
G1A304.497Z11.388
G1A303.854Z11.556
G1A302.955Z11.700
G1A301.670Z11.827
G1A299.872Z11.921
G1A298.073Z11.942
G1A296.788Z11.903
G1A295.632Z11.812
G1A294.732Z11.695
G1A293.191Z11.417
G1A292.420Z11.395
G1A291.649Z11.465
G1A289.979Z11.685
G1A288.565Z11.795
G1A286.895Z11.828
G1A285.096Z11.788
G1A283.812Z11.698
G1A282.784Z11.574
G1A281.756Z11.437
G1A281.113Z11.439
G1A280.214Z11.524
G1A278.287Z11.785
G1A277.259Z11.930
G1A276.103Z12.040
G1A275.460Z12.095
G1A273.533Z12.414
G1A271.863Z12.780
G1A270.578Z12.964
G1A269.422Z13.024
G1A268.137Z12.998
G1A266.852Z12.872
G1A265.696Z12.674
G1A263.512Z12.224
G1A260.300Z12.137
G1A259.015Z12.034
G1A257.730Z11.861
G1A257.345Z11.855
G1A256.317Z12.066
G1A255.161Z12.228
G1A253.747Z12.333
G1A252.334Z12.366
G1A251.306Z12.348
G1A250.150Z12.276
G1A249.122Z12.159
G1A248.608Z12.127
G1A248.094Z12.162
G1A246.809Z12.346
G1A245.525Z12.462
G1A243.854Z12.520
G1A242.313Z12.502
G1A240.514Z12.417
G1A238.587Z12.257
G1A237.302Z12.082
G1A236.274Z11.921
G1A233.191Z11.796
G1A232.034Z11.701
G1A230.621Z11.496
G1A229.208Z11.201
G1A227.666Z10.827
G1A226.510Z10.630
G1A225.482Z10.547
G1A223.169Z10.470
G1A219.186Z10.355
G1A216.874Z10.177
G1A216.488Z10.136
G1A214.433Z10.192
G1A212.248Z10.168
G1A208.908Z10.058
G1A205.824Z9.883
G1A203.126Z9.647
G1A202.741Z9.611
G1A201.071Z9.708
G1A198.887Z9.755
G1A195.418Z9.736
G1A188.737Z9.633
G1A187.323Z9.562
G1A186.938Z9.524
G1A185.910Z9.634
G1A183.983Z9.746
G1A182.056Z9.788
G1A178.972Z9.692
G1A177.173Z9.613
G1A175.760Z9.950
G1A174.347Z10.219
G1A172.805Z10.462
G1A171.263Z10.620
G1A169.208Z10.743
G1A167.024Z10.809
G1A166.895Z10.997
G1A166.767Z11.713
G1A166.638Z11.993
G1A166.381Z12.299
G1A165.996Z12.566
G1A165.482Z12.797
G1A164.968Z12.952
G1A163.940Z13.144
G1A162.784Z13.272
G1A161.242Z13.422
G1A158.672Z13.732
G1A156.103Z14.121
G1A155.203Z14.308
G1A153.790Z14.722
G1A152.505Z15.087
G1A151.349Z15.404
G1A150.193Z15.789
G1A148.137Z16.533
G1A147.495Z16.679
G1A146.081Z16.862
G1A145.310Z16.872
G1A144.668Z16.839
G1A143.897Z16.719
G1A143.255Z16.530
G1A141.456Z15.810
G1A140.685Z15.486
G1A140.171Z15.164
G1A139.914Z14.940
G1A139.657Z14.605
G1A139.400Z14.228
G1A139.272Z13.884
G1A139.143Z0.000
G1A41.113
G1A40.985Z14.267
G1A40.857Z14.529
G1A40.728Z14.715
G1A40.471Z14.948
G1A40.086Z15.183
G1A39.443Z15.435
G1A37.131Z16.304
G1A35.974Z16.767
G1A35.460Z16.902
G1A34.561Z17.032
G1A33.919Z17.088
G1A33.148Z17.079
G1A32.505Z17.005
G1A31.863Z16.863
G1A31.092Z16.610
G1A29.550Z15.944
G1A27.752Z15.244
G1A26.981Z14.910
G1A25.310Z14.346
G1A24.411Z14.024
G1A23.640Z13.845
G1A21.456Z13.435
G1A20.043Z13.132
G1A16.188Z12.526
G1A15.546Z12.377
G1A14.904Z12.149
G1A14.261Z11.834
G1A14.004Z11.656
G1A13.747Z11.401
G1A13.619Z11.209
G1A13.490Z10.825
G1A13.362Z10.160
G1A12.848Z9.833
G1A12.206Z9.603
G1A9.507Z9.357
G1A7.709Z9.106
G1A6.552Z8.871
G1A6.039Z8.748
G1A5.653Z8.755
G1A2.570Z8.880
G1A0.385Z8.895
G1A0.000Z8.892
G1X75.362Z8.823
G1A2.056Z8.813
G1A4.882Z8.699
G1A5.011Z8.712
G1A6.039Z8.979
G1A7.066Z9.190
G1A8.351Z9.396
G1A10.021Z9.582
G1A12.976Z9.795
G1A13.105Z9.825
G1A13.233Z9.918
G1A13.362Z11.152
G1A13.490Z11.413
G1A13.747Z11.689
G1A14.133Z11.943
G1A14.647Z12.184
G1A15.289Z12.393
G1A16.060Z12.573
G1A17.730Z12.836
G1A20.428Z13.277
G1A22.099Z13.615
G1A23.512Z13.870
G1A24.411Z14.099
G1A26.467Z14.808
G1A27.880Z15.438
G1A29.936Z16.207
G1A31.221Z16.752
G1A31.991Z16.981
G1A32.762Z17.145
G1A33.405Z17.228
G1A34.047Z17.248
G1A35.203Z17.208
G1A35.846Z17.104
G1A36.360Z16.958
G1A38.801Z15.997
G1A40.086Z15.512
G1A40.471Z15.323
G1A40.728Z15.143
G1A40.857Z15.020
G1A41.113Z14.639
G1A41.242Z14.324
G1A41.370Z0.000
G1A139.143
G1A139.272Z14.130
G1A139.529Z14.738
G1A139.914Z15.332
G1A140.171Z15.585
G1A140.557Z15.804
G1A142.099Z16.396
G1A143.255Z16.867
G1A143.897Z17.051
G1A144.411Z17.120
G1A144.925Z17.136
G1A145.696Z17.108
G1A146.210Z17.029
G1A147.366Z16.758
G1A148.009Z16.610
G1A148.522Z16.433
G1A149.422Z16.064
G1A150.707Z15.646
G1A151.991Z15.295
G1A153.790Z14.822
G1A155.332Z14.405
G1A156.617Z14.174
G1A158.929Z13.802
G1A162.270Z13.394
G1A164.197Z13.210
G1A164.968Z13.076
G1A165.610Z12.913
G1A166.124Z12.722
G1A166.510Z12.504
G1A166.767Z12.287
G1A167.024Z11.941
G1A167.152Z11.572
G1A167.281Z10.868
G1A169.722Z10.807
G1A171.520Z10.693
G1A173.062Z10.530
G1A174.604Z10.294
G1A176.660Z9.900
G1A177.944Z9.586
G1A178.073Z9.545
G1A181.285Z9.693
G1A182.441Z9.699
G1A183.983Z9.637
G1A186.039Z9.465
G1A186.296Z9.493
G1A187.066Z9.590
G1A188.865Z9.683
G1A195.032Z9.791
G1A199.400Z9.854
G1A201.585Z9.829
G1A203.255Z9.760
G1A204.411Z9.676
G1A206.724Z9.890
G1A209.422Z10.071
G1A212.120Z10.187
G1A214.433Z10.210
G1A216.488Z10.325
G1A219.058Z10.463
G1A224.325Z10.624
G1A226.124Z10.733
G1A227.024Z10.840
G1A228.308Z11.075
G1A230.236Z11.479
G1A231.520Z11.678
G1A232.677Z11.797
G1A234.347Z11.890
G1A236.531Z11.956
G1A236.916Z11.985
G1A238.330Z12.209
G1A239.743Z12.353
G1A242.056Z12.498
G1A243.726Z12.536
G1A245.011Z12.517
G1A246.167Z12.455
G1A247.195Z12.354
G1A248.223Z12.203
G1A248.608Z12.144
G1A248.994Z12.127
G1A249.764Z12.195
G1A250.921Z12.305
G1A252.206Z12.354
G1A253.619Z12.335
G1A254.904Z12.261
G1A255.803Z12.170
G1A256.831Z12.021
G1A257.345Z11.930
G1A257.730Z11.915
G1A258.630Z12.001
G1A259.914Z12.127
G1A262.484Z12.255
G1A265.182Z12.769
G1A266.467Z13.003
G1A267.495Z13.132
G1A268.522Z13.201
G1A269.679Z13.200
G1A270.835Z13.117
G1A271.991Z12.950
G1A273.919Z12.520
G1A275.589Z12.264
G1A277.131Z12.072
G1A279.700Z11.862
G1A281.627Z11.657
G1A282.398Z11.618
G1A284.197Z11.787
G1A285.610Z11.850
G1A287.281Z11.846
G1A288.694Z11.782
G1A289.722Z11.679
G1A291.649Z11.409
G1A292.420Z11.387
G1A292.805Z11.424
G1A294.090Z11.687
G1A295.375Z11.859
G1A296.788Z11.952
G1A298.587Z11.981
G1A300.642Z11.922
G1A302.313Z11.795
G1A303.340Z11.662
G1A304.111Z11.496
G1A304.754Z11.295
G1A305.139Z11.137
G1A307.966Z10.983
G1A309.251Z10.838
G1A311.178Z10.535
G1A312.976Z10.213
G1A314.261Z10.077
G1A319.015Z9.722
G1A319.786Z9.669
G1A321.071Z9.709
G1A322.998Z9.698
G1A325.439Z9.615
G1A327.623Z9.457
G1A330.064Z9.237
G1A331.221Z9.325
G1A332.634Z9.367
G1A334.946Z9.352
G1A337.773Z9.258
G1A342.270Z9.018
G1A345.996Z8.769
G1A348.308Z8.549
G1A350.236Z8.310
G1A351.135Z8.148
G1A352.805Z8.256
G1A353.961Z8.434
G1A355.632Z8.646
G1A357.816Z8.781
G1A360.000Z8.823
G1X75.045Z8.729
G1A357.944Z8.697
G1A356.531Z8.636
G1A353.062Z8.583
G1A351.006Z8.510
G1A349.465Z8.418
G1A346.895Z8.703
G1A344.197Z8.931
G1A339.700Z9.220
G1A335.846Z9.397
G1A332.891Z9.465
G1A331.349Z9.443
G1A330.064Z9.359
G1A329.550Z9.322
G1A327.495Z9.478
G1A325.310Z9.585
G1A323.512Z9.656
G1A320.814Z9.717
G1A314.261Z10.082
G1A313.233Z10.172
G1A312.334Z10.296
G1A309.893Z10.731
G1A308.351Z10.959
G1A307.195Z11.075
G1A304.882Z11.212
G1A304.111Z11.485
G1A303.340Z11.657
G1A302.441Z11.790
G1A301.028Z11.921
G1A299.615Z11.987
G1A297.559Z12.003
G1A295.889Z11.954
G1A294.604Z11.850
G1A293.576Z11.706
G1A292.163Z11.401
G1A291.649Z11.378
G1A291.135Z11.413
G1A290.236Z11.547
G1A289.465Z11.670
G1A288.051Z11.805
G1A286.381Z11.872
G1A284.839Z11.858
G1A283.041Z11.761
G1A281.499Z11.873
G1A278.801Z12.127
G1A276.488Z12.304
G1A274.818Z12.495
G1A274.047Z12.611
G1A272.120Z13.057
G1A270.835Z13.252
G1A269.550Z13.336
G1A268.266Z13.318
G1A267.238Z13.245
G1A266.081Z13.083
G1A262.612Z12.435
G1A261.842Z12.319
G1A258.887Z12.096
G1A257.730Z11.993
G1A257.216Z12.001
G1A255.931Z12.170
G1A254.518Z12.288
G1A253.105Z12.335
G1A251.820Z12.319
G1A250.792Z12.264
G1A249.379Z12.136
G1A248.994Z12.142
G1A247.323Z12.393
G1A245.910Z12.514
G1A244.497Z12.551
G1A242.698Z12.522
G1A240.385Z12.400
G1A238.844Z12.260
G1A237.173Z12.012
G1A236.274Z11.972
G1A233.833Z11.895
G1A232.291Z11.792
G1A231.135Z11.658
G1A229.593Z11.399
G1A227.794Z11.046
G1A226.638Z10.884
G1A225.353Z10.786
G1A221.756Z10.627
G1A214.433Z10.413
G1A212.248Z10.368
G1A210.321Z10.255
G1A209.036Z10.138
G1A207.752Z9.964
G1A207.109Z9.835
G1A205.696Z9.702
G1A203.769Z9.878
G1A201.970Z9.935
G1A199.657Z9.935
G1A189.764Z9.737
G1A187.452Z9.624
G1A186.424Z9.524
G1A185.396Z9.330
G1A185.139Z9.341
G1A183.597Z9.506
G1A181.799Z9.574
G1A180.000Z9.515
G1A178.715Z9.440
G1A178.587Z9.463
G1A177.816Z9.716
G1A176.403Z10.035
G1A174.347Z10.398
G1A172.934Z10.603
G1A171.520Z10.748
G1A169.593Z10.866
G1A167.537Z10.913
G1A167.409Z12.063
G1A167.281Z12.255
G1A167.024Z12.487
G1A166.638Z12.703
G1A165.996Z12.962
G1A165.482Z13.104
G1A164.711Z13.230
G1A163.041Z13.412
G1A160.857Z13.659
G1A158.544Z13.961
G1A155.460Z14.462
G1A154.176Z14.765
G1A152.248Z15.259
G1A150.578Z15.684
G1A149.422Z16.028
G1A148.009Z16.622
G1A147.495Z16.836
G1A146.981Z17.074
G1A146.467Z17.231
G1A145.824Z17.341
G1A145.054Z17.432
G1A144.411Z17.432
G1A143.897Z17.370
G1A143.383Z17.243
G1A142.484Z16.899
G1A140.814Z16.233
G1A140.300Z16.029
G1A139.914Z15.801
G1A139.657Z15.595
G1A139.529Z15.456
G1A139.400Z15.253
G1A139.272Z14.120
G1A139.143Z0.000
G1A41.627
G1A41.499Z14.417
G1A41.370Z14.887
G1A41.242Z15.091
G1A40.985Z15.341
G1A40.600Z15.609
G1A40.086Z15.854
G1A38.158Z16.577
G1A36.488Z17.268
G1A35.974Z17.411
G1A35.332Z17.511
G1A34.818Z17.528
G1A34.047Z17.460
G1A33.148Z17.318
G1A32.377Z17.144
G1A30.964Z16.683
G1A29.679Z16.174
G1A28.266Z15.659
G1A27.109Z15.220
G1A26.210Z14.846
G1A25.696Z14.607
G1A24.797Z14.272
G1A23.640Z13.984
G1A22.099Z13.660
G1A19.529Z13.192
G1A17.345Z12.845
G1A15.803Z12.619
G1A14.904Z12.409
G1A14.261Z12.197
G1A13.747Z11.954
G1A13.362Z11.678
G1A13.233Z11.539
G1A13.105Z11.336
G1A12.976Z10.251
G1A12.848Z9.873
G1A10.150Z9.704
G1A8.480Z9.534
G1A7.066Z9.322
G1A5.525Z9.009
G1A4.111Z8.650
G1A3.854Z8.641
G1A1.670Z8.714
G1A0.000Z8.729
G1X74.918Z8.684
G1X74.854Z8.695
G1X74.727Z8.778
G1A1.156Z8.640
G1A1.542Z8.590
G1A3.212Z8.534
G1A4.111Z8.766
G1A5.396Z9.060
G1A6.424Z9.281
G1A7.837Z9.512
G1A9.122Z9.672
G1A10.921Z9.817
G1A12.591Z9.909
G1A12.719Z10.369
G1A12.848Z11.503
G1A13.105Z11.801
G1A13.490Z12.062
G1A14.004Z12.298
G1A14.647Z12.492
G1A15.546Z12.668
G1A17.088Z12.882
G1A18.630Z13.111
G1A21.456Z13.612
G1A24.154Z14.207
G1A25.182Z14.537
G1A26.724Z15.173
G1A29.422Z16.100
G1A31.863Z17.016
G1A33.019Z17.478
G1A33.533Z17.611
G1A34.304Z17.771
G1A34.818Z17.816
G1A35.332Z17.801
G1A35.974Z17.702
G1A36.617Z17.550
G1A37.131Z17.357
G1A38.030Z16.966
G1A39.829Z16.272
G1A40.471Z16.034
G1A40.985Z15.769
G1A41.242Z15.577
G1A41.370Z15.450
G1A41.499Z15.272
G1A41.756Z14.433
G1A41.884Z0.000
G1A138.887
G1A139.015Z15.462
G1A139.143Z15.681
G1A139.400Z15.937
G1A139.786Z16.177
G1A141.842Z16.984
G1A142.741Z17.350
G1A143.383Z17.532
G1A144.154Z17.634
G1A144.797Z17.655
G1A145.439Z17.614
G1A146.210Z17.481
G1A146.852Z17.309
G1A147.366Z17.108
G1A148.266Z16.702
G1A149.036Z16.327
G1A150.064Z15.893
G1A150.578Z15.651
G1A153.919Z14.843
G1A155.460Z14.512
G1A157.388Z14.210
G1A159.957Z13.866
G1A163.041Z13.524
G1A165.096Z13.309
G1A165.867Z13.174
G1A166.638Z12.962
G1A167.024Z12.805
G1A167.409Z12.567
G1A167.666Z12.335
G1A167.794Z12.157
G1A167.923Z10.928
G1A169.850Z10.870
G1A171.649Z10.761
G1A173.319Z10.579
G1A175.760Z10.201
G1A177.173Z9.904
G1A178.073Z9.674
G1A178.844Z9.419
G1A179.872Z9.522
G1A182.570Z9.606
G1A184.240Z9.569
G1A185.653Z9.488
G1A186.167Z9.443
G1A187.580Z9.590
G1A190.407Z9.760
G1A193.747Z9.861
G1A201.585Z10.020
G1A203.126Z10.007
G1A204.411Z9.948
G1A205.953Z9.811
G1A207.366Z10.142
G1A208.522Z10.297
G1A210.193Z10.446
G1A212.377Z10.547
G1A217.131Z10.594
G1A222.655Z10.745
G1A226.253Z10.915
G1A227.281Z11.019
G1A228.437Z11.195
G1A230.364Z11.560
G1A231.777Z11.756
G1A233.448Z11.890
G1A235.632Z11.982
G1A237.302Z12.041
G1A237.944Z12.112
G1A239.358Z12.303
G1A241.156Z12.450
G1A243.340Z12.545
G1A245.139Z12.564
G1A246.552Z12.507
G1A247.709Z12.395
G1A248.994Z12.198
G1A249.379Z12.137
G1A249.893Z12.152
G1A251.563Z12.275
G1A252.848Z12.309
G1A254.133Z12.286
G1A255.675Z12.183
G1A256.702Z12.082
G1A257.602Z12.073
G1A258.244Z12.113
G1A260.814Z12.325
G1A261.713Z12.405
G1A262.869Z12.581
G1A264.797Z12.939
G1A266.081Z13.183
G1A267.238Z13.330
G1A268.394Z13.406
G1A269.807Z13.410
G1A271.092Z13.310
G1A272.248Z13.119
G1A274.176Z12.660
G1A274.946Z12.540
G1A276.360Z12.415
G1A279.443Z12.202
G1A282.655Z11.934
G1A283.940Z11.867
G1A285.996Z11.878
G1A287.409Z11.813
G1A288.951Z11.662
G1A290.878Z11.380
G1A291.392Z11.367
G1A291.649Z11.391
G1A292.677Z11.647
G1A293.704Z11.827
G1A294.732Z11.935
G1A296.146Z12.005
G1A298.201Z12.026
G1A300.000Z11.987
G1A301.413Z11.904
G1A302.698Z11.764
G1A303.597Z11.605
G1A304.240Z11.435
G1A304.754Z11.266
G1A306.938Z11.128
G1A308.223Z10.985
G1A309.893Z10.689
G1A312.848Z10.170
G1A314.133Z10.069
G1A317.987Z9.900
G1A321.970Z9.748
G1A328.266Z9.594
G1A329.807Z9.498
G1A330.321Z9.456
G1A331.991Z9.529
G1A334.047Z9.510
G1A337.645Z9.371
G1A340.728Z9.195
G1A344.325Z8.924
G1A347.024Z8.669
G1A347.537Z8.624
G1A349.722Z8.739
G1A352.548Z8.804
G1A359.101Z8.799
G1A360.000Z8.778
G1X74.410Z8.919
G1A358.715Z8.932
G1A356.146Z8.933
G1A351.777Z8.980
G1A348.822Z8.956
G1A347.024Z8.879
G1A345.610Z8.773
G1A341.884Z9.118
G1A338.415Z9.363
G1A335.332Z9.510
G1A332.762Z9.565
G1A331.991Z9.568
G1A330.193Z9.665
G1A326.724Z9.725
G1A322.612Z9.764
G1A317.345Z9.942
G1A314.518Z10.090
G1A312.077Z10.268
G1A311.306Z10.365
G1A310.150Z10.573
G1A308.737Z10.898
G1A307.580Z11.075
G1A306.295Z11.200
G1A304.625Z11.310
G1A303.597Z11.587
G1A302.698Z11.755
G1A301.413Z11.905
G1A299.743Z12.018
G1A297.687Z12.055
G1A295.118Z12.020
G1A294.090Z11.964
G1A292.805Z11.800
G1A291.777Z11.583
G1A290.878Z11.338
G1A290.492Z11.343
G1A289.465Z11.478
G1A287.923Z11.714
G1A286.638Z11.837
G1A283.683Z11.985
G1A280.214Z12.227
G1A278.030Z12.376
G1A275.460Z12.518
G1A274.690Z12.610
G1A273.662Z12.825
G1A272.377Z13.130
G1A271.221Z13.339
G1A270.064Z13.450
G1A268.779Z13.468
G1A267.495Z13.402
G1A266.338Z13.276
G1A265.310Z13.114
G1A263.512Z12.740
G1A261.970Z12.493
G1A260.942Z12.383
G1A257.602Z12.155
G1A256.445Z12.146
G1A253.619Z12.268
G1A252.463Z12.270
G1A251.306Z12.221
G1A249.893Z12.135
G1A249.379Z12.204
G1A248.351Z12.365
G1A247.195Z12.491
G1A246.167Z12.555
G1A244.882Z12.579
G1A242.955Z12.540
G1A240.899Z12.428
G1A239.101Z12.252
G1A237.816Z12.091
G1A236.531Z12.023
G1A233.961Z11.922
G1A232.163Z11.794
G1A230.878Z11.644
G1A229.593Z11.430
G1A228.180Z11.170
G1A227.024Z11.033
G1A225.096Z10.923
G1A220.214Z10.747
G1A217.002Z10.683
G1A212.762Z10.707
G1A210.835Z10.636
G1A208.908Z10.494
G1A207.495Z10.325
G1A205.182Z9.989
G1A204.925Z9.990
G1A204.026Z10.058
G1A202.484Z10.089
G1A199.143Z10.024
G1A192.848Z9.846
G1A190.278Z9.721
G1A187.709Z9.522
G1A185.782Z9.659
G1A184.111Z9.723
G1A182.056Z9.723
G1A179.615Z9.658
G1A178.330Z9.553
G1A177.430Z9.832
G1A175.889Z10.223
G1A174.475Z10.434
G1A172.163Z10.711
G1A170.236Z10.841
G1A168.308Z10.908
G1A168.180Z11.962
G1A168.051Z12.255
G1A167.794Z12.545
G1A167.409Z12.808
G1A166.895Z13.048
G1A166.253Z13.247
G1A165.610Z13.356
G1A159.315Z14.037
G1A156.103Z14.467
G1A153.790Z14.887
G1A151.991Z15.244
G1A151.478Z15.408
G1A150.450Z15.948
G1A149.679Z16.291
G1A148.651Z16.681
G1A146.981Z17.395
G1A146.338Z17.589
G1A145.439Z17.745
G1A144.540Z17.826
G1A143.769Z17.802
G1A143.126Z17.716
G1A142.355Z17.521
