(VECTRIC POST REVISION)
(73AEA2D9E9B67AE7697F0CF21BDB8954)
T1
G17
G21
G90
G0Z50.320
G0X0.000A0.000
S16000M3
G0X102.000A360.000Z35.080
G1Z27.460F254.0
G1A0.000F1016.0
G1X99.460
G1A360.000
G1X96.920
G1A0.000
G1X94.380
G1A360.000
G1X91.840
G1A0.000
G1X89.300
G1A360.000
G1X86.760
G1A0.000
G1X84.220
G1A360.000
G1X81.680
G1A0.000
G1X79.140
G1A360.000
G1X76.600
G1A0.000
G1X74.060
G1A360.000
G1X71.520
G1A0.000
G1X68.980
G1A360.000
G1X66.440
G1A0.000
G1X63.900
G1A360.000
G1X61.360
G1A0.000
G1X58.820
G1A360.000
G1X56.280
G1A301.081
G1A297.506Z27.620
G1A294.594Z27.869
G1A290.886Z28.110
G1A285.458Z28.375
G1A283.075Z28.417
G1A279.500Z28.400
G1A276.190Z28.296
G1A270.232Z28.080
G1A268.113Z28.050
G1A266.127Z28.113
G1A262.817Z28.264
G1A258.845Z28.263
G1A255.668Z28.146
G1A252.887Z27.990
G1A250.769Z27.821
G1A248.650Z27.587
G1A243.884Z27.460
G1A0.000
G1X53.740
G1A241.765
G1A245.737Z28.192
G1A248.518Z28.678
G1A251.298Z29.037
G1A253.681Z29.266
G1A256.594Z29.481
G1A259.375Z29.593
G1A261.361Z29.622
G1A264.009Z29.603
G1A268.246Z29.462
G1A270.761Z29.508
G1A272.880Z29.619
G1A276.587Z29.848
G1A279.632Z29.976
G1A281.618Z30.014
G1A284.663Z30.006
G1A286.914Z29.915
G1A289.695Z29.708
G1A293.402Z29.350
G1A296.315Z29.023
G1A299.890Z28.532
G1A302.935Z28.017
G1A304.921Z27.606
G1A308.099Z27.460
G1A360.000
G1X51.200
G1A311.011
G1A306.113Z28.448
G1A304.259Z28.877
G1A301.876Z29.343
G1A299.360Z29.774
G1A296.712Z30.119
G1A294.064Z30.379
G1A290.622Z30.601
G1A287.312Z30.741
G1A282.677Z30.812
G1A277.779Z30.805
G1A274.071Z30.704
G1A269.702Z30.576
G1A266.657Z30.542
G1A260.434Z30.533
G1A257.124Z30.435
G1A254.079Z30.285
G1A250.636Z30.014
G1A248.121Z29.738
G1A246.002Z29.438
G1A243.751Z29.012
G1A240.441Z28.280
G1A238.323Z27.737
G1A233.556Z27.460
G1A123.663
G1A120.088Z27.704
G1A118.102Z27.907
G1A116.249Z28.088
G1A113.865Z28.234
G1A112.409Z28.262
G1A109.629Z28.255
G1A108.834Z28.228
G1A106.451Z28.212
G1A104.730Z28.195
G1A102.744Z28.129
G1A101.155Z27.996
G1A100.493Z27.913
G1A98.639Z27.900
G1A96.256Z27.769
G1A95.064Z27.651
G1A94.800Z27.612
G1A93.873Z27.672
G1A90.828Z27.665
G1A88.709Z27.554
G1A87.650Z27.460
G1A84.737
G1A84.075Z27.545
G1A83.016Z27.865
G1A81.824Z28.107
G1A80.633Z28.276
G1A78.382Z28.482
G1A77.455Z28.592
G1A75.866Z28.684
G1A72.424Z28.688
G1A70.835Z28.651
G1A69.378Z28.686
G1A66.333Z28.671
G1A64.347Z28.583
G1A62.891Z28.456
G1A60.375Z28.169
G1A58.389Z27.861
G1A57.197Z27.609
G1A55.609Z27.460
G1A53.358
G1A51.637Z27.495
G1A48.591Z27.483
G1A46.605Z27.460
G1A0.000
G1X48.660
G1A39.853
G1A43.693Z27.529
G1A46.473Z27.625
G1A50.048Z27.679
G1A52.166Z27.699
G1A53.093Z27.785
G1A54.417Z27.989
G1A55.344Z28.092
G1A57.595Z28.537
G1A58.786Z28.761
G1A59.448Z28.856
G1A62.096Z29.078
G1A64.082Z29.178
G1A68.849Z29.341
G1A70.173Z29.378
G1A71.497Z29.493
G1A73.218Z29.555
G1A76.263Z29.564
G1A80.765Z29.522
G1A82.221Z29.440
G1A85.929Z29.080
G1A86.988Z28.930
G1A87.385Z28.858
G1A90.298Z28.592
G1A92.681Z28.577
G1A93.476Z28.569
G1A95.197Z28.836
G1A96.786Z29.024
G1A98.904Z29.196
G1A100.890Z29.305
G1A103.008Z29.354
G1A105.127Z29.394
G1A106.848Z29.438
G1A108.967Z29.427
G1A110.688Z29.356
G1A113.336Z29.159
G1A116.513Z29.031
G1A118.632Z28.933
G1A120.353Z28.798
G1A122.736Z28.590
G1A124.855Z28.428
G1A126.841Z28.200
G1A127.768Z28.045
G1A128.297Z27.892
G1A128.562Z27.779
G1A130.945Z27.666
G1A131.872Z27.585
G1A133.064Z27.460
G1A231.703
G1A234.748Z27.641
G1A238.191Z28.613
G1A239.912Z29.055
G1A241.898Z29.489
G1A244.281Z29.915
G1A246.135Z30.166
G1A248.385Z30.386
G1A251.431Z30.618
G1A254.741Z30.795
G1A259.110Z30.909
G1A263.347Z30.963
G1A273.542Z30.993
G1A279.367Z30.974
G1A287.576Z30.961
G1A292.078Z30.853
G1A295.123Z30.696
G1A298.168Z30.470
G1A300.552Z30.217
G1A302.273Z29.971
G1A303.862Z29.681
G1A306.113Z29.172
G1A308.761Z28.480
G1A312.203Z27.583
G1A313.659Z27.460
G1A360.000
G1X46.120
G1A314.983
G1A313.262Z27.745
G1A311.276Z28.168
G1A309.687Z28.558
G1A306.377Z29.451
G1A305.053Z29.749
G1A302.935Z30.101
G1A300.816Z30.365
G1A298.301Z30.602
G1A295.123Z30.821
G1A291.946Z30.935
G1A288.371Z30.974
G1A280.691Z30.985
G1A277.117Z31.000
G1A262.685Z30.988
G1A256.992Z30.952
G1A252.755Z30.841
G1A249.842Z30.693
G1A246.929Z30.470
G1A244.413Z30.225
G1A242.163Z29.905
G1A240.044Z29.496
G1A238.058Z29.035
G1A234.483Z28.097
G1A231.438Z27.460
G1A137.300
G1A136.109Z27.543
G1A134.785Z27.741
G1A133.196Z27.911
G1A131.078Z28.135
G1A127.503Z28.643
G1A124.987Z28.929
G1A123.133Z29.086
G1A120.883Z29.309
G1A117.440Z29.536
G1A115.719Z29.614
G1A114.660Z29.691
G1A112.541Z29.763
G1A108.967Z29.795
G1A104.465Z29.761
G1A100.096Z29.662
G1A98.507Z29.620
G1A96.918Z29.513
G1A94.138Z29.269
G1A93.343Z29.355
G1A92.152Z29.437
G1A91.622Z29.441
G1A91.092Z29.476
G1A89.901Z29.463
G1A89.503Z29.437
G1A88.841Z29.428
G1A87.120Z29.304
G1A85.134Z29.506
G1A84.207Z29.543
G1A82.883Z29.574
G1A81.824Z29.600
G1A79.706Z29.607
G1A78.779Z29.666
G1A76.661Z29.704
G1A66.730Z29.695
G1A65.539Z29.651
G1A64.082Z29.561
G1A62.361Z29.469
G1A61.302Z29.366
G1A59.978Z29.326
G1A58.522Z29.194
G1A55.873Z28.823
G1A53.755Z28.402
G1A52.034Z28.106
G1A49.651Z27.784
G1A49.121Z27.738
G1A47.135Z27.690
G1A45.017Z27.666
G1A42.766Z27.545
G1A40.250Z27.460
G1A0.000
G1X43.580
G1A39.985
G1A41.177Z27.473
G1A45.149Z27.688
G1A47.929Z27.769
G1A49.253Z27.895
G1A52.299Z28.276
G1A53.623Z28.488
G1A55.609Z28.886
G1A57.727Z29.236
G1A58.786Z29.345
G1A59.316Z29.373
G1A60.243Z29.500
G1A63.023Z29.648
G1A64.215Z29.703
G1A68.187Z29.714
G1A72.953Z29.801
G1A75.999Z29.804
G1A78.117Z29.887
G1A82.089Z29.902
G1A82.619Z29.991
G1A83.016Z30.106
G1A83.810Z30.437
G1A84.472Z30.635
G1A85.399Z30.791
G1A86.723Z30.913
G1A88.444Z30.982
G1A92.681Z30.996
G1A94.535Z30.973
G1A95.726Z30.907
G1A97.050Z30.737
G1A97.977Z30.549
G1A98.507Z30.376
G1A99.434Z30.390
G1A100.228Z30.418
G1A103.008Z30.406
G1A105.127Z30.284
G1A107.245Z30.162
G1A108.305Z30.114
G1A110.688Z30.099
G1A113.071Z30.023
G1A118.235Z29.735
G1A119.956Z29.624
G1A122.339Z29.466
G1A124.987Z29.189
G1A127.370Z28.900
G1A128.562Z28.744
G1A132.004Z28.268
G1A135.712Z27.816
G1A138.095Z27.460
G1A228.658
G1A232.894Z27.848
G1A239.382Z29.383
G1A241.236Z29.757
G1A242.825Z30.026
G1A244.678Z30.266
G1A247.856Z30.561
G1A250.504Z30.740
G1A253.152Z30.865
G1A257.389Z30.965
G1A265.862Z31.000
G1A281.089Z30.990
G1A283.604Z30.974
G1A290.224Z30.960
G1A292.872Z30.908
G1A295.653Z30.777
G1A298.036Z30.595
G1A300.419Z30.383
G1A302.405Z30.140
G1A304.259Z29.854
G1A306.113Z29.506
G1A311.806Z28.255
G1A314.454Z27.744
G1A316.440Z27.460
G1A360.000
G1X41.040
G1A317.234
G1A314.586Z27.758
G1A311.673Z28.302
G1A306.113Z29.352
G1A303.200Z29.830
G1A300.816Z30.145
G1A298.036Z30.436
G1A294.594Z30.697
G1A292.078Z30.836
G1A289.298Z30.921
G1A283.737Z30.972
G1A279.103Z30.986
G1A273.409Z31.000
G1A263.347Z30.988
G1A258.845Z30.950
G1A254.211Z30.820
G1A251.298Z30.674
G1A248.253Z30.440
G1A245.870Z30.206
G1A243.222Z29.880
G1A240.971Z29.517
G1A238.455Z29.034
G1A231.968Z27.655
G1A228.790Z27.460
G1A141.670
G1A139.287Z27.505
G1A136.771Z27.766
G1A134.520Z28.043
G1A132.931Z28.189
G1A131.740Z28.404
G1A130.151Z28.729
G1A128.959Z28.906
G1A125.649Z29.295
G1A122.339Z29.643
G1A116.381Z30.211
G1A110.158Z30.649
G1A108.834Z30.692
G1A102.611Z30.695
G1A101.420Z30.857
G1A100.228Z30.958
G1A98.772Z30.996
G1A83.413Z30.986
G1A81.824Z30.908
G1A80.103Z30.749
G1A79.309Z30.635
G1A78.382Z30.474
G1A77.587Z30.460
G1A76.396Z30.434
G1A73.880Z30.328
G1A71.364Z30.178
G1A70.173Z30.070
G1A69.246Z29.964
G1A68.452Z29.936
G1A66.995Z29.875
G1A64.877Z29.703
G1A63.950Z29.681
G1A60.772Z29.511
G1A59.581Z29.367
G1A57.065Z28.949
G1A54.020Z28.416
G1A51.901Z28.145
G1A48.194Z27.774
G1A47.665Z27.747
G1A43.560Z27.611
G1A41.177Z27.476
G1A39.720Z27.460
G1A0.000
G1X38.500
G1A41.177
G1A44.355Z27.528
G1A47.135Z27.624
G1A49.386Z27.686
G1A51.769Z27.923
G1A56.138Z28.431
G1A57.860Z28.692
G1A61.037Z29.231
G1A63.420Z29.588
G1A65.539Z29.843
G1A66.730Z29.929
G1A67.392Z29.957
G1A69.511Z30.166
G1A72.026Z30.329
G1A75.204Z30.455
G1A77.323Z30.465
G1A78.117Z30.543
G1A79.309Z30.722
G1A80.103Z30.790
G1A82.221Z30.950
G1A83.678Z30.995
G1A99.698Z30.989
G1A101.022Z30.948
G1A103.406Z30.760
G1A103.935Z30.695
G1A111.350Z30.684
G1A113.203Z30.589
G1A116.911Z30.305
G1A119.823Z30.003
G1A124.193Z29.450
G1A128.430Z28.883
G1A129.886Z28.599
G1A131.740Z28.227
G1A133.064Z28.022
G1A138.095Z27.509
G1A141.273Z27.460
G1A229.055
G1A233.821Z27.880
G1A238.058Z28.654
G1A242.163Z29.327
G1A245.340Z29.764
G1A247.988Z30.070
G1A251.828Z30.411
G1A254.873Z30.610
G1A258.183Z30.754
G1A261.890Z30.844
G1A268.643Z30.932
G1A273.674Z30.928
G1A276.984Z30.876
G1A280.294Z30.780
G1A285.325Z30.764
G1A288.768Z30.688
G1A291.681Z30.552
G1A295.388Z30.295
G1A298.566Z30.012
G1A301.611Z29.671
G1A304.921Z29.225
G1A309.290Z28.542
G1A314.321Z27.718
G1A319.220Z27.460
G1A360.000
G1X35.960
G1A320.147
G1A314.057Z27.511
G1A310.747Z27.965
G1A306.113Z28.599
G1A301.081Z29.196
G1A297.109Z29.578
G1A292.210Z29.951
G1A289.298Z30.133
G1A284.796Z30.313
G1A274.204Z30.571
G1A271.291Z30.595
G1A267.716Z30.577
G1A260.566Z30.432
G1A257.124Z30.297
G1A254.079Z30.109
G1A250.769Z29.843
G1A247.988Z29.552
G1A242.030Z28.806
G1A238.058Z28.248
G1A233.424Z27.530
G1A228.393Z27.460
G1A138.624
G1A133.593Z27.576
G1A132.402Z27.658
G1A122.736Z29.300
G1A120.750Z29.644
G1A117.308Z30.136
G1A115.189Z30.366
G1A112.806Z30.555
G1A110.158Z30.680
G1A106.186Z30.695
G1A102.082Z30.704
G1A99.301Z30.888
G1A97.448Z30.968
G1A95.197Z30.996
G1A86.591Z30.985
G1A85.267Z30.932
G1A83.545Z30.815
G1A82.751Z30.764
G1A81.957Z30.691
G1A80.897Z30.555
G1A79.706Z30.469
G1A75.999Z30.444
G1A73.218Z30.333
G1A70.438Z30.143
G1A68.187Z29.928
G1A67.260Z29.850
G1A65.274Z29.560
G1A59.316Z28.518
G1A55.344Z28.005
G1A51.239Z27.575
G1A49.783Z27.464
G1A47.135Z27.460
G1A0.000
G1X33.420
G1A50.577
G1A57.595Z27.833
G1A59.713Z28.030
G1A62.096Z28.312
G1A66.466Z29.014
G1A69.908Z29.450
G1A72.424Z29.684
G1A75.072Z29.866
G1A75.866Z29.926
G1A77.455Z30.124
G1A78.779Z30.227
G1A80.500Z30.281
G1A83.678Z30.272
G1A85.002Z30.192
G1A86.061Z30.093
G1A87.650Z29.867
G1A88.974Z29.619
G1A90.033Z29.407
G1A90.165Z29.401
G1A90.828Z29.624
G1A91.622Z29.816
G1A92.549Z30.007
G1A93.873Z30.203
G1A95.064Z30.303
G1A96.124Z30.338
G1A98.639Z30.343
G1A99.698Z30.462
G1A100.890Z30.532
G1A103.008Z30.546
G1A105.656Z30.533
G1A108.702Z30.414
G1A110.423Z30.305
G1A112.939Z30.088
G1A115.719Z29.783
G1A117.837Z29.523
G1A122.207Z28.853
G1A126.576Z28.291
G1A133.858Z27.460
G1A233.027
G1A236.337Z27.475
G1A239.117Z27.863
G1A243.089Z28.359
G1A249.047Z29.020
G1A251.695Z29.259
G1A257.654Z29.685
G1A261.096Z29.859
G1A264.538Z29.959
G1A267.716Z29.977
G1A271.423Z29.958
G1A275.793Z29.832
G1A280.824Z29.747
G1A284.001Z29.621
G1A292.343Z29.189
G1A295.123Z29.010
G1A299.360Z28.653
G1A304.259Z28.140
G1A311.144Z27.460
G1A360.000
G1X30.880
G1A303.332
G1A297.242Z27.881
G1A294.726Z28.075
G1A290.622Z28.298
G1A282.148Z28.730
G1A278.970Z28.839
G1A273.939Z28.944
G1A269.967Z29.063
G1A267.451Z29.089
G1A264.009Z29.076
G1A260.037Z28.916
G1A254.873Z28.633
G1A251.431Z28.407
G1A248.518Z28.166
G1A243.089Z27.629
G1A239.117Z27.460
G1A132.137
G1A126.576Z28.008
G1A116.116Z29.204
G1A114.130Z29.390
G1A111.482Z29.563
G1A108.437Z29.687
G1A105.921Z29.723
G1A102.479Z29.708
G1A98.904Z29.604
G1A94.932Z29.404
G1A90.165Z29.087
G1A86.193Z29.057
G1A81.692Z29.149
G1A78.911Z29.136
G1A75.469Z29.047
G1A72.291Z28.907
G1A68.849Z28.656
G1A65.936Z28.387
G1A60.905Z27.911
G1A56.933Z27.535
G1A52.431Z27.460
G1A0.000
G1X28.340
G1A57.330
G1A61.832Z27.525
G1A67.525Z27.983
G1A72.821Z28.400
G1A77.587Z28.649
G1A79.706Z28.755
G1A81.295Z28.783
G1A85.134Z28.774
G1A86.326Z28.767
G1A91.490Z28.882
G1A97.977Z29.131
G1A101.552Z29.199
G1A106.054Z29.193
G1A108.967Z29.108
G1A112.012Z28.944
G1A115.587Z28.662
G1A119.691Z28.304
G1A123.133Z27.940
G1A130.283Z27.460
G1A253.417
G1A260.964Z27.828
G1A262.950Z27.894
G1A267.716Z27.901
G1A270.497Z27.834
G1A274.998Z27.682
G1A281.618Z27.509
G1A285.061Z27.460
G1A360.000
G1X25.800
G1A119.956
G1A113.203Z27.978
G1A109.629Z28.222
G1A106.848Z28.340
G1A104.597Z28.390
G1A101.552Z28.392
G1A98.904Z28.322
G1A96.653Z28.262
G1A94.005Z28.135
G1A91.754Z28.036
G1A90.563Z27.966
G1A88.444Z27.837
G1A86.193Z27.745
G1A84.340Z27.739
G1A81.957Z27.782
G1A79.441Z27.767
G1A76.793Z27.683
G1A74.807Z27.584
G1A70.967Z27.460
G1A0.000
G1X23.260
G1A360.000
G1X20.720
G1A0.000
G1X18.180
G1A360.000
G1X15.640
G1A0.000
G1X13.100
G1A360.000
G1X10.560
G1A0.000
G1X8.020
G1A360.000
G1X5.480
G1A0.000
G1X2.940
G1A360.000
G1X1.270
G1A0.000
G1X0.000
G1A360.000
G0Z35.080
G0X102.000
G1Z24.920F254.0
G1A0.000F1016.0
G1X99.460
G1A360.000
G1X96.920
G1A0.000
G1X94.380
G1A360.000
G1X91.840
G1A0.000
G1X89.300
G1A360.000
G1X86.760
G1A0.000
G1X84.220
G1A360.000
G1X81.680
G1A0.000
G1X79.140
G1A360.000
G1X76.600
G1A0.000
G1X74.060
G1A360.000
G1X71.520
G1A0.000
G1X68.980
G1A360.000
G1X66.440
G1A0.000
G1X63.900
G1A360.000
G1X61.360
G1A318.293
G1A316.307Z24.980
G1A314.983Z25.066
G1A312.468Z25.064
G1A312.071Z25.038
G1A311.806Z25.003
G1A311.673Z24.920
G1A292.608
G1A291.548Z24.948
G1A290.489Z24.979
G1A287.444Z25.041
G1A286.782Z25.101
G1A285.723Z25.378
G1A284.399Z25.571
G1A283.207Z25.663
G1A280.956Z25.680
G1A279.500Z25.654
G1A277.249Z25.520
G1A272.747Z25.150
G1A271.423Z25.117
G1A270.099Z25.201
G1A266.789Z25.470
G1A264.936Z25.569
G1A262.023Z25.576
G1A260.302Z25.514
G1A257.918Z25.393
G1A255.403Z25.371
G1A252.622Z25.253
G1A251.033Z25.126
G1A250.107Z25.002
G1A249.577Z24.920
G1A0.000
G1X58.820
G1A36.675
G1A37.072Z25.133
G1A38.264Z25.511
G1A39.191Z25.976
G1A39.456Z26.049
G1A40.515Z26.153
G1A41.442Z26.188
G1A42.501Z26.204
G1A44.884Z26.197
G1A46.473Z26.143
G1A47.400Z26.054
G1A47.929Z25.924
G1A48.591Z25.784
G1A48.724Z25.779
G1A48.989Z25.733
G1A49.121Z25.720
G1A49.386Z25.647
G1A49.518Z25.633
G1A49.783Z25.561
G1A49.915Z25.468
G1A50.180Z25.380
G1A50.975Z24.962
G1A51.637Z24.920
G1A134.785
G1A137.168Z25.138
G1A137.565Z25.152
G1A137.830Z25.198
G1A140.875Z25.203
G1A141.273Z25.143
G1A141.537Z25.141
G1A142.861Z24.957
G1A143.259Z24.920
G1A222.170
G1A223.229Z25.009
G1A224.288Z25.117
G1A226.407Z25.211
G1A233.027Z25.228
G1A235.013Z25.301
G1A237.793Z25.453
G1A239.779Z25.631
G1A243.487Z26.079
G1A248.915Z26.868
G1A251.033Z27.130
G1A252.622Z27.257
G1A254.476Z27.331
G1A256.727Z27.348
G1A259.242Z27.331
G1A261.890Z27.231
G1A264.406Z27.047
G1A267.716Z26.692
G1A268.510Z26.613
G1A270.497Z26.556
G1A274.204Z26.665
G1A277.381Z26.833
G1A278.970Z26.986
G1A280.956Z27.141
G1A283.207Z27.251
G1A285.325Z27.291
G1A289.298Z27.276
G1A291.946Z27.188
G1A294.991Z27.003
G1A297.109Z26.818
G1A299.757Z26.499
G1A302.008Z26.225
G1A306.510Z25.783
G1A308.893Z25.622
G1A311.541Z25.518
G1A317.499Z25.507
G1A322.928Z25.340
G1A323.722Z25.258
G1A324.516Z25.096
G1A327.297Z24.920
G1A360.000
G1X56.280
G1A327.562
G1A326.370Z25.088
G1A325.576Z25.250
G1A324.649Z25.351
G1A321.339Z25.469
G1A315.778Z25.625
G1A313.395Z25.644
G1A311.673Z25.632
G1A309.820Z25.889
G1A301.081Z27.204
G1A297.506Z27.620
G1A294.594Z27.869
G1A290.886Z28.110
G1A285.458Z28.375
G1A283.075Z28.417
G1A279.500Z28.400
G1A276.190Z28.296
G1A270.232Z28.080
G1A268.113Z28.050
G1A266.127Z28.113
G1A262.817Z28.264
G1A258.845Z28.263
G1A255.668Z28.146
G1A252.887Z27.990
G1A250.769Z27.821
G1A248.650Z27.587
G1A243.884Z26.921
G1A241.236Z26.460
G1A238.588Z25.974
G1A235.410Z25.497
G1A234.086Z25.365
G1A232.365Z25.270
G1A230.511Z25.220
G1A224.421Z25.211
G1A222.170Z25.122
G1A220.581Z24.990
G1A219.125Z24.920
G1A148.555
G1A147.231Z25.269
G1A146.701Z25.449
G1A146.039Z25.592
G1A144.980Z25.717
G1A143.921Z25.756
G1A142.861Z25.803
G1A138.492Z25.824
G1A136.506Z25.795
G1A133.593Z25.668
G1A132.534Z25.563
G1A132.004Z25.473
G1A131.078Z25.191
G1A130.680Z25.030
G1A130.548Z24.963
G1A130.283Z24.920
G1A55.609
G1A55.344Z24.977
G1A55.211Z25.111
G1A54.417Z25.463
G1A54.285Z25.515
G1A54.152Z25.817
G1A54.020Z25.912
G1A53.755Z25.992
G1A53.093Z26.106
G1A51.372Z26.264
G1A50.842Z26.323
G1A49.253Z26.529
G1A47.797Z26.600
G1A45.943Z26.636
G1A44.487Z26.695
G1A41.971Z26.690
G1A40.250Z26.626
G1A37.337Z26.432
G1A36.146Z26.327
G1A35.351Z26.196
G1A34.822Z26.033
G1A34.424Z25.855
G1A32.438Z25.325
G1A31.512Z25.066
G1A30.717Z24.920
G1A0.000
G1X53.740
G1A28.731
G1A29.790Z25.243
G1A30.850Z25.633
G1A31.909Z25.952
G1A34.557Z26.512
G1A36.278Z26.787
G1A37.072Z26.861
G1A39.058Z26.957
G1A46.473Z27.133
G1A48.591Z27.146
G1A50.975Z27.084
G1A52.696Z27.006
G1A53.490Z26.902
G1A54.285Z26.753
G1A55.079Z26.534
G1A55.476Z26.355
G1A56.138Z26.198
G1A56.403Z26.229
G1A58.124Z26.569
G1A59.448Z26.793
G1A60.772Z26.922
G1A62.626Z27.016
G1A65.274Z27.152
G1A67.922Z27.239
G1A69.246Z27.228
G1A70.835Z27.142
G1A71.629Z27.094
G1A73.218Z27.091
G1A73.880Z27.037
G1A74.675Z26.990
G1A76.131Z26.889
G1A77.985Z26.820
G1A79.706Z26.710
G1A83.281Z26.323
G1A84.472Z26.237
G1A85.531Z26.161
G1A86.988Z26.008
G1A87.385Z25.957
G1A88.179Z26.035
G1A88.577Z26.048
G1A88.841Z26.073
G1A89.503Z26.088
G1A89.901Z26.117
G1A91.092Z26.118
G1A91.490Z26.076
G1A92.019Z26.075
G1A92.284Z26.036
G1A92.814Z26.018
G1A92.946Z25.992
G1A93.211Z25.974
G1A93.608Z25.928
G1A95.329Z25.616
G1A95.594Z25.550
G1A97.183Z25.804
G1A99.169Z26.074
G1A100.360Z26.193
G1A101.420Z26.252
G1A102.611Z26.307
G1A106.583Z26.313
G1A108.569Z26.309
G1A109.893Z26.341
G1A112.144Z26.325
G1A113.468Z26.263
G1A114.792Z26.208
G1A116.249Z26.223
G1A117.175Z26.270
G1A118.897Z26.256
G1A121.147Z26.110
G1A122.207Z26.012
G1A123.398Z25.839
G1A124.325Z25.617
G1A124.590Z25.546
G1A126.179Z25.535
G1A126.841Z25.506
G1A128.165Z25.446
G1A128.297Z25.456
G1A128.562Z25.624
G1A129.489Z25.921
G1A130.151Z26.049
G1A131.210Z26.151
G1A132.534Z26.215
G1A137.830Z26.282
G1A141.008Z26.235
G1A143.259Z26.139
G1A146.039Z25.941
G1A147.098Z25.848
G1A148.025Z25.707
G1A148.687Z25.518
G1A149.349Z25.289
G1A150.276Z25.075
G1A151.732Z24.920
G1A219.257
G1A220.581Z24.945
G1A221.905Z25.059
G1A224.156Z25.171
G1A226.407Z25.220
G1A228.525Z25.228
G1A231.041Z25.367
G1A232.630Z25.553
G1A234.748Z25.879
G1A236.999Z26.318
G1A241.765Z27.423
G1A245.737Z28.192
G1A248.518Z28.678
G1A251.298Z29.037
G1A253.681Z29.266
G1A256.594Z29.481
G1A259.375Z29.593
G1A261.361Z29.622
G1A264.009Z29.603
G1A268.246Z29.462
G1A270.761Z29.508
G1A272.880Z29.619
G1A276.587Z29.848
G1A279.632Z29.976
G1A281.618Z30.014
G1A284.663Z30.006
G1A286.914Z29.915
G1A289.695Z29.708
G1A293.402Z29.350
G1A296.315Z29.023
G1A299.890Z28.532
G1A302.935Z28.017
G1A304.921Z27.606
G1A308.099Z26.844
G1A311.144Z26.226
G1A312.335Z26.027
G1A314.057Z26.040
G1A316.175Z25.999
G1A318.691Z25.868
G1A319.750Z25.795
G1A321.206Z25.639
G1A322.398Z25.478
G1A323.457Z25.391
G1A324.252Z25.283
G1A324.914Z25.146
G1A325.576Z24.967
G1A326.238Z24.920
G1A360.000
G1X51.200
G1A324.384
G1A323.457Z25.195
G1A322.133Z25.790
G1A321.604Z25.972
G1A320.809Z26.144
G1A320.015Z26.248
G1A318.691Z26.377
G1A316.705Z26.468
G1A314.189Z26.529
G1A312.600Z26.770
G1A311.011Z27.124
G1A306.113Z28.448
G1A304.259Z28.877
G1A301.876Z29.343
G1A299.360Z29.774
G1A296.712Z30.119
G1A294.064Z30.379
G1A290.622Z30.601
G1A287.312Z30.741
G1A282.677Z30.812
G1A277.779Z30.805
G1A274.071Z30.704
G1A269.702Z30.576
G1A266.657Z30.542
G1A260.434Z30.533
G1A257.124Z30.435
G1A254.079Z30.285
G1A250.636Z30.014
G1A248.121Z29.738
G1A246.002Z29.438
G1A243.751Z29.012
G1A240.441Z28.280
G1A238.323Z27.737
G1A233.556Z26.421
G1A232.100Z26.086
G1A230.246Z25.746
G1A229.584Z25.666
G1A226.407Z25.400
G1A225.083Z25.231
G1A224.421Z25.089
G1A223.891Z24.920
G1A152.924
G1A150.938Z25.400
G1A149.879Z25.735
G1A148.952Z25.926
G1A147.893Z26.082
G1A146.171Z26.244
G1A142.464Z26.445
G1A138.624Z26.581
G1A134.917Z26.648
G1A132.137Z26.643
G1A129.886Z26.575
G1A128.694Z26.562
G1A128.430Z26.567
G1A126.576Z26.821
G1A123.663Z27.297
G1A120.088Z27.704
G1A118.102Z27.907
G1A116.249Z28.088
G1A113.865Z28.234
G1A112.409Z28.262
G1A109.629Z28.255
G1A108.834Z28.228
G1A106.451Z28.212
G1A104.730Z28.195
G1A102.744Z28.129
G1A101.155Z27.996
G1A100.493Z27.913
G1A98.639Z27.900
G1A96.256Z27.769
G1A95.064Z27.651
G1A94.800Z27.612
G1A93.873Z27.672
G1A90.828Z27.665
G1A88.709Z27.554
G1A87.650Z27.449
G1A86.591Z27.300
G1A85.929Z27.295
G1A84.737Z27.422
G1A84.075Z27.545
G1A83.016Z27.865
G1A81.824Z28.107
G1A80.633Z28.276
G1A78.382Z28.482
G1A77.455Z28.592
G1A75.866Z28.684
G1A72.424Z28.688
G1A70.835Z28.651
G1A69.378Z28.686
G1A66.333Z28.671
G1A64.347Z28.583
G1A62.891Z28.456
G1A60.375Z28.169
G1A58.389Z27.861
G1A57.197Z27.609
G1A55.609Z27.249
G1A55.476Z27.236
G1A53.358Z27.453
G1A51.637Z27.495
G1A48.591Z27.483
G1A46.605Z27.432
G1A41.442Z27.265
G1A35.881Z26.921
G1A34.822Z26.784
G1A33.630Z26.551
G1A31.909Z26.126
G1A30.452Z25.697
G1A28.334Z24.974
G1A28.069Z24.920
G1A0.000
G1X48.660
G1A23.038
G1A27.672Z25.477
G1A28.996Z25.723
G1A31.512Z26.246
G1A33.498Z26.581
G1A35.484Z26.871
G1A37.602Z27.080
G1A39.853Z27.267
G1A43.693Z27.529
G1A46.473Z27.625
G1A50.048Z27.679
G1A52.166Z27.699
G1A53.093Z27.785
G1A54.417Z27.989
G1A55.344Z28.092
G1A57.595Z28.537
G1A58.786Z28.761
G1A59.448Z28.856
G1A62.096Z29.078
G1A64.082Z29.178
G1A68.849Z29.341
G1A70.173Z29.378
G1A71.497Z29.493
G1A73.218Z29.555
G1A76.263Z29.564
G1A80.765Z29.522
G1A82.221Z29.440
G1A85.929Z29.080
G1A86.988Z28.930
G1A87.385Z28.858
G1A90.298Z28.592
G1A92.681Z28.577
G1A93.476Z28.569
G1A95.197Z28.836
G1A96.786Z29.024
G1A98.904Z29.196
G1A100.890Z29.305
G1A103.008Z29.354
G1A105.127Z29.394
G1A106.848Z29.438
G1A108.967Z29.427
G1A110.688Z29.356
G1A113.336Z29.159
G1A116.513Z29.031
G1A118.632Z28.933
G1A120.353Z28.798
G1A122.736Z28.590
G1A124.855Z28.428
G1A126.841Z28.200
G1A127.768Z28.045
G1A128.297Z27.892
G1A128.562Z27.779
G1A130.945Z27.666
G1A131.872Z27.585
G1A133.064Z27.432
G1A135.050Z27.295
G1A138.227Z26.952
G1A140.213Z26.749
G1A143.788Z26.504
G1A145.509Z26.367
G1A148.290Z26.130
G1A149.481Z25.949
G1A150.541Z25.720
G1A152.791Z25.050
G1A154.645Z24.920
G1A221.640
G1A222.964Z25.047
G1A223.891Z25.353
G1A224.686Z25.537
G1A226.407Z25.798
G1A228.260Z26.029
G1A229.717Z26.320
G1A231.703Z26.791
G1A234.748Z27.641
G1A238.191Z28.613
G1A239.912Z29.055
G1A241.898Z29.489
G1A244.281Z29.915
G1A246.135Z30.166
G1A248.385Z30.386
G1A251.431Z30.618
G1A254.741Z30.795
G1A259.110Z30.909
G1A263.347Z30.963
G1A273.542Z30.993
G1A279.367Z30.974
G1A287.576Z30.961
G1A292.078Z30.853
G1A295.123Z30.696
G1A298.168Z30.470
G1A300.552Z30.217
G1A302.273Z29.971
G1A303.862Z29.681
G1A306.113Z29.172
G1A308.761Z28.480
G1A312.203Z27.583
G1A313.659Z27.280
G1A315.645Z26.966
G1A318.029Z26.666
G1A318.956Z26.604
G1A320.809Z26.534
G1A321.736Z26.440
G1A322.398Z26.318
G1A323.192Z26.075
G1A325.708Z25.116
G1A326.767Z24.920
G1A360.000
G1X46.120
G1A333.122
G1A330.077Z24.991
G1A327.562Z25.341
G1A326.635Z25.545
G1A323.325Z26.418
G1A322.663Z26.534
G1A321.868Z26.591
G1A320.544Z26.694
G1A317.234Z27.111
G1A314.983Z27.439
G1A313.262Z27.745
G1A311.276Z28.168
G1A309.687Z28.558
G1A306.377Z29.451
G1A305.053Z29.749
G1A302.935Z30.101
G1A300.816Z30.365
G1A298.301Z30.602
G1A295.123Z30.821
G1A291.946Z30.935
G1A288.371Z30.974
G1A280.691Z30.985
G1A277.117Z31.000
G1A262.685Z30.988
G1A256.992Z30.952
G1A252.755Z30.841
G1A249.842Z30.693
G1A246.929Z30.470
G1A244.413Z30.225
G1A242.163Z29.905
G1A240.044Z29.496
G1A238.058Z29.035
G1A234.483Z28.097
G1A231.438Z27.296
G1A229.055Z26.722
G1A227.201Z26.336
G1A224.288Z25.839
G1A222.832Z25.524
G1A221.905Z25.277
G1A221.243Z25.070
G1A219.787Z24.920
G1A155.837
G1A153.453Z25.189
G1A148.819Z25.932
G1A146.701Z26.219
G1A142.994Z26.652
G1A140.611Z26.944
G1A139.154Z27.149
G1A137.300Z27.410
G1A136.109Z27.543
G1A134.785Z27.741
G1A133.196Z27.911
G1A131.078Z28.135
G1A127.503Z28.643
G1A124.987Z28.929
G1A123.133Z29.086
G1A120.883Z29.309
G1A117.440Z29.536
G1A115.719Z29.614
G1A114.660Z29.691
G1A112.541Z29.763
G1A108.967Z29.795
G1A104.465Z29.761
G1A100.096Z29.662
G1A98.507Z29.620
G1A96.918Z29.513
G1A94.138Z29.269
G1A93.343Z29.355
G1A92.152Z29.437
G1A91.622Z29.441
G1A91.092Z29.476
G1A89.901Z29.463
G1A89.503Z29.437
G1A88.841Z29.428
G1A87.120Z29.304
G1A85.134Z29.506
G1A84.207Z29.543
G1A82.883Z29.574
G1A81.824Z29.600
G1A79.706Z29.607
G1A78.779Z29.666
G1A76.661Z29.704
G1A66.730Z29.695
G1A65.539Z29.651
G1A64.082Z29.561
G1A62.361Z29.469
G1A61.302Z29.366
G1A59.978Z29.326
G1A58.522Z29.194
G1A55.873Z28.823
G1A53.755Z28.402
G1A52.034Z28.106
G1A49.651Z27.784
G1A49.121Z27.738
G1A47.135Z27.690
G1A45.017Z27.666
G1A42.766Z27.545
G1A40.250Z27.313
G1A37.337Z27.037
G1A34.292Z26.777
G1A31.909Z26.498
G1A30.320Z26.233
G1A27.407Z25.648
G1A24.494Z25.215
G1A22.508Z24.966
G1A21.581Z24.920
G1A0.000
G1X43.580
G1A15.756
G1A22.243Z25.304
G1A27.672Z25.711
G1A28.069Z25.747
G1A30.717Z26.271
G1A32.968Z26.636
G1A36.146Z27.039
G1A37.867Z27.210
G1A39.985Z27.352
G1A41.177Z27.473
G1A45.149Z27.688
G1A47.929Z27.769
G1A49.253Z27.895
G1A52.299Z28.276
G1A53.623Z28.488
G1A55.609Z28.886
G1A57.727Z29.236
G1A58.786Z29.345
G1A59.316Z29.373
G1A60.243Z29.500
G1A63.023Z29.648
G1A64.215Z29.703
G1A68.187Z29.714
G1A72.953Z29.801
G1A75.999Z29.804
G1A78.117Z29.887
G1A82.089Z29.902
G1A82.619Z29.991
G1A83.016Z30.106
G1A83.810Z30.437
G1A84.472Z30.635
G1A85.399Z30.791
G1A86.723Z30.913
G1A88.444Z30.982
G1A92.681Z30.996
G1A94.535Z30.973
G1A95.726Z30.907
G1A97.050Z30.737
G1A97.977Z30.549
G1A98.507Z30.376
G1A99.434Z30.390
G1A100.228Z30.418
G1A103.008Z30.406
G1A105.127Z30.284
G1A107.245Z30.162
G1A108.305Z30.114
G1A110.688Z30.099
G1A113.071Z30.023
G1A118.235Z29.735
G1A119.956Z29.624
G1A122.339Z29.466
G1A124.987Z29.189
G1A127.370Z28.900
G1A128.562Z28.744
G1A132.004Z28.268
G1A135.712Z27.816
G1A138.095Z27.450
G1A140.213Z27.332
G1A142.861Z27.074
G1A144.450Z26.875
G1A146.171Z26.653
G1A148.687Z26.205
G1A150.805Z25.810
G1A153.321Z25.396
G1A153.851Z25.325
G1A158.617Z25.198
G1A161.133Z25.059
G1A163.251Z24.920
G1A217.006
G1A222.567Z25.869
G1A228.658Z26.976
G1A232.894Z27.848
G1A239.382Z29.383
G1A241.236Z29.757
G1A242.825Z30.026
G1A244.678Z30.266
G1A247.856Z30.561
G1A250.504Z30.740
G1A253.152Z30.865
G1A257.389Z30.965
G1A265.862Z31.000
G1A281.089Z30.990
G1A283.604Z30.974
G1A290.224Z30.960
G1A292.872Z30.908
G1A295.653Z30.777
G1A298.036Z30.595
G1A300.419Z30.383
G1A302.405Z30.140
G1A304.259Z29.854
G1A306.113Z29.506
G1A311.806Z28.255
G1A314.454Z27.744
G1A316.440Z27.422
G1A319.220Z27.042
G1A322.530Z26.658
G1A323.854Z26.481
G1A325.708Z26.152
G1A326.900Z25.930
G1A329.415Z25.577
G1A333.255Z25.046
G1A334.049Z24.920
G1A360.000
G1X41.040
G1A341.067
G1A335.109Z25.054
G1A333.520Z25.265
G1A331.401Z25.607
G1A329.680Z25.797
G1A327.562Z26.045
G1A324.649Z26.423
G1A319.618Z27.010
G1A317.234Z27.331
G1A314.586Z27.758
G1A311.673Z28.302
G1A306.113Z29.352
G1A303.200Z29.830
G1A300.816Z30.145
G1A298.036Z30.436
G1A294.594Z30.697
G1A292.078Z30.836
G1A289.298Z30.921
G1A283.737Z30.972
G1A279.103Z30.986
G1A273.409Z31.000
G1A263.347Z30.988
G1A258.845Z30.950
G1A254.211Z30.820
G1A251.298Z30.674
G1A248.253Z30.440
G1A245.870Z30.206
G1A243.222Z29.880
G1A240.971Z29.517
G1A238.455Z29.034
G1A231.968Z27.655
G1A228.790Z27.053
G1A226.142Z26.615
G1A218.330Z25.376
G1A217.801Z25.254
G1A217.536Z25.182
G1A216.477Z25.064
G1A215.153Z24.920
G1A169.342
G1A165.634Z24.968
G1A164.046Z25.128
G1A161.662Z25.263
G1A154.248Z25.532
G1A153.189Z25.595
G1A151.600Z25.775
G1A149.879Z26.041
G1A147.628Z26.482
G1A145.377Z26.934
G1A143.656Z27.181
G1A141.670Z27.364
G1A139.287Z27.505
G1A136.771Z27.766
G1A134.520Z28.043
G1A132.931Z28.189
G1A131.740Z28.404
G1A130.151Z28.729
G1A128.959Z28.906
G1A125.649Z29.295
G1A122.339Z29.643
G1A116.381Z30.211
G1A110.158Z30.649
G1A108.834Z30.692
G1A102.611Z30.695
G1A101.420Z30.857
G1A100.228Z30.958
G1A98.772Z30.996
G1A83.413Z30.986
G1A81.824Z30.908
G1A80.103Z30.749
G1A79.309Z30.635
G1A78.382Z30.474
G1A77.587Z30.460
G1A76.396Z30.434
G1A73.880Z30.328
G1A71.364Z30.178
G1A70.173Z30.070
G1A69.246Z29.964
G1A68.452Z29.936
G1A66.995Z29.875
G1A64.877Z29.703
G1A63.950Z29.681
G1A60.772Z29.511
G1A59.581Z29.367
G1A57.065Z28.949
G1A54.020Z28.416
G1A51.901Z28.145
G1A48.194Z27.774
G1A47.665Z27.747
G1A43.560Z27.611
G1A41.177Z27.476
G1A39.720Z27.332
G1A38.396Z27.241
G1A36.146Z26.991
G1A33.365Z26.520
G1A32.438Z26.363
G1A30.188Z26.082
G1A25.024Z25.824
G1A14.167Z24.944
G1A12.181Z24.920
G1A0.000
G1X38.500
G1A10.725
G1A17.477Z25.325
G1A20.390Z25.557
G1A24.229Z25.951
G1A25.156Z26.000
G1A26.745Z26.012
G1A28.996Z26.114
G1A30.717Z26.180
G1A32.306Z26.324
G1A36.013Z26.774
G1A38.926Z27.136
G1A41.177Z27.302
G1A44.355Z27.528
G1A47.135Z27.624
G1A49.386Z27.686
G1A51.769Z27.923
G1A56.138Z28.431
G1A57.860Z28.692
G1A61.037Z29.231
G1A63.420Z29.588
G1A65.539Z29.843
G1A66.730Z29.929
G1A67.392Z29.957
G1A69.511Z30.166
G1A72.026Z30.329
G1A75.204Z30.455
G1A77.323Z30.465
G1A78.117Z30.543
G1A79.309Z30.722
G1A80.103Z30.790
G1A82.221Z30.950
G1A83.678Z30.995
G1A99.698Z30.989
G1A101.022Z30.948
G1A103.406Z30.760
G1A103.935Z30.695
G1A111.350Z30.684
G1A113.203Z30.589
G1A116.911Z30.305
G1A119.823Z30.003
G1A124.193Z29.450
G1A128.430Z28.883
G1A129.886Z28.599
G1A131.740Z28.227
G1A133.064Z28.022
G1A138.095Z27.509
G1A141.273Z27.302
G1A143.523Z27.067
G1A145.112Z26.828
G1A147.495Z26.403
G1A149.349Z26.125
G1A151.203Z25.904
G1A154.248Z25.663
G1A159.147Z25.408
G1A163.384Z25.226
G1A165.634Z25.059
G1A169.871Z24.920
G1A213.961
G1A215.020Z25.039
G1A216.874Z25.256
G1A218.330Z25.447
G1A219.654Z25.668
G1A229.055Z27.061
G1A233.821Z27.880
G1A238.058Z28.654
G1A242.163Z29.327
G1A245.340Z29.764
G1A247.988Z30.070
G1A251.828Z30.411
G1A254.873Z30.610
G1A258.183Z30.754
G1A261.890Z30.844
G1A268.643Z30.932
G1A273.674Z30.928
G1A276.984Z30.876
G1A280.294Z30.780
G1A285.325Z30.764
G1A288.768Z30.688
G1A291.681Z30.552
G1A295.388Z30.295
G1A298.566Z30.012
G1A301.611Z29.671
G1A304.921Z29.225
G1A309.290Z28.542
G1A314.321Z27.718
G1A319.220Z26.964
G1A321.736Z26.653
G1A325.973Z26.195
G1A331.401Z25.658
G1A332.460Z25.501
G1A332.725Z25.461
G1A334.049Z25.400
G1A335.373Z25.242
G1A338.683Z24.920
G1A360.000
G1X35.960
G1A341.067
G1A336.035Z25.126
G1A334.182Z25.351
G1A332.858Z25.455
G1A331.269Z25.476
G1A330.872Z25.514
G1A330.077Z25.623
G1A325.443Z26.026
G1A322.795Z26.367
G1A320.147Z26.686
G1A314.057Z27.511
G1A310.747Z27.965
G1A306.113Z28.599
G1A301.081Z29.196
G1A297.109Z29.578
G1A292.210Z29.951
G1A289.298Z30.133
G1A284.796Z30.313
G1A274.204Z30.571
G1A271.291Z30.595
G1A267.716Z30.577
G1A260.566Z30.432
G1A257.124Z30.297
G1A254.079Z30.109
G1A250.769Z29.843
G1A247.988Z29.552
G1A242.030Z28.806
G1A238.058Z28.248
G1A233.424Z27.530
G1A228.393Z26.800
G1A222.700Z26.103
G1A220.051Z25.718
G1A218.595Z25.497
G1A217.801Z25.315
G1A217.536Z25.252
G1A216.212Z25.110
G1A214.888Z25.006
G1A213.564Z24.920
G1A168.812
G1A164.575Z25.006
G1A162.589Z25.161
G1A161.000Z25.276
G1A158.352Z25.473
G1A155.307Z25.655
G1A153.321Z25.794
G1A149.349Z26.131
G1A145.112Z26.427
G1A141.537Z26.842
G1A138.624Z27.011
G1A133.593Z27.576
G1A132.402Z27.658
G1A122.736Z29.300
G1A120.750Z29.644
G1A117.308Z30.136
G1A115.189Z30.366
G1A112.806Z30.555
G1A110.158Z30.680
G1A106.186Z30.695
G1A102.082Z30.704
G1A99.301Z30.888
G1A97.448Z30.968
G1A95.197Z30.996
G1A86.591Z30.985
G1A85.267Z30.932
G1A83.545Z30.815
G1A82.751Z30.764
G1A81.957Z30.691
G1A80.897Z30.555
G1A79.706Z30.469
G1A75.999Z30.444
G1A73.218Z30.333
G1A70.438Z30.143
G1A68.187Z29.928
G1A67.260Z29.850
G1A65.274Z29.560
G1A59.316Z28.518
G1A55.344Z28.005
G1A51.239Z27.575
G1A49.783Z27.464
G1A47.135Z27.361
G1A45.281Z27.212
G1A44.752Z27.164
G1A41.839Z27.054
G1A39.191Z26.845
G1A33.895Z26.376
G1A31.379Z26.203
G1A29.526Z26.122
G1A26.348Z26.002
G1A24.362Z25.988
G1A22.773Z25.869
G1A17.080Z25.282
G1A15.756Z25.140
G1A11.387Z24.920
G1A0.000
G1X33.420
G1A12.578
G1A15.094Z24.995
G1A20.522Z25.498
G1A24.362Z25.861
G1A26.480Z25.974
G1A28.996Z26.002
G1A29.923Z26.017
G1A33.233Z26.157
G1A38.264Z26.456
G1A41.177Z26.644
G1A45.546Z26.831
G1A47.135Z26.866
G1A50.577Z27.177
G1A57.595Z27.833
G1A59.713Z28.030
G1A62.096Z28.312
G1A66.466Z29.014
G1A69.908Z29.450
G1A72.424Z29.684
G1A75.072Z29.866
G1A75.866Z29.926
G1A77.455Z30.124
G1A78.779Z30.227
G1A80.500Z30.281
G1A83.678Z30.272
G1A85.002Z30.192
G1A86.061Z30.093
G1A87.650Z29.867
G1A88.974Z29.619
G1A90.033Z29.407
G1A90.165Z29.401
G1A90.828Z29.624
G1A91.622Z29.816
G1A92.549Z30.007
G1A93.873Z30.203
G1A95.064Z30.303
G1A96.124Z30.338
G1A98.639Z30.343
G1A99.698Z30.462
G1A100.890Z30.532
G1A103.008Z30.546
G1A105.656Z30.533
G1A108.702Z30.414
G1A110.423Z30.305
G1A112.939Z30.088
G1A115.719Z29.783
G1A117.837Z29.523
G1A122.207Z28.853
G1A126.576Z28.291
G1A133.858Z27.351
G1A134.917Z27.234
G1A139.287Z26.836
G1A141.935Z26.618
G1A145.377Z26.437
G1A146.966Z26.337
G1A148.157Z26.206
G1A149.614Z26.119
G1A154.248Z25.613
G1A157.558Z25.364
G1A160.338Z25.058
G1A164.840Z24.920
G1A214.226
G1A216.477Z24.983
G1A217.271Z24.998
G1A217.536Z25.062
G1A217.933Z25.228
G1A218.463Z25.368
G1A219.522Z25.550
G1A221.640Z25.801
G1A225.745Z26.229
G1A229.717Z26.612
G1A233.027Z27.013
G1A236.337Z27.475
G1A239.117Z27.863
G1A243.089Z28.359
G1A249.047Z29.020
G1A251.695Z29.259
G1A257.654Z29.685
G1A261.096Z29.859
G1A264.538Z29.959
G1A267.716Z29.977
G1A271.423Z29.958
G1A275.793Z29.832
G1A280.824Z29.747
G1A284.001Z29.621
G1A292.343Z29.189
G1A295.123Z29.010
G1A299.360Z28.653
G1A304.259Z28.140
G1A311.144Z27.355
G1A318.161Z26.612
G1A323.854Z25.993
G1A327.032Z25.595
G1A328.753Z25.480
G1A330.342Z25.401
G1A332.196Z25.298
G1A335.506Z24.964
G1A341.464Z24.920
G1A360.000
G1X30.880
G1A334.976
G1A331.136Z24.929
G1A327.694Z25.146
G1A326.900Z25.182
G1A325.973Z25.238
G1A325.046Z25.371
G1A323.987Z25.500
G1A322.398Z25.664
G1A320.544Z25.863
G1A308.761Z26.779
G1A303.332Z27.281
G1A297.242Z27.881
G1A294.726Z28.075
G1A290.622Z28.298
G1A282.148Z28.730
G1A278.970Z28.839
G1A273.939Z28.944
G1A269.967Z29.063
G1A267.451Z29.089
G1A264.009Z29.076
G1A260.037Z28.916
G1A254.873Z28.633
G1A251.431Z28.407
G1A248.518Z28.166
G1A243.089Z27.629
G1A239.117Z27.169
G1A232.497Z26.364
G1A229.982Z26.122
G1A223.626Z25.610
G1A222.038Z25.429
G1A221.508Z25.312
G1A221.111Z25.199
G1A220.184Z25.097
G1A219.654Z25.069
G1A216.609Z24.920
G1A160.338
G1A156.631Z25.085
G1A152.262Z25.520
G1A149.217Z25.909
G1A147.760Z26.104
G1A146.833Z26.193
G1A145.642Z26.339
G1A143.921Z26.440
G1A140.743Z26.595
G1A134.785Z26.972
G1A132.137Z27.261
G1A126.576Z28.008
G1A116.116Z29.204
G1A114.130Z29.390
G1A111.482Z29.563
G1A108.437Z29.687
G1A105.921Z29.723
G1A102.479Z29.708
G1A98.904Z29.604
G1A94.932Z29.404
G1A90.165Z29.087
G1A86.193Z29.057
G1A81.692Z29.149
G1A78.911Z29.136
G1A75.469Z29.047
G1A72.291Z28.907
G1A68.849Z28.656
G1A65.936Z28.387
G1A60.905Z27.911
G1A56.933Z27.535
G1A52.431Z27.032
G1A48.989Z26.737
G1A45.943Z26.538
G1A43.560Z26.457
G1A38.794Z26.171
G1A34.160Z25.928
G1A30.982Z25.755
G1A28.599Z25.678
G1A26.216Z25.526
G1A20.787Z25.102
G1A16.285Z24.920
G1A0.000
G1X28.340
G1A26.083
G1A28.731Z24.927
G1A32.968Z25.306
G1A35.748Z25.552
G1A39.456Z25.777
G1A41.707Z25.911
G1A45.414Z26.185
G1A47.532Z26.277
G1A49.518Z26.320
G1A51.239Z26.470
G1A57.330Z27.125
G1A61.832Z27.525
G1A67.525Z27.983
G1A72.821Z28.400
G1A77.587Z28.649
G1A79.706Z28.755
G1A81.295Z28.783
G1A85.134Z28.774
G1A86.326Z28.767
G1A91.490Z28.882
G1A97.977Z29.131
G1A101.552Z29.199
G1A106.054Z29.193
G1A108.967Z29.108
G1A112.012Z28.944
G1A115.587Z28.662
G1A119.691Z28.304
G1A123.133Z27.940
G1A130.283Z27.022
G1A132.402Z26.808
G1A133.064Z26.706
G1A133.328Z26.642
G1A134.917Z26.541
G1A136.506Z26.452
G1A138.227Z26.380
G1A140.346Z26.312
G1A142.067Z26.193
G1A143.921Z26.034
G1A145.774Z25.768
G1A147.893Z25.408
G1A149.084Z25.297
G1A152.527Z25.016
G1A159.279Z24.920
G1A222.832
G1A227.069Z25.160
G1A228.525Z25.236
G1A229.982Z25.393
G1A232.762Z25.656
G1A243.089Z26.655
G1A248.385Z27.106
G1A253.417Z27.453
G1A260.964Z27.828
G1A262.950Z27.894
G1A267.716Z27.901
G1A270.497Z27.834
G1A274.998Z27.682
G1A281.618Z27.509
G1A285.061Z27.372
G1A294.329Z26.893
G1A297.639Z26.680
G1A307.172Z25.916
G1A311.144Z25.637
G1A314.983Z25.398
G1A317.102Z25.225
G1A318.426Z25.188
G1A320.412Z25.028
G1A325.576Z24.920
G1A360.000
G1X25.800
G1A306.775
G1A300.684Z25.071
G1A293.005Z25.506
G1A288.238Z25.702
G1A285.590Z25.828
G1A280.691Z26.073
G1A276.057Z26.235
G1A271.953Z26.350
G1A267.848Z26.472
G1A265.068Z26.490
G1A262.420Z26.432
G1A256.859Z26.188
G1A253.814Z26.076
G1A249.577Z25.859
G1A245.605Z25.600
G1A234.748Z24.920
G1A147.231
G1A140.875Z25.179
G1A138.492Z25.351
G1A136.109Z25.434
G1A134.917Z25.486
G1A132.402Z25.716
G1A130.680Z25.918
G1A129.621Z25.997
G1A129.356Z26.009
G1A127.106Z26.494
G1A125.782Z26.714
G1A123.398Z27.019
G1A119.956Z27.374
G1A113.203Z27.978
G1A109.629Z28.222
G1A106.848Z28.340
G1A104.597Z28.390
G1A101.552Z28.392
G1A98.904Z28.322
G1A96.653Z28.262
G1A94.005Z28.135
G1A91.754Z28.036
G1A90.563Z27.966
G1A88.444Z27.837
G1A86.193Z27.745
G1A84.340Z27.739
G1A81.957Z27.782
G1A79.441Z27.767
G1A76.793Z27.683
G1A74.807Z27.584
G1A70.967Z27.315
G1A65.539Z27.007
G1A61.170Z26.761
G1A58.124Z26.517
G1A55.079Z26.223
G1A53.490Z25.954
G1A51.239Z25.935
G1A49.915Z25.898
G1A47.797Z25.754
G1A43.031Z25.290
G1A39.191Z25.005
G1A36.278Z24.920
G1A0.000
G1X23.260
G1A51.372
G1A53.225Z24.945
G1A54.020Z24.959
G1A55.079Z25.025
G1A55.873Z25.128
G1A57.727Z25.315
G1A60.375Z25.527
G1A67.657Z25.862
G1A70.570Z25.956
G1A72.556Z26.046
G1A76.925Z26.232
G1A81.427Z26.381
G1A88.047Z26.455
G1A91.092Z26.555
G1A99.036Z26.916
G1A101.817Z26.969
G1A106.054Z26.959
G1A108.834Z26.896
G1A112.541Z26.700
G1A118.235Z26.307
G1A120.750Z26.067
G1A122.339Z25.855
G1A124.325Z25.500
G1A126.444Z25.028
G1A127.106Z24.920
G1A360.000
G1X20.720
G1A114.792
G1A112.012Z24.941
G1A107.378Z25.062
G1A103.935Z25.086
G1A100.360Z25.075
G1A98.507Z24.992
G1A93.740Z24.920
G1A0.000
G1X18.180
G1A360.000
G1X15.640
G1A0.000
G1X13.100
G1A360.000
G1X10.560
G1A0.000
G1X8.020
G1A360.000
G1X5.480
G1A0.000
G1X2.940
G1A360.000
G1X1.270
G1A0.000
G1X0.000
G1A360.000
G0Z35.080
G0X102.000
G1Z22.380F254.0
G1A0.000F1016.0
G1X99.460
G1A360.000
G1X96.920
G1A0.000
G1X94.380
G1A360.000
G1X91.840
G1A0.000
G1X89.300
G1A360.000
G1X86.760
G1A0.000
G1X84.220
G1A360.000
G1X81.680
G1A0.000
G1X79.140
G1A360.000
G1X76.600
G1A0.000
G1X74.060
G1A360.000
G1X71.520
G1A278.573
G1A277.646Z22.412
G1A276.719Z22.630
G1A275.528Z22.824
G1A274.469Z22.951
G1A273.277Z23.029
G1A271.423Z23.074
G1A268.908Z23.063
G1A267.186Z23.002
G1A265.598Z22.835
G1A264.538Z22.681
G1A263.612Z22.465
G1A262.685Z22.380
G1A0.000
G1X68.980
G1A258.580
G1A259.904Z22.387
G1A260.566Z22.646
G1A261.361Z22.862
G1A262.023Z22.984
G1A262.685Z23.065
G1A263.479Z23.111
G1A278.043Z23.110
G1A278.970Z23.045
G1A279.500Z22.974
G1A280.162Z22.833
G1A280.824Z22.632
G1A281.883Z22.380
G1A360.000
G1X66.440
G1A283.075
G1A281.486Z22.648
G1A280.956Z22.846
G1A280.294Z23.006
G1A279.500Z23.089
G1A278.308Z23.118
G1A262.552Z23.108
G1A261.890Z23.051
G1A261.228Z22.933
G1A260.831Z22.830
G1A260.302Z22.630
G1A259.507Z22.380
G1A0.000
G1X63.900
G1A260.964
G1A262.023Z22.552
G1A262.155Z22.600
G1A262.288Z22.683
G1A262.420Z22.885
G1A262.685Z23.092
G1A262.950Z23.209
G1A263.347Z23.303
G1A264.538Z23.441
G1A265.333Z23.459
G1A267.584Z23.450
G1A268.378Z23.392
G1A269.702Z23.193
G1A270.099Z23.118
G1A274.469Z23.125
G1A274.733Z23.173
G1A274.998Z23.294
G1A275.528Z23.432
G1A276.322Z23.579
G1A276.852Z23.617
G1A279.367Z23.611
G1A280.029Z23.508
G1A280.691Z23.389
G1A280.956Z23.299
G1A281.221Z23.117
G1A281.883Z22.380
G1A360.000
G1X61.360
G1A337.359
G1A336.300Z22.445
G1A335.638Z22.548
G1A334.976Z22.636
G1A333.255Z22.745
G1A328.621Z23.141
G1A326.635Z23.383
G1A323.325Z23.879
G1A319.618Z24.538
G1A318.293Z24.750
G1A316.307Z24.980
G1A314.983Z25.066
G1A312.468Z25.064
G1A312.071Z25.038
G1A311.806Z25.003
G1A311.673Z22.380
G1A293.667
G1A293.534Z24.721
G1A293.402Z24.776
G1A292.608Z24.871
G1A291.548Z24.948
G1A290.489Z24.979
G1A287.444Z25.041
G1A286.782Z25.101
G1A285.723Z25.378
G1A284.399Z25.571
G1A283.207Z25.663
G1A280.956Z25.680
G1A279.500Z25.654
G1A277.249Z25.520
G1A272.747Z25.150
G1A271.423Z25.117
G1A270.099Z25.201
G1A266.789Z25.470
G1A264.936Z25.569
G1A262.023Z25.576
G1A260.302Z25.514
G1A257.918Z25.393
G1A255.403Z25.371
G1A252.622Z25.253
G1A251.033Z25.126
G1A250.107Z25.002
G1A249.577Z24.900
G1A249.445Z22.380
G1A228.128
G1A227.731Z22.631
G1A227.201Z22.863
G1A227.069Z22.962
G1A226.539Z23.185
G1A226.142Z23.275
G1A225.612Z23.353
G1A224.950Z23.374
G1A222.832Z23.360
G1A219.787Z23.196
G1A210.254Z22.483
G1A207.341Z22.380
G1A0.000
G1X58.820
G1A33.630
G1A33.762Z22.415
G1A34.027Z22.430
G1A34.424Z22.469
G1A34.557Z22.788
G1A34.822Z24.041
G1A35.219Z24.362
G1A35.484Z24.507
G1A35.881Z24.647
G1A36.543Z24.822
G1A36.675Z24.867
G1A37.072Z25.133
G1A38.264Z25.511
G1A39.191Z25.976
G1A39.456Z26.049
G1A40.515Z26.153
G1A41.442Z26.188
G1A42.501Z26.204
G1A44.884Z26.197
G1A46.473Z26.143
G1A47.400Z26.054
G1A47.929Z25.924
G1A48.591Z25.784
G1A48.724Z25.779
G1A48.989Z25.733
G1A49.121Z25.720
G1A49.386Z25.647
G1A49.518Z25.633
G1A49.783Z25.561
G1A49.915Z25.468
G1A50.180Z25.380
G1A50.975Z24.962
G1A51.637Z24.554
G1A51.769Z22.380
G1A133.593
G1A133.726Z24.243
G1A133.858Z24.426
G1A133.990Z24.506
G1A134.785Z24.742
G1A137.168Z25.138
G1A137.565Z25.152
G1A137.830Z25.198
G1A140.875Z25.203
G1A141.273Z25.143
G1A141.537Z25.141
G1A142.861Z24.957
G1A143.259Z24.892
G1A143.656Z24.828
G1A144.185Z24.686
G1A144.715Z24.512
G1A145.112Z24.300
G1A145.642Z23.912
G1A146.304Z23.389
G1A146.569Z23.061
G1A146.966Z22.482
G1A147.760Z22.380
G1A204.825
G1A205.752Z22.542
G1A207.738Z22.841
G1A210.651Z23.215
G1A215.020Z23.688
G1A217.403Z23.907
G1A218.860Z24.104
G1A219.919Z24.312
G1A222.170Z24.828
G1A223.229Z25.009
G1A224.288Z25.117
G1A226.407Z25.211
G1A233.027Z25.228
G1A235.013Z25.301
G1A237.793Z25.453
G1A239.779Z25.631
G1A243.487Z26.079
G1A248.915Z26.868
G1A251.033Z27.130
G1A252.622Z27.257
G1A254.476Z27.331
G1A256.727Z27.348
G1A259.242Z27.331
G1A261.890Z27.231
G1A264.406Z27.047
G1A267.716Z26.692
G1A268.510Z26.613
G1A270.497Z26.556
G1A274.204Z26.665
G1A277.381Z26.833
G1A278.970Z26.986
G1A280.956Z27.141
G1A283.207Z27.251
G1A285.325Z27.291
G1A289.298Z27.276
G1A291.946Z27.188
G1A294.991Z27.003
G1A297.109Z26.818
G1A299.757Z26.499
G1A302.008Z26.225
G1A306.510Z25.783
G1A308.893Z25.622
G1A311.541Z25.518
G1A317.499Z25.507
G1A322.928Z25.340
G1A323.722Z25.258
G1A324.516Z25.096
G1A327.297Z24.351
G1A329.150Z23.920
G1A331.269Z23.554
G1A333.122Z23.294
G1A335.373Z23.020
G1A336.697Z22.842
G1A338.286Z22.658
G1A338.683Z22.623
G1A339.345Z22.445
G1A340.140Z22.380
G1A360.000
G1X56.280
G1A339.081
G1A338.948Z22.431
G1A338.683Z22.512
G1A338.551Z22.596
G1A338.154Z22.671
G1A337.095Z22.816
G1A336.035Z22.988
G1A334.844Z23.168
G1A332.460Z23.502
G1A330.077Z23.920
G1A328.621Z24.317
G1A327.562Z24.732
G1A326.370Z25.088
G1A325.576Z25.250
G1A324.649Z25.351
G1A321.339Z25.469
G1A315.778Z25.625
G1A313.395Z25.644
G1A311.673Z25.632
G1A309.820Z25.889
G1A301.081Z27.204
G1A297.506Z27.620
G1A294.594Z27.869
G1A290.886Z28.110
G1A285.458Z28.375
G1A283.075Z28.417
G1A279.500Z28.400
G1A276.190Z28.296
G1A270.232Z28.080
G1A268.113Z28.050
G1A266.127Z28.113
G1A262.817Z28.264
G1A258.845Z28.263
G1A255.668Z28.146
G1A252.887Z27.990
G1A250.769Z27.821
G1A248.650Z27.587
G1A243.884Z26.921
G1A241.236Z26.460
G1A238.588Z25.974
G1A235.410Z25.497
G1A234.086Z25.365
G1A232.365Z25.270
G1A230.511Z25.220
G1A224.421Z25.211
G1A222.170Z25.122
G1A220.581Z24.990
G1A219.125Z24.779
G1A217.933Z24.557
G1A216.344Z24.200
G1A215.550Z23.946
G1A213.961Z23.796
G1A212.240Z23.649
G1A209.327Z23.292
G1A206.811Z22.882
G1A205.885Z22.700
G1A205.090Z22.509
G1A204.825Z22.421
G1A204.693Z22.392
G1A204.428Z22.380
G1A154.380
G1A153.851Z22.677
G1A152.924Z23.186
G1A151.865Z23.669
G1A151.070Z23.975
G1A150.276Z24.187
G1A148.952Z24.513
G1A148.555Z24.644
G1A147.231Z25.269
G1A146.701Z25.449
G1A146.039Z25.592
G1A144.980Z25.717
G1A143.921Z25.756
G1A142.861Z25.803
G1A138.492Z25.824
G1A136.506Z25.795
G1A133.593Z25.668
G1A132.534Z25.563
G1A132.004Z25.473
G1A131.078Z25.191
G1A130.680Z25.030
G1A130.548Z24.963
G1A130.283Z24.256
G1A129.621Z24.113
G1A129.356Z23.973
G1A129.092Z23.766
G1A128.959Z23.281
G1A128.032Z23.264
G1A125.384Z23.019
G1A124.458Z22.999
G1A123.266Z22.957
G1A120.353Z22.834
G1A118.499Z22.728
G1A117.705Z22.792
G1A115.322Z22.786
G1A115.057Z22.752
G1A114.660Z22.651
G1A114.527Z22.380
G1A112.806
G1A112.012Z22.400
G1A111.085Z22.568
G1A109.629Z22.787
G1A108.569Z23.046
G1A107.775Z23.309
G1A106.716Z23.833
G1A106.054Z24.064
G1A105.127Z24.270
G1A104.200Z24.404
G1A103.406Z24.490
G1A102.611Z24.510
G1A99.301Z24.495
G1A98.242Z24.423
G1A96.653Z24.301
G1A96.521Z24.194
G1A96.388Z22.380
G1A86.591
G1A86.458Z24.588
G1A86.061Z24.666
G1A85.002Z24.774
G1A83.016Z24.859
G1A79.706Z24.892
G1A77.587Z24.876
G1A76.396Z24.823
G1A74.410Z24.631
G1A72.159Z24.393
G1A70.570Z24.329
G1A69.378Z24.198
G1A68.452Z24.102
G1A66.201Z23.988
G1A62.891Z23.987
G1A62.626Z23.978
G1A62.494Z24.016
G1A62.096Z24.219
G1A61.832Z24.322
G1A61.699Z24.341
G1A61.434Z24.411
G1A61.302Z24.431
G1A61.170Z24.480
G1A60.375Z24.607
G1A60.243Z24.613
G1A59.978Z24.662
G1A59.448Z24.681
G1A57.462Z24.671
G1A57.065Z24.607
G1A56.800Z24.603
G1A56.403Z24.532
G1A56.271
G1A55.741Z24.435
G1A55.609Z24.530
G1A55.344Z24.977
G1A55.211Z25.111
G1A54.417Z25.463
G1A54.285Z25.515
G1A54.152Z25.817
G1A54.020Z25.912
G1A53.755Z25.992
G1A53.093Z26.106
G1A51.372Z26.264
G1A50.842Z26.323
G1A49.253Z26.529
G1A47.797Z26.600
G1A45.943Z26.636
G1A44.487Z26.695
G1A41.971Z26.690
G1A40.250Z26.626
G1A37.337Z26.432
G1A36.146Z26.327
G1A35.351Z26.196
G1A34.822Z26.033
G1A34.424Z25.855
G1A32.438Z25.325
G1A31.512Z25.066
G1A30.717Z24.799
G1A30.320Z24.592
G1A29.923Z24.304
G1A29.658Z24.033
G1A29.526Z23.837
G1A29.393Z23.104
G1A29.261Z22.656
G1A28.466Z22.380
G1A0.000
G1X53.740
G1A15.888
G1A18.271Z22.476
G1A19.463Z22.560
G1A20.655Z22.626
G1A21.846Z22.689
G1A23.303Z22.688
G1A23.567Z22.660
G1A23.832Z22.699
G1A25.289Z22.985
G1A25.951Z23.183
G1A27.010Z23.574
G1A27.142Z23.651
G1A28.069Z24.371
G1A28.731Z24.744
G1A29.790Z25.243
G1A30.850Z25.633
G1A31.909Z25.952
G1A34.557Z26.512
G1A36.278Z26.787
G1A37.072Z26.861
G1A39.058Z26.957
G1A46.473Z27.133
G1A48.591Z27.146
G1A50.975Z27.084
G1A52.696Z27.006
G1A53.490Z26.902
G1A54.285Z26.753
G1A55.079Z26.534
G1A55.476Z26.355
G1A56.138Z26.198
G1A56.403Z26.229
G1A58.124Z26.569
G1A59.448Z26.793
G1A60.772Z26.922
G1A62.626Z27.016
G1A65.274Z27.152
G1A67.922Z27.239
G1A69.246Z27.228
G1A70.835Z27.142
G1A71.629Z27.094
G1A73.218Z27.091
G1A73.880Z27.037
G1A74.675Z26.990
G1A76.131Z26.889
G1A77.985Z26.820
G1A79.706Z26.710
G1A83.281Z26.323
G1A84.472Z26.237
G1A85.531Z26.161
G1A86.988Z26.008
G1A87.385Z25.957
G1A88.179Z26.035
G1A88.577Z26.048
G1A88.841Z26.073
G1A89.503Z26.088
G1A89.901Z26.117
G1A91.092Z26.118
G1A91.490Z26.076
G1A92.019Z26.075
G1A92.284Z26.036
G1A92.814Z26.018
G1A92.946Z25.992
G1A93.211Z25.974
G1A93.608Z25.928
G1A95.329Z25.616
G1A95.594Z25.550
G1A97.183Z25.804
G1A99.169Z26.074
G1A100.360Z26.193
G1A101.420Z26.252
G1A102.611Z26.307
G1A106.583Z26.313
G1A108.569Z26.309
G1A109.893Z26.341
G1A112.144Z26.325
G1A113.468Z26.263
G1A114.792Z26.208
G1A116.249Z26.223
G1A117.175Z26.270
G1A118.897Z26.256
G1A121.147Z26.110
G1A122.207Z26.012
G1A123.398Z25.839
G1A124.325Z25.617
G1A124.590Z25.546
G1A126.179Z25.535
G1A126.841Z25.506
G1A128.165Z25.446
G1A128.297Z25.456
G1A128.562Z25.624
G1A129.489Z25.921
G1A130.151Z26.049
G1A131.210Z26.151
G1A132.534Z26.215
G1A137.830Z26.282
G1A141.008Z26.235
G1A143.259Z26.139
G1A146.039Z25.941
G1A147.098Z25.848
G1A148.025Z25.707
G1A148.687Z25.518
G1A149.349Z25.289
G1A150.276Z25.075
G1A151.732Z24.659
G1A152.791Z24.278
G1A153.983Z23.756
G1A154.910Z23.267
G1A155.439Z22.903
G1A155.837Z22.520
G1A156.234Z22.380
G1A207.606
G1A207.738Z22.614
G1A208.003Z22.742
G1A208.665Z22.951
G1A210.121Z23.250
G1A211.578Z23.463
G1A213.564Z23.701
G1A215.417Z23.839
G1A216.477Z24.177
G1A218.065Z24.557
G1A219.257Z24.774
G1A220.581Z24.945
G1A221.905Z25.059
G1A224.156Z25.171
G1A226.407Z25.220
G1A228.525Z25.228
G1A231.041Z25.367
G1A232.630Z25.553
G1A234.748Z25.879
G1A236.999Z26.318
G1A241.765Z27.423
G1A245.737Z28.192
G1A248.518Z28.678
G1A251.298Z29.037
G1A253.681Z29.266
G1A256.594Z29.481
G1A259.375Z29.593
G1A261.361Z29.622
G1A264.009Z29.603
G1A268.246Z29.462
G1A270.761Z29.508
G1A272.880Z29.619
G1A276.587Z29.848
G1A279.632Z29.976
G1A281.618Z30.014
G1A284.663Z30.006
G1A286.914Z29.915
G1A289.695Z29.708
G1A293.402Z29.350
G1A296.315Z29.023
G1A299.890Z28.532
G1A302.935Z28.017
G1A304.921Z27.606
G1A308.099Z26.844
G1A311.144Z26.226
G1A312.335Z26.027
G1A314.057Z26.040
G1A316.175Z25.999
G1A318.691Z25.868
G1A319.750Z25.795
G1A321.206Z25.639
G1A322.398Z25.478
G1A323.457Z25.391
G1A324.252Z25.283
G1A324.914Z25.146
G1A325.576Z24.967
G1A326.238Z24.721
G1A326.502Z24.580
G1A326.767Z24.461
G1A327.297Z24.118
G1A327.959Z23.919
G1A328.621Z23.794
G1A329.680Z23.613
G1A332.858Z23.039
G1A332.990Z23.011
G1A333.520Z22.816
G1A333.652Z22.782
G1A333.784Z22.380
G1A360.000
G1X51.200
G1A351.261
G1A348.878Z22.382
G1A345.436Z22.635
G1A342.788Z22.753
G1A340.405Z22.789
G1A337.757Z22.777
G1A336.168Z22.716
G1A335.638Z22.693
G1A333.387Z22.820
G1A332.196Z22.926
G1A330.077Z23.189
G1A329.150Z23.286
G1A328.224Z23.554
G1A327.429Z23.716
G1A326.370Z23.991
G1A324.914Z24.439
G1A324.384Z24.677
G1A323.457Z25.195
G1A322.133Z25.790
G1A321.604Z25.972
G1A320.809Z26.144
G1A320.015Z26.248
G1A318.691Z26.377
G1A316.705Z26.468
G1A314.189Z26.529
G1A312.600Z26.770
G1A311.011Z27.124
G1A306.113Z28.448
G1A304.259Z28.877
G1A301.876Z29.343
G1A299.360Z29.774
G1A296.712Z30.119
G1A294.064Z30.379
G1A290.622Z30.601
G1A287.312Z30.741
G1A282.677Z30.812
G1A277.779Z30.805
G1A274.071Z30.704
G1A269.702Z30.576
G1A266.657Z30.542
G1A260.434Z30.533
G1A257.124Z30.435
G1A254.079Z30.285
G1A250.636Z30.014
G1A248.121Z29.738
G1A246.002Z29.438
G1A243.751Z29.012
G1A240.441Z28.280
G1A238.323Z27.737
G1A233.556Z26.421
G1A232.100Z26.086
G1A230.246Z25.746
G1A229.584Z25.666
G1A226.407Z25.400
G1A225.083Z25.231
G1A224.421Z25.089
G1A223.891Z24.914
G1A223.097Z24.848
G1A222.435Z24.746
G1A221.508Z24.525
G1A219.389Z23.830
G1A218.330Z23.438
G1A217.006Z23.155
G1A215.815Z22.841
G1A215.417Z22.702
G1A212.769Z22.392
G1A211.313Z22.380
G1A164.443
G1A162.722Z22.457
G1A158.220Z23.294
G1A154.910Z23.861
G1A154.513Z24.009
G1A152.924Z24.671
G1A150.938Z25.400
G1A149.879Z25.735
G1A148.952Z25.926
G1A147.893Z26.082
G1A146.171Z26.244
G1A142.464Z26.445
G1A138.624Z26.581
G1A134.917Z26.648
G1A132.137Z26.643
G1A129.886Z26.575
G1A128.694Z26.562
G1A128.430Z26.567
G1A126.576Z26.821
G1A123.663Z27.297
G1A120.088Z27.704
G1A118.102Z27.907
G1A116.249Z28.088
G1A113.865Z28.234
G1A112.409Z28.262
G1A109.629Z28.255
G1A108.834Z28.228
G1A106.451Z28.212
G1A104.730Z28.195
G1A102.744Z28.129
G1A101.155Z27.996
G1A100.493Z27.913
G1A98.639Z27.900
G1A96.256Z27.769
G1A95.064Z27.651
G1A94.800Z27.612
G1A93.873Z27.672
G1A90.828Z27.665
G1A88.709Z27.554
G1A87.650Z27.449
G1A86.591Z27.300
G1A85.929Z27.295
G1A84.737Z27.422
G1A84.075Z27.545
G1A83.016Z27.865
G1A81.824Z28.107
G1A80.633Z28.276
G1A78.382Z28.482
G1A77.455Z28.592
G1A75.866Z28.684
G1A72.424Z28.688
G1A70.835Z28.651
G1A69.378Z28.686
G1A66.333Z28.671
G1A64.347Z28.583
G1A62.891Z28.456
G1A60.375Z28.169
G1A58.389Z27.861
G1A57.197Z27.609
G1A55.609Z27.249
G1A55.476Z27.236
G1A53.358Z27.453
G1A51.637Z27.495
G1A48.591Z27.483
G1A46.605Z27.432
G1A41.442Z27.265
G1A35.881Z26.921
G1A34.822Z26.784
G1A33.630Z26.551
G1A31.909Z26.126
G1A30.452Z25.697
G1A28.334Z24.974
G1A28.069Z24.906
G1A25.554Z24.584
G1A20.257Z23.837
G1A16.285Z23.188
G1A14.961Z23.025
G1A13.240Z22.867
G1A11.122Z22.739
G1A2.780Z22.380
G1A0.000
G1X49.484Z22.521
G1X48.660Z22.640
G1A7.150Z23.192
G1A11.254Z23.548
G1A17.609Z24.128
G1A18.669Z24.190
G1A23.038Z24.785
G1A27.672Z25.477
G1A28.996Z25.723
G1A31.512Z26.246
G1A33.498Z26.581
G1A35.484Z26.871
G1A37.602Z27.080
G1A39.853Z27.267
G1A43.693Z27.529
G1A46.473Z27.625
G1A50.048Z27.679
G1A52.166Z27.699
G1A53.093Z27.785
G1A54.417Z27.989
G1A55.344Z28.092
G1A57.595Z28.537
G1A58.786Z28.761
G1A59.448Z28.856
G1A62.096Z29.078
G1A64.082Z29.178
G1A68.849Z29.341
G1A70.173Z29.378
G1A71.497Z29.493
G1A73.218Z29.555
G1A76.263Z29.564
G1A80.765Z29.522
G1A82.221Z29.440
G1A85.929Z29.080
G1A86.988Z28.930
G1A87.385Z28.858
G1A90.298Z28.592
G1A92.681Z28.577
G1A93.476Z28.569
G1A95.197Z28.836
G1A96.786Z29.024
G1A98.904Z29.196
G1A100.890Z29.305
G1A103.008Z29.354
G1A105.127Z29.394
G1A106.848Z29.438
G1A108.967Z29.427
G1A110.688Z29.356
G1A113.336Z29.159
G1A116.513Z29.031
G1A118.632Z28.933
G1A120.353Z28.798
G1A122.736Z28.590
G1A124.855Z28.428
G1A126.841Z28.200
G1A127.768Z28.045
G1A128.297Z27.892
G1A128.562Z27.779
G1A130.945Z27.666
G1A131.872Z27.585
G1A133.064Z27.432
G1A135.050Z27.295
G1A138.227Z26.952
G1A140.213Z26.749
G1A143.788Z26.504
G1A145.509Z26.367
G1A148.290Z26.130
G1A149.481Z25.949
G1A150.541Z25.720
G1A152.791Z25.050
G1A154.645Z24.587
G1A158.352Z24.040
G1A162.457Z23.516
G1A166.032Z23.021
G1A167.753Z22.778
G1A168.150Z22.717
G1A170.666Z22.603
G1A173.711Z22.408
G1A178.610Z22.380
G1A196.352
G1A199.529Z22.451
G1A201.118Z22.495
G1A208.665Z22.496
G1A210.254Z22.730
G1A211.048Z22.815
G1A211.843Z22.991
G1A212.769Z23.135
G1A214.623Z23.360
G1A215.153Z23.411
G1A215.815Z23.570
G1A219.257Z24.151
G1A221.640Z24.655
G1A222.964Z25.047
G1A223.891Z25.353
G1A224.686Z25.537
G1A226.407Z25.798
G1A228.260Z26.029
G1A229.717Z26.320
G1A231.703Z26.791
G1A234.748Z27.641
G1A238.191Z28.613
G1A239.912Z29.055
G1A241.898Z29.489
G1A244.281Z29.915
G1A246.135Z30.166
G1A248.385Z30.386
G1A251.431Z30.618
G1A254.741Z30.795
G1A259.110Z30.909
G1A263.347Z30.963
G1A273.542Z30.993
G1A279.367Z30.974
G1A287.576Z30.961
G1A292.078Z30.853
G1A295.123Z30.696
G1A298.168Z30.470
G1A300.552Z30.217
G1A302.273Z29.971
G1A303.862Z29.681
G1A306.113Z29.172
G1A308.761Z28.480
G1A312.203Z27.583
G1A313.659Z27.280
G1A315.645Z26.966
G1A318.029Z26.666
G1A318.956Z26.604
G1A320.809Z26.534
G1A321.736Z26.440
G1A322.398Z26.318
G1A323.192Z26.075
G1A325.708Z25.116
G1A326.767Z24.776
G1A328.224Z24.408
G1A329.018Z24.237
G1A330.739Z24.030
G1A332.593Z23.779
G1A335.373Z23.488
G1A336.300Z23.352
G1A336.830Z23.235
G1A340.537Z23.201
G1A343.053Z23.139
G1A346.363Z22.951
G1A349.408Z22.722
G1A352.453Z22.512
G1A354.704Z22.425
G1A359.206Z22.588
G1A360.000Z22.640
G1X46.395Z22.982
G1X46.120Z23.018
G1A355.631Z22.805
G1A354.969Z22.788
G1A351.129Z22.974
G1A347.025Z23.178
G1A344.774Z23.230
G1A343.185Z23.236
G1A342.655Z23.335
G1A341.464Z23.444
G1A339.081Z23.624
G1A337.757Z23.755
G1A335.638Z24.119
G1A334.182Z24.334
G1A333.917Z24.362
G1A333.122Z24.534
G1A330.077Z24.991
G1A327.562Z25.341
G1A326.635Z25.545
G1A323.325Z26.418
G1A322.663Z26.534
G1A321.868Z26.591
G1A320.544Z26.694
G1A317.234Z27.111
G1A314.983Z27.439
G1A313.262Z27.745
G1A311.276Z28.168
G1A309.687Z28.558
G1A306.377Z29.451
G1A305.053Z29.749
G1A302.935Z30.101
G1A300.816Z30.365
G1A298.301Z30.602
G1A295.123Z30.821
G1A291.946Z30.935
G1A288.371Z30.974
G1A280.691Z30.985
G1A277.117Z31.000
G1A262.685Z30.988
G1A256.992Z30.952
G1A252.755Z30.841
G1A249.842Z30.693
G1A246.929Z30.470
G1A244.413Z30.225
G1A242.163Z29.905
G1A240.044Z29.496
G1A238.058Z29.035
G1A234.483Z28.097
G1A231.438Z27.296
G1A229.055Z26.722
G1A227.201Z26.336
G1A224.288Z25.839
G1A222.832Z25.524
G1A221.905Z25.277
G1A221.243Z25.070
G1A219.787Z24.773
G1A218.860Z24.618
G1A217.403Z24.417
G1A215.550Z24.072
G1A214.623Z23.926
G1A213.564Z23.728
G1A211.843Z23.429
G1A210.121Z23.109
G1A208.533Z22.784
G1A206.811Z22.562
G1A206.017Z22.495
G1A197.411Z22.487
G1A195.292Z22.380
G1A193.571
G1A183.376Z22.720
G1A173.976Z23.124
G1A170.666Z23.273
G1A169.739Z23.395
G1A166.429Z23.799
G1A163.516Z24.190
G1A161.133Z24.459
G1A158.485Z24.683
G1A155.837Z24.864
G1A153.453Z25.189
G1A148.819Z25.932
G1A146.701Z26.219
G1A142.994Z26.652
G1A140.611Z26.944
G1A139.154Z27.149
G1A137.300Z27.410
G1A136.109Z27.543
G1A134.785Z27.741
G1A133.196Z27.911
G1A131.078Z28.135
G1A127.503Z28.643
G1A124.987Z28.929
G1A123.133Z29.086
G1A120.883Z29.309
G1A117.440Z29.536
G1A115.719Z29.614
G1A114.660Z29.691
G1A112.541Z29.763
G1A108.967Z29.795
G1A104.465Z29.761
G1A100.096Z29.662
G1A98.507Z29.620
G1A96.918Z29.513
G1A94.138Z29.269
G1A93.343Z29.355
G1A92.152Z29.437
G1A91.622Z29.441
G1A91.092Z29.476
G1A89.901Z29.463
G1A89.503Z29.437
G1A88.841Z29.428
G1A87.120Z29.304
G1A85.134Z29.506
G1A84.207Z29.543
G1A82.883Z29.574
G1A81.824Z29.600
G1A79.706Z29.607
G1A78.779Z29.666
G1A76.661Z29.704
G1A66.730Z29.695
G1A65.539Z29.651
G1A64.082Z29.561
G1A62.361Z29.469
G1A61.302Z29.366
G1A59.978Z29.326
G1A58.522Z29.194
G1A55.873Z28.823
G1A53.755Z28.402
G1A52.034Z28.106
G1A49.651Z27.784
G1A49.121Z27.738
G1A47.135Z27.690
G1A45.017Z27.666
G1A42.766Z27.545
G1A40.250Z27.313
G1A37.337Z27.037
G1A34.292Z26.777
G1A31.909Z26.498
G1A30.320Z26.233
G1A27.407Z25.648
G1A24.494Z25.215
G1A22.508Z24.966
G1A21.581Z24.874
G1A18.271Z24.644
G1A17.212Z24.535
G1A16.683Z24.488
G1A14.564Z24.385
G1A12.181Z24.178
G1A9.401Z23.926
G1A2.913Z23.267
G1A0.000Z23.018
G1X43.992Z23.286
G1X43.580Z23.326
G1A4.237Z23.695
G1A10.195Z24.324
G1A11.387Z24.410
G1A12.313Z24.435
G1A14.035Z24.659
G1A15.756Z24.848
G1A22.243Z25.304
G1A27.672Z25.711
G1A28.069Z25.747
G1A30.717Z26.271
G1A32.968Z26.636
G1A36.146Z27.039
G1A37.867Z27.210
G1A39.985Z27.352
G1A41.177Z27.473
G1A45.149Z27.688
G1A47.929Z27.769
G1A49.253Z27.895
G1A52.299Z28.276
G1A53.623Z28.488
G1A55.609Z28.886
G1A57.727Z29.236
G1A58.786Z29.345
G1A59.316Z29.373
G1A60.243Z29.500
G1A63.023Z29.648
G1A64.215Z29.703
G1A68.187Z29.714
G1A72.953Z29.801
G1A75.999Z29.804
G1A78.117Z29.887
G1A82.089Z29.902
G1A82.619Z29.991
G1A83.016Z30.106
G1A83.810Z30.437
G1A84.472Z30.635
G1A85.399Z30.791
G1A86.723Z30.913
G1A88.444Z30.982
G1A92.681Z30.996
G1A94.535Z30.973
G1A95.726Z30.907
G1A97.050Z30.737
G1A97.977Z30.549
G1A98.507Z30.376
G1A99.434Z30.390
G1A100.228Z30.418
G1A103.008Z30.406
G1A105.127Z30.284
G1A107.245Z30.162
G1A108.305Z30.114
G1A110.688Z30.099
G1A113.071Z30.023
G1A118.235Z29.735
G1A119.956Z29.624
G1A122.339Z29.466
G1A124.987Z29.189
G1A127.370Z28.900
G1A128.562Z28.744
G1A132.004Z28.268
G1A135.712Z27.816
G1A138.095Z27.450
G1A140.213Z27.332
G1A142.861Z27.074
G1A144.450Z26.875
G1A146.171Z26.653
G1A148.687Z26.205
G1A150.805Z25.810
G1A153.321Z25.396
G1A153.851Z25.325
G1A158.617Z25.198
G1A161.133Z25.059
G1A163.251Z24.857
G1A165.370Z24.595
G1A170.136Z23.921
G1A172.784Z23.619
G1A173.314Z23.531
G1A175.829Z23.426
G1A185.892Z22.828
G1A192.644Z22.553
G1A194.630Z22.467
G1A196.087Z22.455
G1A198.338Z22.495
G1A200.191Z22.505
G1A205.620Z22.736
G1A207.076Z22.827
G1A208.797Z23.083
G1A211.313Z23.540
G1A212.107Z23.719
G1A213.299Z24.051
G1A214.491Z24.318
G1A215.947Z24.567
G1A216.477Z24.618
G1A217.006Z24.745
G1A222.567Z25.869
G1A228.658Z26.976
G1A232.894Z27.848
G1A239.382Z29.383
G1A241.236Z29.757
G1A242.825Z30.026
G1A244.678Z30.266
G1A247.856Z30.561
G1A250.504Z30.740
G1A253.152Z30.865
G1A257.389Z30.965
G1A265.862Z31.000
G1A281.089Z30.990
G1A283.604Z30.974
G1A290.224Z30.960
G1A292.872Z30.908
G1A295.653Z30.777
G1A298.036Z30.595
G1A300.419Z30.383
G1A302.405Z30.140
G1A304.259Z29.854
G1A306.113Z29.506
G1A311.806Z28.255
G1A314.454Z27.744
G1A316.440Z27.422
G1A319.220Z27.042
G1A322.530Z26.658
G1A323.854Z26.481
G1A325.708Z26.152
G1A326.900Z25.930
G1A329.415Z25.577
G1A333.255Z25.046
G1A334.049Z24.905
G1A334.446Z24.802
G1A335.770Z24.608
G1A338.154Z24.190
G1A340.537Z23.845
G1A342.391Z23.670
G1A347.289Z23.305
G1A351.659Z23.064
G1A353.115Z23.022
G1A358.411Z23.210
G1A360.000Z23.326
G1X41.795Z23.464
G1X41.040Z23.526
G1A355.763Z23.295
G1A352.850Z23.167
G1A345.171Z23.642
G1A343.185Z23.832
G1A341.067Z24.120
G1A335.109Z25.054
G1A333.520Z25.265
G1A331.401Z25.607
G1A329.680Z25.797
G1A327.562Z26.045
G1A324.649Z26.423
G1A319.618Z27.010
G1A317.234Z27.331
G1A314.586Z27.758
G1A311.673Z28.302
G1A306.113Z29.352
G1A303.200Z29.830
G1A300.816Z30.145
G1A298.036Z30.436
G1A294.594Z30.697
G1A292.078Z30.836
G1A289.298Z30.921
G1A283.737Z30.972
G1A279.103Z30.986
G1A273.409Z31.000
G1A263.347Z30.988
G1A258.845Z30.950
G1A254.211Z30.820
G1A251.298Z30.674
G1A248.253Z30.440
G1A245.870Z30.206
G1A243.222Z29.880
G1A240.971Z29.517
G1A238.455Z29.034
G1A231.968Z27.655
G1A228.790Z27.053
G1A226.142Z26.615
G1A218.330Z25.376
G1A217.801Z25.254
G1A217.536Z25.182
G1A216.477Z25.064
G1A215.153Z24.823
G1A213.167Z24.368
G1A211.048Z23.873
G1A209.195Z23.554
G1A207.606Z23.352
G1A204.958Z23.119
G1A198.205Z22.723
G1A195.690Z22.664
G1A193.042Z22.733
G1A189.732Z22.922
G1A184.700Z23.152
G1A181.390Z23.314
G1A179.007Z23.511
G1A177.551Z23.620
G1A176.624Z23.668
G1A173.181Z24.052
G1A169.342Z24.437
G1A165.634Z24.968
G1A164.046Z25.128
G1A161.662Z25.263
G1A154.248Z25.532
G1A153.189Z25.595
G1A151.600Z25.775
G1A149.879Z26.041
G1A147.628Z26.482
G1A145.377Z26.934
G1A143.656Z27.181
G1A141.670Z27.364
G1A139.287Z27.505
G1A136.771Z27.766
G1A134.520Z28.043
G1A132.931Z28.189
G1A131.740Z28.404
G1A130.151Z28.729
G1A128.959Z28.906
G1A125.649Z29.295
G1A122.339Z29.643
G1A116.381Z30.211
G1A110.158Z30.649
G1A108.834Z30.692
G1A102.611Z30.695
G1A101.420Z30.857
G1A100.228Z30.958
G1A98.772Z30.996
G1A83.413Z30.986
G1A81.824Z30.908
G1A80.103Z30.749
G1A79.309Z30.635
G1A78.382Z30.474
G1A77.587Z30.460
G1A76.396Z30.434
G1A73.880Z30.328
G1A71.364Z30.178
G1A70.173Z30.070
G1A69.246Z29.964
G1A68.452Z29.936
G1A66.995Z29.875
G1A64.877Z29.703
G1A63.950Z29.681
G1A60.772Z29.511
G1A59.581Z29.367
G1A57.065Z28.949
G1A54.020Z28.416
G1A51.901Z28.145
G1A48.194Z27.774
G1A47.665Z27.747
G1A43.560Z27.611
G1A41.177Z27.476
G1A39.720Z27.332
G1A38.396Z27.241
G1A36.146Z26.991
G1A33.365Z26.520
G1A32.438Z26.363
G1A30.188Z26.082
G1A25.024Z25.824
G1A14.167Z24.944
G1A12.181Z24.753
G1A10.592Z24.547
G1A8.474Z24.316
G1A6.355Z24.178
G1A2.648Z23.755
G1A0.132Z23.535
G1A0.000Z23.526
G1X39.392Z23.628
G1X38.500Z23.642
G1A2.383Z23.819
G1A5.031Z24.085
G1A6.090Z24.195
G1A6.620Z24.236
G1A10.725Z24.680
G1A17.477Z25.325
G1A20.390Z25.557
G1A24.229Z25.951
G1A25.156Z26.000
G1A26.745Z26.012
G1A28.996Z26.114
G1A30.717Z26.180
G1A32.306Z26.324
G1A36.013Z26.774
G1A38.926Z27.136
G1A41.177Z27.302
G1A44.355Z27.528
G1A47.135Z27.624
G1A49.386Z27.686
G1A51.769Z27.923
G1A56.138Z28.431
G1A57.860Z28.692
G1A61.037Z29.231
G1A63.420Z29.588
G1A65.539Z29.843
G1A66.730Z29.929
G1A67.392Z29.957
G1A69.511Z30.166
G1A72.026Z30.329
G1A75.204Z30.455
G1A77.323Z30.465
G1A78.117Z30.543
G1A79.309Z30.722
G1A80.103Z30.790
G1A82.221Z30.950
G1A83.678Z30.995
G1A99.698Z30.989
G1A101.022Z30.948
G1A103.406Z30.760
G1A103.935Z30.695
G1A111.350Z30.684
G1A113.203Z30.589
G1A116.911Z30.305
G1A119.823Z30.003
G1A124.193Z29.450
G1A128.430Z28.883
G1A129.886Z28.599
G1A131.740Z28.227
G1A133.064Z28.022
G1A138.095Z27.509
G1A141.273Z27.302
G1A143.523Z27.067
G1A145.112Z26.828
G1A147.495Z26.403
G1A149.349Z26.125
G1A151.203Z25.904
G1A154.248Z25.663
G1A159.147Z25.408
G1A163.384Z25.226
G1A165.634Z25.059
G1A169.871Z24.557
G1A172.652Z24.287
G1A176.756Z23.968
G1A179.669Z23.650
G1A181.390Z23.519
G1A188.805Z23.095
G1A194.366Z23.057
G1A197.676Z23.012
G1A200.986Z23.106
G1A203.501Z23.237
G1A206.017Z23.462
G1A207.871Z23.691
G1A209.724Z24.009
G1A211.975Z24.460
G1A213.961Z24.880
G1A215.020Z25.039
G1A216.874Z25.256
G1A218.330Z25.447
G1A219.654Z25.668
G1A229.055Z27.061
G1A233.821Z27.880
G1A238.058Z28.654
G1A242.163Z29.327
G1A245.340Z29.764
G1A247.988Z30.070
G1A251.828Z30.411
G1A254.873Z30.610
G1A258.183Z30.754
G1A261.890Z30.844
G1A268.643Z30.932
G1A273.674Z30.928
G1A276.984Z30.876
G1A280.294Z30.780
G1A285.325Z30.764
G1A288.768Z30.688
G1A291.681Z30.552
G1A295.388Z30.295
G1A298.566Z30.012
G1A301.611Z29.671
G1A304.921Z29.225
G1A309.290Z28.542
G1A314.321Z27.718
G1A319.220Z26.964
G1A321.736Z26.653
G1A325.973Z26.195
G1A331.401Z25.658
G1A332.460Z25.501
G1A332.725Z25.461
G1A334.049Z25.400
G1A335.373Z25.242
G1A338.683Z24.717
G1A342.655Z24.090
G1A345.303Z23.758
G1A347.157Z23.590
G1A349.805Z23.416
G1A353.248Z23.230
G1A357.352Z23.436
G1A360.000Z23.642
G1X36.921Z23.631
G1X36.029Z23.580
G1X35.960Z23.587
G1A356.690Z23.456
G1A353.645Z23.339
G1A351.923Z23.312
G1A344.112Z23.946
G1A341.067Z24.351
G1A336.035Z25.126
G1A334.182Z25.351
G1A332.858Z25.455
G1A331.269Z25.476
G1A330.872Z25.514
G1A330.077Z25.623
G1A325.443Z26.026
G1A322.795Z26.367
G1A320.147Z26.686
G1A314.057Z27.511
G1A310.747Z27.965
G1A306.113Z28.599
G1A301.081Z29.196
G1A297.109Z29.578
G1A292.210Z29.951
G1A289.298Z30.133
G1A284.796Z30.313
G1A274.204Z30.571
G1A271.291Z30.595
G1A267.716Z30.577
G1A260.566Z30.432
G1A257.124Z30.297
G1A254.079Z30.109
G1A250.769Z29.843
G1A247.988Z29.552
G1A242.030Z28.806
G1A238.058Z28.248
G1A233.424Z27.530
G1A228.393Z26.800
G1A222.700Z26.103
G1A220.051Z25.718
G1A218.595Z25.497
G1A217.801Z25.315
G1A217.536Z25.252
G1A216.212Z25.110
G1A214.888Z25.006
G1A213.564Z24.868
G1A212.107Z24.657
G1A207.738Z23.842
G1A206.149Z23.610
G1A203.104Z23.322
G1A201.383Z23.191
G1A198.338Z23.120
G1A193.704Z23.205
G1A189.202Z23.212
G1A186.951Z23.282
G1A185.627Z23.301
G1A184.568Z23.351
G1A182.317Z23.495
G1A181.125Z23.588
G1A176.094Z24.015
G1A171.195Z24.347
G1A168.812Z24.570
G1A164.575Z25.006
G1A162.589Z25.161
G1A161.000Z25.276
G1A158.352Z25.473
G1A155.307Z25.655
G1A153.321Z25.794
G1A149.349Z26.131
G1A145.112Z26.427
G1A141.537Z26.842
G1A138.624Z27.011
G1A133.593Z27.576
G1A132.402Z27.658
G1A122.736Z29.300
G1A120.750Z29.644
G1A117.308Z30.136
G1A115.189Z30.366
G1A112.806Z30.555
G1A110.158Z30.680
G1A106.186Z30.695
G1A102.082Z30.704
G1A99.301Z30.888
G1A97.448Z30.968
G1A95.197Z30.996
G1A86.591Z30.985
G1A85.267Z30.932
G1A83.545Z30.815
G1A82.751Z30.764
G1A81.957Z30.691
G1A80.897Z30.555
G1A79.706Z30.469
G1A75.999Z30.444
G1A73.218Z30.333
G1A70.438Z30.143
G1A68.187Z29.928
G1A67.260Z29.850
G1A65.274Z29.560
G1A59.316Z28.518
G1A55.344Z28.005
G1A51.239Z27.575
G1A49.783Z27.464
G1A47.135Z27.361
G1A45.281Z27.212
G1A44.752Z27.164
G1A41.839Z27.054
G1A39.191Z26.845
G1A33.895Z26.376
G1A31.379Z26.203
G1A29.526Z26.122
G1A26.348Z26.002
G1A24.362Z25.988
G1A22.773Z25.869
G1A17.080Z25.282
G1A15.756Z25.140
G1A11.387Z24.711
G1A3.442Z23.837
G1A2.780Z23.771
G1A0.000Z23.587
G1X35.342Z23.657
G1X34.175Z23.698
G1X33.420Z23.707
G1A2.251Z23.764
G1A4.369Z23.922
G1A7.150Z24.175
G1A12.578Z24.792
G1A15.094Z24.995
G1A20.522Z25.498
G1A24.362Z25.861
G1A26.480Z25.974
G1A28.996Z26.002
G1A29.923Z26.017
G1A33.233Z26.157
G1A38.264Z26.456
G1A41.177Z26.644
G1A45.546Z26.831
G1A47.135Z26.866
G1A50.577Z27.177
G1A57.595Z27.833
G1A59.713Z28.030
G1A62.096Z28.312
G1A66.466Z29.014
G1A69.908Z29.450
G1A72.424Z29.684
G1A75.072Z29.866
G1A75.866Z29.926
G1A77.455Z30.124
G1A78.779Z30.227
G1A80.500Z30.281
G1A83.678Z30.272
G1A85.002Z30.192
G1A86.061Z30.093
G1A87.650Z29.867
G1A88.974Z29.619
G1A90.033Z29.407
G1A90.165Z29.401
G1A90.828Z29.624
G1A91.622Z29.816
G1A92.549Z30.007
G1A93.873Z30.203
G1A95.064Z30.303
G1A96.124Z30.338
G1A98.639Z30.343
G1A99.698Z30.462
G1A100.890Z30.532
G1A103.008Z30.546
G1A105.656Z30.533
G1A108.702Z30.414
G1A110.423Z30.305
G1A112.939Z30.088
G1A115.719Z29.783
G1A117.837Z29.523
G1A122.207Z28.853
G1A126.576Z28.291
G1A133.858Z27.351
G1A134.917Z27.234
G1A139.287Z26.836
G1A141.935Z26.618
G1A145.377Z26.437
G1A146.966Z26.337
G1A148.157Z26.206
G1A149.614Z26.119
G1A154.248Z25.613
G1A157.558Z25.364
G1A160.338Z25.058
G1A164.840Z24.588
G1A169.739Z24.163
G1A173.049Z23.979
G1A175.962Z23.814
G1A178.345Z23.661
G1A180.463Z23.557
G1A182.185Z23.452
G1A186.686Z23.341
G1A191.320Z23.269
G1A193.571Z23.206
G1A196.881Z23.193
G1A198.867Z23.160
G1A200.986Z23.253
G1A204.031Z23.476
G1A206.017Z23.653
G1A207.738Z23.864
G1A212.637Z24.650
G1A214.226Z24.823
G1A216.477Z24.983
G1A217.271Z24.998
G1A217.536Z25.062
G1A217.933Z25.228
G1A218.463Z25.368
G1A219.522Z25.550
G1A221.640Z25.801
G1A225.745Z26.229
G1A229.717Z26.612
G1A233.027Z27.013
G1A236.337Z27.475
G1A239.117Z27.863
G1A243.089Z28.359
G1A249.047Z29.020
G1A251.695Z29.259
G1A257.654Z29.685
G1A261.096Z29.859
G1A264.538Z29.959
G1A267.716Z29.977
G1A271.423Z29.958
G1A275.793Z29.832
G1A280.824Z29.747
G1A284.001Z29.621
G1A292.343Z29.189
G1A295.123Z29.010
G1A299.360Z28.653
G1A304.259Z28.140
G1A311.144Z27.355
G1A318.161Z26.612
G1A323.854Z25.993
G1A327.032Z25.595
G1A328.753Z25.480
G1A330.342Z25.401
G1A332.196Z25.298
G1A335.506Z24.964
G1A341.464Z24.233
G1A343.979Z23.997
G1A349.011Z23.632
G1A350.070Z23.544
G1A356.690Z23.678
G1A360.000Z23.707
G1X30.880Z23.708
G1A354.704Z23.669
G1A351.923Z23.626
G1A348.746Z23.563
G1A340.405Z24.127
G1A334.976Z24.611
G1A331.136Z24.929
G1A327.694Z25.146
G1A326.900Z25.182
G1A325.973Z25.238
G1A325.046Z25.371
G1A323.987Z25.500
G1A322.398Z25.664
G1A320.544Z25.863
G1A308.761Z26.779
G1A303.332Z27.281
G1A297.242Z27.881
G1A294.726Z28.075
G1A290.622Z28.298
G1A282.148Z28.730
G1A278.970Z28.839
G1A273.939Z28.944
G1A269.967Z29.063
G1A267.451Z29.089
G1A264.009Z29.076
G1A260.037Z28.916
G1A254.873Z28.633
G1A251.431Z28.407
G1A248.518Z28.166
G1A243.089Z27.629
G1A239.117Z27.169
G1A232.497Z26.364
G1A229.982Z26.122
G1A223.626Z25.610
G1A222.038Z25.429
G1A221.508Z25.312
G1A221.111Z25.199
G1A220.184Z25.097
G1A219.654Z25.069
G1A216.609Z24.709
G1A212.769Z24.268
G1A208.665Z23.765
G1A206.149Z23.534
G1A201.118Z23.221
G1A198.867Z23.138
G1A194.498Z23.206
G1A193.042Z23.220
G1A189.599Z23.316
G1A184.833Z23.383
G1A180.463Z23.482
G1A176.889Z23.525
G1A173.181Z23.665
G1A167.091Z24.017
G1A162.854Z24.354
G1A160.338Z24.644
G1A156.631Z25.085
G1A152.262Z25.520
G1A149.217Z25.909
G1A147.760Z26.104
G1A146.833Z26.193
G1A145.642Z26.339
G1A143.921Z26.440
G1A140.743Z26.595
G1A134.785Z26.972
G1A132.137Z27.261
G1A126.576Z28.008
G1A116.116Z29.204
G1A114.130Z29.390
G1A111.482Z29.563
G1A108.437Z29.687
G1A105.921Z29.723
G1A102.479Z29.708
G1A98.904Z29.604
G1A94.932Z29.404
G1A90.165Z29.087
G1A86.193Z29.057
G1A81.692Z29.149
G1A78.911Z29.136
G1A75.469Z29.047
G1A72.291Z28.907
G1A68.849Z28.656
G1A65.936Z28.387
G1A60.905Z27.911
G1A56.933Z27.535
G1A52.431Z27.032
G1A48.989Z26.737
G1A45.943Z26.538
G1A43.560Z26.457
G1A38.794Z26.171
G1A34.160Z25.928
G1A30.982Z25.755
G1A28.599Z25.678
G1A26.216Z25.526
G1A20.787Z25.102
G1A16.285Z24.798
G1A13.770Z24.578
G1A9.533Z24.141
G1A6.885Z23.936
G1A4.104Z23.795
G1A1.721Z23.729
G1A0.000Z23.708
G1X28.340Z23.697
G1A8.209Z23.749
G1A10.857Z23.813
G1A12.843Z23.926
G1A16.947Z24.232
G1A21.846Z24.497
G1A26.083Z24.731
G1A28.731Z24.927
G1A32.968Z25.306
G1A35.748Z25.552
G1A39.456Z25.777
G1A41.707Z25.911
G1A45.414Z26.185
G1A47.532Z26.277
G1A49.518Z26.320
G1A51.239Z26.470
G1A57.330Z27.125
G1A61.832Z27.525
G1A67.525Z27.983
G1A72.821Z28.400
G1A77.587Z28.649
G1A79.706Z28.755
G1A81.295Z28.783
G1A85.134Z28.774
G1A86.326Z28.767
G1A91.490Z28.882
G1A97.977Z29.131
G1A101.552Z29.199
G1A106.054Z29.193
G1A108.967Z29.108
G1A112.012Z28.944
G1A115.587Z28.662
G1A119.691Z28.304
G1A123.133Z27.940
G1A130.283Z27.022
G1A132.402Z26.808
G1A133.064Z26.706
G1A133.328Z26.642
G1A134.917Z26.541
G1A136.506Z26.452
G1A138.227Z26.380
G1A140.346Z26.312
G1A142.067Z26.193
G1A143.921Z26.034
G1A145.774Z25.768
G1A147.893Z25.408
G1A149.084Z25.297
G1A152.527Z25.016
G1A159.279Z24.301
G1A163.251Z23.882
G1A165.370Z23.708
G1A169.077Z23.552
G1A171.725Z23.494
G1A178.875Z23.455
G1A185.362Z23.334
G1A188.937Z23.290
G1A193.042Z23.166
G1A196.881Z23.106
G1A200.721Z23.090
G1A203.236Z23.140
G1A207.871Z23.344
G1A211.181Z23.547
G1A216.079Z23.956
G1A219.919Z24.402
G1A222.832Z24.749
G1A227.069Z25.160
G1A228.525Z25.236
G1A229.982Z25.393
G1A232.762Z25.656
G1A243.089Z26.655
G1A248.385Z27.106
G1A253.417Z27.453
G1A260.964Z27.828
G1A262.950Z27.894
G1A267.716Z27.901
G1A270.497Z27.834
G1A274.998Z27.682
G1A281.618Z27.509
G1A285.061Z27.372
G1A294.329Z26.893
G1A297.639Z26.680
G1A307.172Z25.916
G1A311.144Z25.637
G1A314.983Z25.398
G1A317.102Z25.225
G1A318.426Z25.188
G1A320.412Z25.028
G1A325.576Z24.509
G1A327.429Z24.379
G1A340.405Z23.789
G1A346.627Z23.482
G1A351.791Z23.607
G1A356.425Z23.679
G1A360.000Z23.697
G1X26.143Z23.667
G1X25.800Z23.656
G1A356.028Z23.599
G1A350.599Z23.454
G1A344.641Z23.217
G1A340.934Z23.206
G1A331.269Z23.263
G1A327.562Z23.364
G1A323.457Z23.565
G1A318.558Z23.830
G1A315.645Z24.014
G1A313.130Z24.223
G1A312.203Z24.260
G1A310.879Z24.395
G1A306.775Z24.676
G1A300.684Z25.071
G1A293.005Z25.506
G1A288.238Z25.702
G1A285.590Z25.828
G1A280.691Z26.073
G1A276.057Z26.235
G1A271.953Z26.350
G1A267.848Z26.472
G1A265.068Z26.490
G1A262.420Z26.432
G1A256.859Z26.188
G1A253.814Z26.076
G1A249.577Z25.859
G1A245.605Z25.600
G1A234.748Z24.818
G1A232.100Z24.596
G1A231.041Z24.464
G1A229.717Z24.390
G1A228.128Z24.235
G1A222.170Z23.604
G1A219.257Z23.340
G1A216.477Z23.155
G1A213.564Z23.026
G1A209.724Z22.943
G1A205.223Z22.908
G1A200.721Z22.909
G1A195.160Z23.009
G1A183.906Z23.272
G1A176.889Z23.340
G1A171.328Z23.332
G1A164.840Z23.186
G1A159.941Z23.546
G1A153.718Z24.044
G1A149.879Z24.397
G1A147.231Z24.611
G1A140.875Z25.179
G1A138.492Z25.351
G1A136.109Z25.434
G1A134.917Z25.486
G1A132.402Z25.716
G1A130.680Z25.918
G1A129.621Z25.997
G1A129.356Z26.009
G1A127.106Z26.494
G1A125.782Z26.714
G1A123.398Z27.019
G1A119.956Z27.374
G1A113.203Z27.978
G1A109.629Z28.222
G1A106.848Z28.340
G1A104.597Z28.390
G1A101.552Z28.392
G1A98.904Z28.322
G1A96.653Z28.262
G1A94.005Z28.135
G1A91.754Z28.036
G1A90.563Z27.966
G1A88.444Z27.837
G1A86.193Z27.745
G1A84.340Z27.739
G1A81.957Z27.782
G1A79.441Z27.767
G1A76.793Z27.683
G1A74.807Z27.584
G1A70.967Z27.315
G1A65.539Z27.007
G1A61.170Z26.761
G1A58.124Z26.517
G1A55.079Z26.223
G1A53.490Z25.954
G1A51.239Z25.935
G1A49.915Z25.898
G1A47.797Z25.754
G1A43.031Z25.290
G1A39.191Z25.005
G1A36.278Z24.780
G1A32.438Z24.390
G1A28.864Z24.006
G1A27.142Z23.908
G1A19.198Z23.716
G1A15.226Z23.614
G1A13.902Z23.608
G1A8.076Z23.666
G1A0.265Z23.658
G1A0.000Z23.656
G1X24.358Z23.579
G1X23.535Z23.480
G1X23.260Z23.434
G1A3.575Z23.457
G1A6.223Z23.433
G1A13.373Z23.240
G1A18.933Z23.179
G1A23.038Z23.110
G1A25.951Z23.160
G1A28.466Z23.260
G1A33.365Z23.544
G1A39.720Z24.002
G1A43.163Z24.212
G1A47.665Z24.556
G1A51.372Z24.865
G1A53.225Z24.945
G1A54.020Z24.959
G1A55.079Z25.025
G1A55.873Z25.128
G1A57.727Z25.315
G1A60.375Z25.527
G1A67.657Z25.862
G1A70.570Z25.956
G1A72.556Z26.046
G1A76.925Z26.232
G1A81.427Z26.381
G1A88.047Z26.455
G1A91.092Z26.555
G1A99.036Z26.916
G1A101.817Z26.969
G1A106.054Z26.959
G1A108.834Z26.896
G1A112.541Z26.700
G1A118.235Z26.307
G1A120.750Z26.067
G1A122.339Z25.855
G1A124.325Z25.500
G1A126.444Z25.028
G1A127.106Z24.879
G1A128.430Z24.707
G1A130.283Z24.486
G1A133.990Z24.152
G1A136.903Z23.955
G1A144.185Z23.539
G1A149.084Z23.259
G1A154.645Z22.874
G1A157.955Z22.706
G1A161.927Z22.597
G1A163.913Z22.633
G1A167.223Z22.779
G1A172.255Z22.973
G1A176.359Z23.073
G1A180.728Z23.083
G1A185.097Z22.982
G1A192.512Z22.811
G1A196.881Z22.667
G1A203.766Z22.380
G1A220.713
G1A223.229Z22.463
G1A226.407Z22.711
G1A234.218Z23.468
G1A235.410Z23.529
G1A236.999Z23.695
G1A240.309Z23.860
G1A247.988Z24.040
G1A251.695Z24.205
G1A258.845Z24.551
G1A261.626Z24.660
G1A264.406Z24.710
G1A268.113Z24.719
G1A272.483Z24.704
G1A277.249Z24.699
G1A280.029Z24.630
G1A285.325Z24.369
G1A292.740Z23.951
G1A296.712Z23.722
G1A302.405Z23.394
G1A305.583Z23.173
G1A306.245Z23.140
G1A307.966Z23.127
G1A310.085Z23.041
G1A312.865Z22.856
G1A316.969Z22.546
G1A320.280Z22.380
G1A325.443Z22.380
G1A337.889
G1A341.596Z22.436
G1A344.906Z22.594
G1A348.613Z22.847
G1A353.115Z23.151
G1A356.425Z23.326
G1A359.868Z23.432
G1A360.000Z23.434
G1X22.299Z23.220
G1X21.612Z23.004
G1X20.926Z22.711
G1X20.720Z22.612
G1A356.293Z22.442
G1A352.188Z22.380
G1A292.475
G1A286.385Z22.762
G1A283.472Z22.886
G1A280.294Z22.949
G1A274.204Z22.982
G1A267.716Z22.975
G1A264.274Z22.930
G1A261.493Z22.839
G1A253.549Z22.491
G1A248.650Z22.380
G1A142.597
G1A133.196Z22.422
G1A130.813Z22.548
G1A128.827Z22.698
G1A124.855Z23.054
G1A123.531Z23.234
G1A121.545Z23.572
G1A121.015Z23.631
G1A120.750Z23.641
G1A120.088Z23.935
G1A119.294Z24.124
G1A118.499Z24.336
G1A117.440Z24.554
G1A116.116Z24.730
G1A114.792Z24.827
G1A112.012Z24.941
G1A107.378Z25.062
G1A103.935Z25.086
G1A100.360Z25.075
G1A98.507Z24.992
G1A93.740Z24.694
G1A90.828Z24.555
G1A88.047Z24.464
G1A85.531Z24.430
G1A71.762Z24.499
G1A69.776Z24.482
G1A67.657Z24.427
G1A66.068Z24.325
G1A64.877Z24.177
G1A64.215Z24.062
G1A62.891Z23.927
G1A61.434Z23.782
G1A58.389Z23.570
G1A52.828Z23.305
G1A45.679Z22.888
G1A40.912Z22.679
G1A37.999Z22.594
G1A29.658Z22.502
G1A22.773Z22.394
G1A18.801Z22.381
G1A16.021Z22.418
G1A13.505Z22.501
G1A9.136Z22.659
G1A6.090Z22.687
G1A2.251Z22.670
G1A0.000Z22.612
G1X19.828Z22.380
G1X18.180
G1A360.000
G1X15.640
G1A0.000
G1X13.100
G1A360.000
G1X10.560
G1A0.000
G1X8.020
G1A360.000
G1X5.480
G1A0.000
G1X2.940
G1A360.000
G1X1.270
G1A0.000
G1X0.000
G1A360.000
G0Z35.080
G0X102.000
G1Z19.840F254.0
G1A0.000F1016.0
G1X99.460
G1A360.000
G1X96.920
G1A0.000
G1X94.380
G1A360.000
G1X91.840
G1A0.000
G1X89.300
G1A360.000
G1X86.760
G1A0.000
G1X84.220
G1A360.000
G1X81.680
G1A0.000
G1X79.140
G1A360.000
G1X76.600
G1A38.926
G1A37.999Z19.863
G1A36.808Z19.904
G1A34.954
G1A34.689Z19.875
G1A34.027Z19.870
G1A33.762Z19.851
G1A33.498
G1A33.233Z19.840
G1A0.000
G1X74.060
G1A27.937
G1A28.334Z19.870
G1A29.393Z20.114
G1A30.717Z20.295
G1A31.776Z20.402
G1A32.703Z20.466
G1A33.762Z20.487
G1A43.693Z20.478
G1A44.222Z20.417
G1A44.619Z20.298
G1A45.679Z19.850
G1A47.267Z19.840
G1A133.858
G1A134.255Z19.976
G1A135.182Z20.326
G1A135.447Z20.379
G1A136.241Z20.456
G1A146.171Z20.447
G1A147.628Z20.350
G1A148.687Z20.261
G1A149.879Z20.059
G1A150.805Z19.840
G1A360.000
G1X71.520
G1A288.503
G1A285.458Z20.012
G1A284.663Z20.275
G1A283.075Z20.795
G1A281.883Z21.159
G1A280.824Z21.519
G1A279.235Z21.978
G1A278.573Z22.172
G1A277.646Z22.412
G1A276.719Z22.630
G1A275.528Z22.824
G1A274.469Z22.951
G1A273.277Z23.029
G1A271.423Z23.074
G1A268.908Z23.063
G1A267.186Z23.002
G1A265.598Z22.835
G1A264.538Z22.681
G1A263.612Z22.465
G1A262.685Z22.142
G1A260.037Z21.014
G1A259.507Z20.771
G1A257.389Z19.945
G1A254.873Z19.840
G1A153.056
G1A151.070Z20.110
G1A150.276Z20.299
G1A149.746Z20.358
G1A149.084Z20.448
G1A133.196Z20.449
G1A132.534Z20.359
G1A132.004Z20.208
G1A131.740Z20.099
G1A131.607Z20.006
G1A131.475Z19.840
G1A48.856
G1A47.797Z19.973
G1A47.003Z20.388
G1A46.473Z20.482
G1A30.320Z20.479
G1A29.526Z20.406
G1A28.996Z20.315
G1A28.202Z20.109
G1A27.407Z19.840
G1A0.000
G1X68.980
G1A25.818
G1A26.878Z19.995
G1A28.069Z20.165
G1A29.128Z20.336
G1A30.585Z20.461
G1A31.512Z20.487
G1A45.811Z20.485
G1A46.341Z20.402
G1A46.473Z20.358
G1A47.665Z19.840
G1A131.872
G1A132.004Z19.979
G1A132.137Z20.067
G1A132.799Z20.288
G1A133.196Z20.380
G1A133.858Z20.453
G1A148.422
G1A149.481Z20.358
G1A153.453Z19.840
G1A192.909
G1A194.366Z19.843
G1A199.794Z20.073
G1A206.811Z20.404
G1A211.578Z20.544
G1A215.020Z20.577
G1A217.668Z20.558
G1A219.787Z20.458
G1A223.626Z20.216
G1A227.731Z19.840
G1A252.622
G1A254.873Z19.859
G1A257.654Z21.160
G1A258.580Z21.640
G1A259.904Z22.387
G1A260.566Z22.646
G1A261.361Z22.862
G1A262.023Z22.984
G1A262.685Z23.065
G1A263.479Z23.111
G1A278.043Z23.110
G1A278.970Z23.045
G1A279.500Z22.974
G1A280.162Z22.833
G1A280.824Z22.632
G1A281.883Z22.190
G1A283.737Z21.417
G1A288.371Z19.840
G1A305.583
G1A313.659Z20.200
G1A317.234Z20.557
G1A318.956Z20.666
G1A322.001Z20.783
G1A324.781Z20.822
G1A328.091Z20.804
G1A335.373Z20.560
G1A338.419Z20.431
G1A341.729Z20.263
G1A349.275Z19.840
G1A360.000
G1X66.440
G1A356.293
G1A356.160Z19.847
G1A355.896Z20.067
G1A355.631Z20.204
G1A354.836Z20.392
G1A354.042Z20.500
G1A352.188Z20.627
G1A348.349Z20.778
G1A339.478Z21.023
G1A334.711Z21.077
G1A329.415Z21.078
G1A326.900Z21.129
G1A324.252Z21.134
G1A321.604Z21.085
G1A318.426Z20.971
G1A314.719Z20.754
G1A312.997Z20.594
G1A309.290Z20.085
G1A306.775Z19.840
G1A289.827
G1A287.576Z19.875
G1A284.663Z21.109
G1A283.075Z21.847
G1A281.486Z22.648
G1A280.956Z22.846
G1A280.294Z23.006
G1A279.500Z23.089
G1A278.308Z23.118
G1A262.552Z23.108
G1A261.890Z23.051
G1A261.228Z22.933
G1A260.831Z22.830
G1A260.302Z22.630
G1A259.507Z22.217
G1A256.992Z20.780
G1A254.608Z19.840
G1A235.410
G1A229.452Z20.455
G1A226.142Z20.888
G1A224.553Z21.049
G1A222.170Z21.222
G1A219.654Z21.316
G1A217.006Z21.337
G1A213.961Z21.283
G1A208.268Z21.062
G1A203.104Z20.866
G1A196.352Z20.650
G1A191.585Z20.552
G1A189.334Z20.427
G1A188.805Z20.369
G1A188.408Z20.284
G1A187.878Z20.116
G1A187.746Z20.026
G1A187.613Z19.840
G1A153.718
G1A148.687Z20.101
G1A147.098Z20.240
G1A144.980Z20.377
G1A143.656Z20.423
G1A141.008Z20.449
G1A138.757Z20.423
G1A137.565Z20.349
G1A136.374Z20.233
G1A135.712Z20.117
G1A135.314Z20.003
G1A135.050Z19.883
G1A134.917Z19.840
G1A44.619
G1A43.693Z20.082
G1A43.295Z20.235
G1A42.898Z20.316
G1A42.236Z20.389
G1A40.250Z20.476
G1A36.146
G1A33.365Z20.399
G1A32.438Z20.369
G1A31.114Z20.302
G1A30.452Z20.231
G1A26.745Z19.955
G1A25.686Z19.850
G1A24.892Z19.840
G1A0.000
G1X64.312
G1X64.243Z20.708
G1X64.175Z20.809
G1X63.900Z21.066
G1A0.132Z21.009
G1A0.265Z20.976
G1A0.530Z20.853
G1A0.662Z20.734
G1A0.794Z19.840
G1A19.595
G1A20.919Z19.905
G1A23.170Z19.960
G1A26.745Z19.946
G1A29.526Z19.919
G1A32.438Z20.021
G1A34.954Z20.046
G1A37.072Z20.038
G1A38.529Z19.979
G1A39.456Z19.887
G1A39.985Z19.840
G1A153.851
G1A159.809Z19.996
G1A162.324Z20.179
G1A163.516Z20.239
G1A165.899Z20.266
G1A167.620Z20.254
G1A168.680Z20.131
G1A168.812Z20.094
G1A169.209Z19.871
G1A169.474Z19.840
G1A183.376
G1A183.509Z20.737
G1A183.773Z20.828
G1A184.038Z20.895
G1A184.833Z20.992
G1A186.554Z21.077
G1A191.585Z21.152
G1A195.292Z21.195
G1A202.574Z21.376
G1A207.209Z21.558
G1A215.815Z21.923
G1A217.933Z21.958
G1A220.051Z21.950
G1A221.508Z21.889
G1A222.964Z21.779
G1A224.553Z21.602
G1A226.804Z21.288
G1A228.658Z20.986
G1A230.379Z20.657
G1A232.497Z20.212
G1A235.013Z19.840
G1A256.727
G1A257.521Z19.997
G1A258.580Z20.679
G1A259.640Z21.382
G1A260.964Z22.098
G1A262.023Z22.552
G1A262.155Z22.600
G1A262.288Z22.683
G1A262.420Z22.885
G1A262.685Z23.092
G1A262.950Z23.209
G1A263.347Z23.303
G1A264.538Z23.441
G1A265.333Z23.459
G1A267.584Z23.450
G1A268.378Z23.392
G1A269.702Z23.193
G1A270.099Z23.118
G1A274.469Z23.125
G1A274.733Z23.173
G1A274.998Z23.294
G1A275.528Z23.432
G1A276.322Z23.579
G1A276.852Z23.617
G1A279.367Z23.611
G1A280.029Z23.508
G1A280.691Z23.389
G1A280.956Z23.299
G1A281.221Z23.117
G1A281.883Z22.269
G1A282.015Z22.174
G1A282.942Z21.697
G1A283.737Z21.387
G1A284.531Z21.096
G1A286.782Z20.018
G1A287.709Z19.840
G1A306.775
G1A308.761Z19.976
G1A310.747Z20.333
G1A312.203Z20.581
G1A313.527Z20.764
G1A314.189Z20.881
G1A315.116Z21.003
G1A317.499Z21.424
G1A318.956Z21.629
G1A320.015Z21.743
G1A321.206Z21.831
G1A322.928Z21.888
G1A327.164Z21.877
G1A332.063Z21.764
G1A336.300Z21.595
G1A339.213Z21.477
G1A346.892Z21.485
G1A354.572Z21.407
G1A356.955Z21.367
G1A358.014Z21.324
G1A358.941Z21.245
G1A359.735Z21.121
G1A360.000Z21.066
G1X63.625Z21.254
G1X63.213Z21.475
G1X62.664Z21.671
G1X61.909Z21.840
G1X61.360Z21.929
G1A356.160Z21.903
G1A350.732Z21.810
G1A345.039Z21.599
G1A342.788Z21.547
G1A341.331Z21.688
G1A340.537Z21.825
G1A339.345Z22.030
G1A337.359Z22.324
G1A336.300Z22.445
G1A335.638Z22.548
G1A334.976Z22.636
G1A333.255Z22.745
G1A328.621Z23.141
G1A326.635Z23.383
G1A323.325Z23.879
G1A319.618Z24.538
G1A318.293Z24.750
G1A316.307Z24.980
G1A314.983Z25.066
G1A312.468Z25.064
G1A312.071Z25.038
G1A311.806Z25.003
G1A311.673Z19.840
G1A293.667
G1A293.534Z24.721
G1A293.402Z24.776
G1A292.608Z24.871
G1A291.548Z24.948
G1A290.489Z24.979
G1A287.444Z25.041
G1A286.782Z25.101
G1A285.723Z25.378
G1A284.399Z25.571
G1A283.207Z25.663
G1A280.956Z25.680
G1A279.500Z25.654
G1A277.249Z25.520
G1A272.747Z25.150
G1A271.423Z25.117
G1A270.099Z25.201
G1A266.789Z25.470
G1A264.936Z25.569
G1A262.023Z25.576
G1A260.302Z25.514
G1A257.918Z25.393
G1A255.403Z25.371
G1A252.622Z25.253
G1A251.033Z25.126
G1A250.107Z25.002
G1A249.577Z24.900
G1A249.445Z19.840
G1A233.159
G1A231.306Z20.318
G1A229.717Z20.904
G1A229.584Z20.967
G1A229.187Z21.559
G1A228.658Z22.011
G1A228.260Z22.279
G1A228.128Z22.346
G1A227.731Z22.631
G1A227.201Z22.863
G1A227.069Z22.962
G1A226.539Z23.185
G1A226.142Z23.275
G1A225.612Z23.353
G1A224.950Z23.374
G1A222.832Z23.360
G1A219.787Z23.196
G1A210.254Z22.483
G1A207.341Z22.222
G1A205.355Z22.018
G1A202.045Z21.706
G1A200.986Z21.628
G1A195.690Z21.653
G1A192.512Z21.642
G1A183.773Z21.482
G1A181.523Z21.411
G1A180.728Z21.333
G1A180.199Z21.210
G1A179.669Z20.998
G1A179.272Z20.812
G1A179.139Z20.720
G1A178.875Z20.429
G1A178.477Z20.452
G1A177.418Z20.652
G1A176.889Z20.697
G1A175.035Z20.691
G1A174.638Z20.652
G1A173.711Z20.729
G1A172.519Z20.754
G1A159.941Z20.746
G1A158.750Z20.667
G1A156.234Z20.398
G1A152.924Z19.977
G1A150.011Z19.840
G1A35.748
G1A33.630Z19.911
G1A32.174Z19.963
G1A30.717Z20.050
G1A29.526Z20.166
G1A26.216Z20.576
G1A22.243Z20.980
G1A20.787Z21.193
G1A19.993Z21.274
G1A18.404Z21.311
G1A13.902Z21.299
G1A12.313Z21.242
G1A11.254Z21.152
G1A10.460Z20.999
G1A9.930Z21.123
G1A8.076Z21.422
G1A6.223Z21.695
G1A5.031Z21.818
G1A2.913Z21.894
G1A0.000Z21.929
G1X60.811Z21.962
G1X58.820
G1A8.209Z21.951
G1A10.725Z21.862
G1A12.975Z21.725
G1A14.829Z21.555
G1A16.021Z21.391
G1A16.418Z21.315
G1A24.494Z21.301
G1A25.421Z21.244
G1A26.480Z21.101
G1A28.731Z20.694
G1A28.996Z20.720
G1A30.585Z20.960
G1A30.717Z21.006
G1A30.982Z21.167
G1A31.247Z21.299
G1A32.041Z21.854
G1A32.306Z22.012
G1A32.703Z22.206
G1A33.100Z22.313
G1A33.365Z22.327
G1A33.498Z22.368
G1A33.630Z22.377
G1A33.762Z22.415
G1A34.027Z22.430
G1A34.424Z22.469
G1A34.557Z22.788
G1A34.822Z24.041
G1A35.219Z24.362
G1A35.484Z24.507
G1A35.881Z24.647
G1A36.543Z24.822
G1A36.675Z24.867
G1A37.072Z25.133
G1A38.264Z25.511
G1A39.191Z25.976
G1A39.456Z26.049
G1A40.515Z26.153
G1A41.442Z26.188
G1A42.501Z26.204
G1A44.884Z26.197
G1A46.473Z26.143
G1A47.400Z26.054
G1A47.929Z25.924
G1A48.591Z25.784
G1A48.724Z25.779
G1A48.989Z25.733
G1A49.121Z25.720
G1A49.386Z25.647
G1A49.518Z25.633
G1A49.783Z25.561
G1A49.915Z25.468
G1A50.180Z25.380
G1A50.975Z24.962
G1A51.637Z24.554
G1A51.769Z20.834
G1A52.299Z20.896
G1A52.828Z20.923
G1A55.741Z20.914
G1A57.330Z20.742
G1A59.316Z20.422
G1A59.978Z20.272
G1A60.772Z20.166
G1A61.434Z19.997
G1A62.096Z19.840
G1A133.593
G1A133.726Z24.243
G1A133.858Z24.426
G1A133.990Z24.506
G1A134.785Z24.742
G1A137.168Z25.138
G1A137.565Z25.152
G1A137.830Z25.198
G1A140.875Z25.203
G1A141.273Z25.143
G1A141.537Z25.141
G1A142.861Z24.957
G1A143.259Z24.892
G1A143.656Z24.828
G1A144.185Z24.686
G1A144.715Z24.512
G1A145.112Z24.300
G1A145.642Z23.912
G1A146.304Z23.389
G1A146.569Z23.061
G1A146.966Z22.482
G1A147.760Z22.044
G1A148.157Z21.929
G1A148.952Z21.757
G1A149.217Z21.744
G1A149.349Z21.711
G1A149.481
G1A149.614Z21.665
G1A149.746Z21.645
G1A149.879Z21.587
G1A150.011Z21.571
G1A150.408Z21.472
G1A150.673Z21.439
G1A152.129Z21.060
G1A153.586Z20.712
G1A154.248Z20.509
G1A154.645Z20.376
G1A156.366Z20.612
G1A157.690Z20.719
G1A159.014Z20.754
G1A167.488
G1A168.680Z20.999
G1A170.136Z21.198
G1A171.328Z21.287
G1A175.432Z21.463
G1A183.641Z21.635
G1A186.554Z21.657
G1A200.324Z21.661
G1A201.648Z21.797
G1A203.104Z22.031
G1A203.501Z22.121
G1A203.898Z22.180
G1A204.561Z22.313
G1A204.825Z22.374
G1A205.752Z22.542
G1A207.738Z22.841
G1A210.651Z23.215
G1A215.020Z23.688
G1A217.403Z23.907
G1A218.860Z24.104
G1A219.919Z24.312
G1A222.170Z24.828
G1A223.229Z25.009
G1A224.288Z25.117
G1A226.407Z25.211
G1A233.027Z25.228
G1A235.013Z25.301
G1A237.793Z25.453
G1A239.779Z25.631
G1A243.487Z26.079
G1A248.915Z26.868
G1A251.033Z27.130
G1A252.622Z27.257
G1A254.476Z27.331
G1A256.727Z27.348
G1A259.242Z27.331
G1A261.890Z27.231
G1A264.406Z27.047
G1A267.716Z26.692
G1A268.510Z26.613
G1A270.497Z26.556
G1A274.204Z26.665
G1A277.381Z26.833
G1A278.970Z26.986
G1A280.956Z27.141
G1A283.207Z27.251
G1A285.325Z27.291
G1A289.298Z27.276
G1A291.946Z27.188
G1A294.991Z27.003
G1A297.109Z26.818
G1A299.757Z26.499
G1A302.008Z26.225
G1A306.510Z25.783
G1A308.893Z25.622
G1A311.541Z25.518
G1A317.499Z25.507
G1A322.928Z25.340
G1A323.722Z25.258
G1A324.516Z25.096
G1A327.297Z24.351
G1A329.150Z23.920
G1A331.269Z23.554
G1A333.122Z23.294
G1A335.373Z23.020
G1A336.697Z22.842
G1A338.286Z22.658
G1A338.683Z22.623
G1A339.345Z22.445
G1A340.140Z22.285
G1A340.537Z22.175
G1A341.199Z22.038
G1A341.596Z21.868
G1A341.861Z21.796
G1A341.993Z21.716
G1A342.391Z21.644
G1A342.920Z21.585
G1A345.303Z21.690
G1A347.819Z21.828
G1A352.453Z21.953
G1A360.000Z21.962
G1X56.280
G1A351.526Z21.951
G1A348.349Z21.847
G1A346.760Z21.756
G1A344.774Z21.609
G1A342.126Z21.500
G1A340.272Z21.491
G1A340.007Z21.553
G1A339.875Z22.038
G1A339.743Z22.090
G1A339.478Z22.245
G1A339.213Z22.338
G1A339.081Z22.363
G1A338.948Z22.431
G1A338.683Z22.512
G1A338.551Z22.596
G1A338.154Z22.671
G1A337.095Z22.816
G1A336.035Z22.988
G1A334.844Z23.168
G1A332.460Z23.502
G1A330.077Z23.920
G1A328.621Z24.317
G1A327.562Z24.732
G1A326.370Z25.088
G1A325.576Z25.250
G1A324.649Z25.351
G1A321.339Z25.469
G1A315.778Z25.625
G1A313.395Z25.644
G1A311.673Z25.632
G1A309.820Z25.889
G1A301.081Z27.204
G1A297.506Z27.620
G1A294.594Z27.869
G1A290.886Z28.110
G1A285.458Z28.375
G1A283.075Z28.417
G1A279.500Z28.400
G1A276.190Z28.296
G1A270.232Z28.080
G1A268.113Z28.050
G1A266.127Z28.113
G1A262.817Z28.264
G1A258.845Z28.263
G1A255.668Z28.146
G1A252.887Z27.990
G1A250.769Z27.821
G1A248.650Z27.587
G1A243.884Z26.921
G1A241.236Z26.460
G1A238.588Z25.974
G1A235.410Z25.497
G1A234.086Z25.365
G1A232.365Z25.270
G1A230.511Z25.220
G1A224.421Z25.211
G1A222.170Z25.122
G1A220.581Z24.990
G1A219.125Z24.779
G1A217.933Z24.557
G1A216.344Z24.200
G1A215.550Z23.946
G1A213.961Z23.796
G1A212.240Z23.649
G1A209.327Z23.292
G1A206.811Z22.882
G1A205.885Z22.700
G1A205.090Z22.509
G1A204.825Z22.421
G1A204.693Z22.392
G1A204.428Z22.273
G1A204.296Z22.244
G1A204.031Z22.126
G1A203.766Z22.046
G1A203.634Z21.948
G1A203.104Z21.832
G1A202.839Z21.750
G1A202.177Z21.654
G1A183.376Z21.647
G1A177.286Z21.533
G1A172.917Z21.421
G1A169.077Z21.245
G1A168.150Z21.150
G1A167.356Z21.002
G1A166.429Z20.754
G1A159.676Z20.746
G1A157.955Z20.665
G1A157.558Z20.631
G1A157.426Z20.654
G1A155.704Z21.314
G1A155.042Z21.690
G1A154.910Z21.787
G1A154.380Z22.293
G1A153.851Z22.677
G1A152.924Z23.186
G1A151.865Z23.669
G1A151.070Z23.975
G1A150.276Z24.187
G1A148.952Z24.513
G1A148.555Z24.644
G1A147.231Z25.269
G1A146.701Z25.449
G1A146.039Z25.592
G1A144.980Z25.717
G1A143.921Z25.756
G1A142.861Z25.803
G1A138.492Z25.824
G1A136.506Z25.795
G1A133.593Z25.668
G1A132.534Z25.563
G1A132.004Z25.473
G1A131.078Z25.191
G1A130.680Z25.030
G1A130.548Z24.963
G1A130.283Z24.256
G1A129.621Z24.113
G1A129.356Z23.973
G1A129.092Z23.766
G1A128.959Z23.281
G1A128.032Z23.264
G1A125.384Z23.019
G1A124.458Z22.999
G1A123.266Z22.957
G1A120.353Z22.834
G1A118.499Z22.728
G1A117.705Z22.792
G1A115.322Z22.786
G1A115.057Z22.752
G1A114.660Z22.651
G1A114.527Z21.856
G1A114.263Z21.770
G1A114.130Z21.784
G1A113.336Z22.028
G1A112.806Z22.211
G1A112.012Z22.400
G1A111.085Z22.568
G1A109.629Z22.787
G1A108.569Z23.046
G1A107.775Z23.309
G1A106.716Z23.833
G1A106.054Z24.064
G1A105.127Z24.270
G1A104.200Z24.404
G1A103.406Z24.490
G1A102.611Z24.510
G1A99.301Z24.495
G1A98.242Z24.423
G1A96.653Z24.301
G1A96.521Z24.194
G1A96.388Z19.840
G1A88.577
G1A88.444Z20.871
G1A88.179Z21.015
G1A87.253Z21.214
G1A87.120Z21.359
G1A86.988Z21.604
G1A86.723Z21.771
G1A86.591Z21.831
G1A86.458Z24.588
G1A86.061Z24.666
G1A85.002Z24.774
G1A83.016Z24.859
G1A79.706Z24.892
G1A77.587Z24.876
G1A76.396Z24.823
G1A74.410Z24.631
G1A72.159Z24.393
G1A70.570Z24.329
G1A69.378Z24.198
G1A68.452Z24.102
G1A66.201Z23.988
G1A62.891Z23.987
G1A62.626Z23.978
G1A62.494Z24.016
G1A62.096Z24.219
G1A61.832Z24.322
G1A61.699Z24.341
G1A61.434Z24.411
G1A61.302Z24.431
G1A61.170Z24.480
G1A60.375Z24.607
G1A60.243Z24.613
G1A59.978Z24.662
G1A59.448Z24.681
G1A57.462Z24.671
G1A57.065Z24.607
G1A56.800Z24.603
G1A56.403Z24.532
G1A56.271
G1A55.741Z24.435
G1A55.609Z24.530
G1A55.344Z24.977
G1A55.211Z25.111
G1A54.417Z25.463
G1A54.285Z25.515
G1A54.152Z25.817
G1A54.020Z25.912
G1A53.755Z25.992
G1A53.093Z26.106
G1A51.372Z26.264
G1A50.842Z26.323
G1A49.253Z26.529
G1A47.797Z26.600
G1A45.943Z26.636
G1A44.487Z26.695
G1A41.971Z26.690
G1A40.250Z26.626
G1A37.337Z26.432
G1A36.146Z26.327
G1A35.351Z26.196
G1A34.822Z26.033
G1A34.424Z25.855
G1A32.438Z25.325
G1A31.512Z25.066
G1A30.717Z24.799
G1A30.320Z24.592
G1A29.923Z24.304
G1A29.658Z24.033
G1A29.526Z23.837
G1A29.393Z23.104
G1A29.261Z22.656
G1A28.466Z22.248
G1A28.069Z21.972
G1A27.142Z21.179
G1A27.010Z21.106
G1A26.083Z21.235
G1A25.156Z21.292
G1A23.832Z21.311
G1A20.125Z21.321
G1A18.271Z21.406
G1A17.212Z21.440
G1A15.359Z21.648
G1A13.240Z21.816
G1A10.989Z21.916
G1A8.076Z21.962
G1A0.000
G1X53.740
G1A7.414Z21.950
G1A10.592Z21.881
G1A11.784Z21.834
G1A15.888Z22.263
G1A18.271Z22.476
G1A19.463Z22.560
G1A20.655Z22.626
G1A21.846Z22.689
G1A23.303Z22.688
G1A23.567Z22.660
G1A23.832Z22.699
G1A25.289Z22.985
G1A25.951Z23.183
G1A27.010Z23.574
G1A27.142Z23.651
G1A28.069Z24.371
G1A28.731Z24.744
G1A29.790Z25.243
G1A30.850Z25.633
G1A31.909Z25.952
G1A34.557Z26.512
G1A36.278Z26.787
G1A37.072Z26.861
G1A39.058Z26.957
G1A46.473Z27.133
G1A48.591Z27.146
G1A50.975Z27.084
G1A52.696Z27.006
G1A53.490Z26.902
G1A54.285Z26.753
G1A55.079Z26.534
G1A55.476Z26.355
G1A56.138Z26.198
G1A56.403Z26.229
G1A58.124Z26.569
G1A59.448Z26.793
G1A60.772Z26.922
G1A62.626Z27.016
G1A65.274Z27.152
G1A67.922Z27.239
G1A69.246Z27.228
G1A70.835Z27.142
G1A71.629Z27.094
G1A73.218Z27.091
G1A73.880Z27.037
G1A74.675Z26.990
G1A76.131Z26.889
G1A77.985Z26.820
G1A79.706Z26.710
G1A83.281Z26.323
G1A84.472Z26.237
G1A85.531Z26.161
G1A86.988Z26.008
G1A87.385Z25.957
G1A88.179Z26.035
G1A88.577Z26.048
G1A88.841Z26.073
G1A89.503Z26.088
G1A89.901Z26.117
G1A91.092Z26.118
G1A91.490Z26.076
G1A92.019Z26.075
G1A92.284Z26.036
G1A92.814Z26.018
G1A92.946Z25.992
G1A93.211Z25.974
G1A93.608Z25.928
G1A95.329Z25.616
G1A95.594Z25.550
G1A97.183Z25.804
G1A99.169Z26.074
G1A100.360Z26.193
G1A101.420Z26.252
G1A102.611Z26.307
G1A106.583Z26.313
G1A108.569Z26.309
G1A109.893Z26.341
G1A112.144Z26.325
G1A113.468Z26.263
G1A114.792Z26.208
G1A116.249Z26.223
G1A117.175Z26.270
G1A118.897Z26.256
G1A121.147Z26.110
G1A122.207Z26.012
G1A123.398Z25.839
G1A124.325Z25.617
G1A124.590Z25.546
G1A126.179Z25.535
G1A126.841Z25.506
G1A128.165Z25.446
G1A128.297Z25.456
G1A128.562Z25.624
G1A129.489Z25.921
G1A130.151Z26.049
G1A131.210Z26.151
G1A132.534Z26.215
G1A137.830Z26.282
G1A141.008Z26.235
G1A143.259Z26.139
G1A146.039Z25.941
G1A147.098Z25.848
G1A148.025Z25.707
G1A148.687Z25.518
G1A149.349Z25.289
G1A150.276Z25.075
G1A151.732Z24.659
G1A152.791Z24.278
G1A153.983Z23.756
G1A154.910Z23.267
G1A155.439Z22.903
G1A155.837Z22.520
G1A156.234Z22.076
G1A157.955Z21.664
G1A158.882Z21.598
G1A159.412Z21.556
G1A160.074Z21.501
G1A160.471Z21.456
G1A161.000Z21.415
G1A161.927Z21.394
G1A166.429Z21.222
G1A168.812Z21.112
G1A170.004Z21.229
G1A173.976Z21.407
G1A180.728Z21.574
G1A186.819Z21.657
G1A200.059Z21.647
G1A200.853Z21.594
G1A201.383Z21.524
G1A201.780Z21.425
G1A202.442Z21.155
G1A202.574Z21.138
G1A203.766Z21.211
G1A204.296Z21.236
G1A205.090Z21.262
G1A206.414Z21.249
G1A207.076Z21.209
G1A207.606Z21.175
G1A207.738Z22.614
G1A208.003Z22.742
G1A208.665Z22.951
G1A210.121Z23.250
G1A211.578Z23.463
G1A213.564Z23.701
G1A215.417Z23.839
G1A216.477Z24.177
G1A218.065Z24.557
G1A219.257Z24.774
G1A220.581Z24.945
G1A221.905Z25.059
G1A224.156Z25.171
G1A226.407Z25.220
G1A228.525Z25.228
G1A231.041Z25.367
G1A232.630Z25.553
G1A234.748Z25.879
G1A236.999Z26.318
G1A241.765Z27.423
G1A245.737Z28.192
G1A248.518Z28.678
G1A251.298Z29.037
G1A253.681Z29.266
G1A256.594Z29.481
G1A259.375Z29.593
G1A261.361Z29.622
G1A264.009Z29.603
G1A268.246Z29.462
G1A270.761Z29.508
G1A272.880Z29.619
G1A276.587Z29.848
G1A279.632Z29.976
G1A281.618Z30.014
G1A284.663Z30.006
G1A286.914Z29.915
G1A289.695Z29.708
G1A293.402Z29.350
G1A296.315Z29.023
G1A299.890Z28.532
G1A302.935Z28.017
G1A304.921Z27.606
G1A308.099Z26.844
G1A311.144Z26.226
G1A312.335Z26.027
G1A314.057Z26.040
G1A316.175Z25.999
G1A318.691Z25.868
G1A319.750Z25.795
G1A321.206Z25.639
G1A322.398Z25.478
G1A323.457Z25.391
G1A324.252Z25.283
G1A324.914Z25.146
G1A325.576Z24.967
G1A326.238Z24.721
G1A326.502Z24.580
G1A326.767Z24.461
G1A327.297Z24.118
G1A327.959Z23.919
G1A328.621Z23.794
G1A329.680Z23.613
G1A332.858Z23.039
G1A332.990Z23.011
G1A333.520Z22.816
G1A333.652Z22.782
G1A333.784Z21.624
G1A334.182Z21.609
G1A334.844Z21.671
G1A336.300Z21.881
G1A337.757Z22.022
G1A339.345Z22.101
G1A341.067Z22.132
G1A342.655Z22.113
G1A344.906Z22.038
G1A348.084Z21.849
G1A350.202Z21.743
G1A351.923Z21.871
G1A354.042Z21.955
G1A360.000Z21.962
G1X52.367Z21.963
G1X51.337Z22.197
G1X51.200Z22.227
G1A355.896Z22.111
G1A354.042Z22.133
G1A351.261Z22.235
G1A348.878Z22.382
G1A345.436Z22.635
G1A342.788Z22.753
G1A340.405Z22.789
G1A337.757Z22.777
G1A336.168Z22.716
G1A335.638Z22.693
G1A333.387Z22.820
G1A332.196Z22.926
G1A330.077Z23.189
G1A329.150Z23.286
G1A328.224Z23.554
G1A327.429Z23.716
G1A326.370Z23.991
G1A324.914Z24.439
G1A324.384Z24.677
G1A323.457Z25.195
G1A322.133Z25.790
G1A321.604Z25.972
G1A320.809Z26.144
G1A320.015Z26.248
G1A318.691Z26.377
G1A316.705Z26.468
G1A314.189Z26.529
G1A312.600Z26.770
G1A311.011Z27.124
G1A306.113Z28.448
G1A304.259Z28.877
G1A301.876Z29.343
G1A299.360Z29.774
G1A296.712Z30.119
G1A294.064Z30.379
G1A290.622Z30.601
G1A287.312Z30.741
G1A282.677Z30.812
G1A277.779Z30.805
G1A274.071Z30.704
G1A269.702Z30.576
G1A266.657Z30.542
G1A260.434Z30.533
G1A257.124Z30.435
G1A254.079Z30.285
G1A250.636Z30.014
G1A248.121Z29.738
G1A246.002Z29.438
G1A243.751Z29.012
G1A240.441Z28.280
G1A238.323Z27.737
G1A233.556Z26.421
G1A232.100Z26.086
G1A230.246Z25.746
G1A229.584Z25.666
G1A226.407Z25.400
G1A225.083Z25.231
G1A224.421Z25.089
G1A223.891Z24.914
G1A223.097Z24.848
G1A222.435Z24.746
G1A221.508Z24.525
G1A219.389Z23.830
G1A218.330Z23.438
G1A217.006Z23.155
G1A215.815Z22.841
G1A215.417Z22.702
G1A212.769Z22.392
G1A211.313Z22.163
G1A210.254Z22.244
G1A208.268Z22.310
G1A205.223Z22.301
G1A203.104Z22.224
G1A200.059Z22.007
G1A193.571Z21.465
G1A190.394Z21.356
G1A189.334Z21.328
G1A188.408Z21.383
G1A185.627Z21.404
G1A181.655Z21.373
G1A177.021Z21.246
G1A174.770Z21.160
G1A171.460Z21.348
G1A170.533Z21.401
G1A167.223Z21.785
G1A164.443Z22.158
G1A162.722Z22.457
G1A158.220Z23.294
G1A154.910Z23.861
G1A154.513Z24.009
G1A152.924Z24.671
G1A150.938Z25.400
G1A149.879Z25.735
G1A148.952Z25.926
G1A147.893Z26.082
G1A146.171Z26.244
G1A142.464Z26.445
G1A138.624Z26.581
G1A134.917Z26.648
G1A132.137Z26.643
G1A129.886Z26.575
G1A128.694Z26.562
G1A128.430Z26.567
G1A126.576Z26.821
G1A123.663Z27.297
G1A120.088Z27.704
G1A118.102Z27.907
G1A116.249Z28.088
G1A113.865Z28.234
G1A112.409Z28.262
G1A109.629Z28.255
G1A108.834Z28.228
G1A106.451Z28.212
G1A104.730Z28.195
G1A102.744Z28.129
G1A101.155Z27.996
G1A100.493Z27.913
G1A98.639Z27.900
G1A96.256Z27.769
G1A95.064Z27.651
G1A94.800Z27.612
G1A93.873Z27.672
G1A90.828Z27.665
G1A88.709Z27.554
G1A87.650Z27.449
G1A86.591Z27.300
G1A85.929Z27.295
G1A84.737Z27.422
G1A84.075Z27.545
G1A83.016Z27.865
G1A81.824Z28.107
G1A80.633Z28.276
G1A78.382Z28.482
G1A77.455Z28.592
G1A75.866Z28.684
G1A72.424Z28.688
G1A70.835Z28.651
G1A69.378Z28.686
G1A66.333Z28.671
G1A64.347Z28.583
G1A62.891Z28.456
G1A60.375Z28.169
G1A58.389Z27.861
G1A57.197Z27.609
G1A55.609Z27.249
G1A55.476Z27.236
G1A53.358Z27.453
G1A51.637Z27.495
G1A48.591Z27.483
G1A46.605Z27.432
G1A41.442Z27.265
G1A35.881Z26.921
G1A34.822Z26.784
G1A33.630Z26.551
G1A31.909Z26.126
G1A30.452Z25.697
G1A28.334Z24.974
G1A28.069Z24.906
G1A25.554Z24.584
G1A20.257Z23.837
G1A16.285Z23.188
G1A14.961Z23.025
G1A13.240Z22.867
G1A11.122Z22.739
G1A2.780Z22.337
G1A0.000Z22.227
G1X49.484Z22.521
G1X48.660Z22.640
G1A7.150Z23.192
G1A11.254Z23.548
G1A17.609Z24.128
G1A18.669Z24.190
G1A23.038Z24.785
G1A27.672Z25.477
G1A28.996Z25.723
G1A31.512Z26.246
G1A33.498Z26.581
G1A35.484Z26.871
G1A37.602Z27.080
G1A39.853Z27.267
G1A43.693Z27.529
G1A46.473Z27.625
G1A50.048Z27.679
G1A52.166Z27.699
G1A53.093Z27.785
G1A54.417Z27.989
G1A55.344Z28.092
G1A57.595Z28.537
G1A58.786Z28.761
G1A59.448Z28.856
G1A62.096Z29.078
G1A64.082Z29.178
G1A68.849Z29.341
G1A70.173Z29.378
G1A71.497Z29.493
G1A73.218Z29.555
G1A76.263Z29.564
G1A80.765Z29.522
G1A82.221Z29.440
G1A85.929Z29.080
G1A86.988Z28.930
G1A87.385Z28.858
G1A90.298Z28.592
G1A92.681Z28.577
G1A93.476Z28.569
G1A95.197Z28.836
G1A96.786Z29.024
G1A98.904Z29.196
G1A100.890Z29.305
G1A103.008Z29.354
G1A105.127Z29.394
G1A106.848Z29.438
G1A108.967Z29.427
G1A110.688Z29.356
G1A113.336Z29.159
G1A116.513Z29.031
G1A118.632Z28.933
G1A120.353Z28.798
G1A122.736Z28.590
G1A124.855Z28.428
G1A126.841Z28.200
G1A127.768Z28.045
G1A128.297Z27.892
G1A128.562Z27.779
G1A130.945Z27.666
G1A131.872Z27.585
G1A133.064Z27.432
G1A135.050Z27.295
G1A138.227Z26.952
G1A140.213Z26.749
G1A143.788Z26.504
G1A145.509Z26.367
G1A148.290Z26.130
G1A149.481Z25.949
G1A150.541Z25.720
G1A152.791Z25.050
G1A154.645Z24.587
G1A158.352Z24.040
G1A162.457Z23.516
G1A166.032Z23.021
G1A167.753Z22.778
G1A168.150Z22.717
G1A170.666Z22.603
G1A173.711Z22.408
G1A178.610Z22.300
G1A183.244Z22.265
G1A190.129Z22.076
G1A193.042Z22.000
G1A196.352Z22.228
G1A199.529Z22.451
G1A201.118Z22.495
G1A208.665Z22.496
G1A210.254Z22.730
G1A211.048Z22.815
G1A211.843Z22.991
G1A212.769Z23.135
G1A214.623Z23.360
G1A215.153Z23.411
G1A215.815Z23.570
G1A219.257Z24.151
G1A221.640Z24.655
G1A222.964Z25.047
G1A223.891Z25.353
G1A224.686Z25.537
G1A226.407Z25.798
G1A228.260Z26.029
G1A229.717Z26.320
G1A231.703Z26.791
G1A234.748Z27.641
G1A238.191Z28.613
G1A239.912Z29.055
G1A241.898Z29.489
G1A244.281Z29.915
G1A246.135Z30.166
G1A248.385Z30.386
G1A251.431Z30.618
G1A254.741Z30.795
G1A259.110Z30.909
G1A263.347Z30.963
G1A273.542Z30.993
G1A279.367Z30.974
G1A287.576Z30.961
G1A292.078Z30.853
G1A295.123Z30.696
G1A298.168Z30.470
G1A300.552Z30.217
G1A302.273Z29.971
G1A303.862Z29.681
G1A306.113Z29.172
G1A308.761Z28.480
G1A312.203Z27.583
G1A313.659Z27.280
G1A315.645Z26.966
G1A318.029Z26.666
G1A318.956Z26.604
G1A320.809Z26.534
G1A321.736Z26.440
G1A322.398Z26.318
G1A323.192Z26.075
G1A325.708Z25.116
G1A326.767Z24.776
G1A328.224Z24.408
G1A329.018Z24.237
G1A330.739Z24.030
G1A332.593Z23.779
G1A335.373Z23.488
G1A336.300Z23.352
G1A336.830Z23.235
G1A340.537Z23.201
G1A343.053Z23.139
G1A346.363Z22.951
G1A349.408Z22.722
G1A352.453Z22.512
G1A354.704Z22.425
G1A359.206Z22.588
G1A360.000Z22.640
G1X46.395Z22.982
G1X46.120Z23.018
G1A355.631Z22.805
G1A354.969Z22.788
G1A351.129Z22.974
G1A347.025Z23.178
G1A344.774Z23.230
G1A343.185Z23.236
G1A342.655Z23.335
G1A341.464Z23.444
G1A339.081Z23.624
G1A337.757Z23.755
G1A335.638Z24.119
G1A334.182Z24.334
G1A333.917Z24.362
G1A333.122Z24.534
G1A330.077Z24.991
G1A327.562Z25.341
G1A326.635Z25.545
G1A323.325Z26.418
G1A322.663Z26.534
G1A321.868Z26.591
G1A320.544Z26.694
G1A317.234Z27.111
