(VECTRIC POST REVISION)
(3E2EE37E5DFC263CCAE0AD2C5AFB7ACA)
T1
G17
G21
G90
G0Z33.020
G0X0.000A0.000
S16000M3
G0X76.200A360.000Z17.780
G1Z0.000F381.0
G1A0.000F1270.0
G1X75.882
G1A360.000
G1X75.565
G1A0.000
G1X75.247
G1A360.000
G1X74.930
G1A0.000
G1X74.612
G1A360.000
G1X74.295
G1A0.000
G1X73.977
G1A360.000
G1X73.660
G1A0.000
G1X73.342
G1A360.000
G1X73.025
G1A0.000
G1X72.707
G1A360.000
G1X72.390
G1A0.000
G1X72.072
G1A360.000
G1X71.755
G1A0.000
G1X71.437
G1A360.000
G1X71.120
G1A0.000
G1X70.802
G1A360.000
G1X70.485
G1A0.000
G1X70.167
G1A360.000
G1X69.850
G1A0.000
G1X69.532
G1A360.000
G1X69.215
G1A0.000
G1X68.897
G1A360.000
G1X68.580
G1A0.000
G1X68.262
G1A360.000
G1X67.945
G1A0.000
G1X67.627
G1A360.000
G1X67.310
G1A0.000
G1X66.992
G1A360.000
G1X66.675
G1A0.000
G1X66.357
G1A360.000
G1X66.040
G1A0.000
G1X65.722
G1A360.000
G1X65.405
G1A0.000
G1X65.087
G1A360.000
G1X64.770
G1A0.000
G1X64.452
G1A360.000
G1X64.135
G1A0.000
G1X63.817
G1A360.000
G1X63.500
G1A0.000
G1X63.182
G1A360.000
G1X62.865
G1A0.000
G1X62.746Z0.143
G1X62.547Z0.387
G1A38.515Z0.367
G1A66.126Z0.380
G1A105.696Z0.371
G1A126.273Z0.380
G1A165.667Z0.371
G1A186.243Z0.380
G1A225.638Z0.371
G1A246.214Z0.380
G1A285.608Z0.371
G1A306.185Z0.380
G1A345.579Z0.371
G1A360.000Z0.387
G1X62.270Z0.701
G1X62.230Z0.737
G1A327.113Z0.685
G1A296.864Z0.732
G1A267.142Z0.685
G1A236.893Z0.732
G1A207.171Z0.685
G1A176.922Z0.732
G1A147.025Z0.685
G1A116.952Z0.732
G1A87.054Z0.685
G1A56.981Z0.732
G1A27.084Z0.685
G1A0.000Z0.737
G1X61.952Z0.944
G1X61.912Z0.968
G1A26.556Z0.920
G1A42.736Z0.931
G1A62.785Z0.964
G1A86.527Z0.920
G1A102.882Z0.932
G1A122.931Z0.964
G1A146.497Z0.920
G1A162.853Z0.932
G1A182.902Z0.964
G1A206.468Z0.920
G1A222.824Z0.932
G1A242.873Z0.964
G1A266.615Z0.920
G1A282.794Z0.932
G1A302.843Z0.964
G1A326.585Z0.920
G1A342.765Z0.931
G1A360.000Z0.968
G1X61.595Z1.157
G1A327.640Z1.108
G1A296.512Z1.153
G1A267.670Z1.108
G1A236.541Z1.153
G1A207.523Z1.109
G1A176.571Z1.153
G1A147.553Z1.108
G1A116.600Z1.153
G1A87.582Z1.108
G1A56.453Z1.152
G1A27.611Z1.108
G1A0.000Z1.157
G1X61.277Z1.303
G1A21.104Z1.269
G1A32.008Z1.249
G1A54.695Z1.299
G1A77.733Z1.279
G1A91.803Z1.249
G1A114.490Z1.299
G1A137.528Z1.280
G1A151.773Z1.249
G1A174.636Z1.299
G1A197.675Z1.280
G1A211.744Z1.249
G1A234.607Z1.299
G1A257.645Z1.279
G1A271.891Z1.249
G1A294.577Z1.299
G1A317.616Z1.280
G1A331.861Z1.249
G1A354.548Z1.299
G1A360.000Z1.303
G1X60.960Z1.384
G1A333.972Z1.382
G1A333.796Z1.957
G1A333.444Z2.063
G1A332.916Z2.114
G1A332.389Z2.236
G1A332.213Z4.813
G1A331.861Z4.919
G1A330.454Z5.044
G1A329.927Z5.071
G1A328.872Z5.004
G1A327.992Z4.921
G1A327.640Z4.814
G1A327.465Z2.237
G1A326.937Z2.115
G1A326.409Z2.064
G1A326.058Z1.957
G1A325.882Z1.382
G1A288.950Z1.387
G1A288.774Z1.957
G1A288.422Z2.063
G1A287.894Z2.115
G1A287.367Z2.237
G1A287.191Z4.814
G1A286.839Z4.921
G1A285.432Z5.046
G1A284.905Z5.072
G1A284.025Z5.016
G1A282.970Z4.919
G1A282.618Z4.813
G1A282.443Z2.236
G1A281.915Z2.114
G1A281.387Z2.063
G1A281.036Z1.956
G1A280.860Z1.387
G1A263.273Z1.384
G1A243.928Z1.386
G1A243.752Z1.957
G1A243.400Z2.064
G1A242.873Z2.115
G1A242.345Z2.237
G1A242.169Z4.816
G1A241.817Z4.923
G1A240.410Z5.048
G1A239.707Z5.067
G1A238.124Z4.943
G1A237.772Z4.879
G1A237.597Z4.811
G1A237.421Z2.235
G1A236.893Z2.113
G1A236.365Z2.062
G1A236.014Z1.955
G1A235.838Z1.386
G1A202.775Z1.385
G1A198.906Z1.387
G1A198.730Z1.957
G1A198.378Z2.064
G1A197.851Z2.115
G1A197.323Z2.237
G1A197.147Z4.818
G1A196.795Z4.924
G1A195.388Z5.050
G1A194.685Z5.065
G1A193.102Z4.941
G1A192.750Z4.877
G1A192.575Z4.809
G1A192.399Z2.234
G1A191.871Z2.108
G1A191.343Z2.027
G1A191.168Z1.960
G1A190.992Z1.387
G1A154.060Z1.382
G1A153.884Z1.955
G1A153.532Z2.061
G1A153.180Z2.103
G1A152.653Z2.229
G1A152.477Z4.797
G1A152.125Z4.904
G1A150.894Z5.015
G1A150.015Z5.070
G1A149.487Z5.060
G1A147.904Z4.932
G1A147.553Z4.868
G1A147.377Z4.800
G1A147.201Z2.230
G1A146.673Z2.104
G1A146.146Z2.024
G1A145.970Z1.956
G1A145.794Z1.382
G1A109.038Z1.387
G1A108.862Z1.956
G1A108.510Z2.062
G1A108.158Z2.104
G1A107.631Z2.230
G1A107.455Z4.799
G1A107.103Z4.906
G1A105.872Z5.016
G1A104.993Z5.071
G1A104.289Z5.043
G1A102.882Z4.930
G1A102.531Z4.866
G1A102.355Z4.798
G1A102.179Z2.230
G1A101.651Z2.104
G1A101.124Z2.023
G1A100.948Z1.955
G1A100.772Z1.387
G1A83.185Z1.385
G1A64.192Z1.386
G1A64.016Z1.952
G1A63.664Z2.058
G1A63.136Z2.109
G1A62.609Z2.231
G1A62.433Z4.801
G1A62.081Z4.908
G1A60.850Z5.018
G1A59.971Z5.074
G1A59.267Z5.042
G1A57.860Z4.917
G1A57.509Z4.810
G1A57.333Z2.235
G1A56.805Z2.113
G1A56.277Z2.062
G1A55.926Z1.955
G1A55.750Z1.386
G1A22.687Z1.385
G1A18.994Z1.387
G1A18.818Z1.955
G1A18.466Z2.062
G1A17.938Z2.113
G1A17.411Z2.235
G1A17.235Z4.811
G1A16.883Z4.917
G1A15.652Z5.028
G1A14.949Z5.069
G1A14.069Z5.019
G1A13.014Z4.923
G1A12.662Z4.816
G1A12.487Z2.237
G1A11.959Z2.116
G1A11.431Z2.064
G1A11.080Z1.958
G1A10.904Z1.387
G1A0.000Z1.384
G1X60.762Z1.429
G1X60.722Z1.886
G1X60.682Z4.353
G1X60.642Z4.541
G1A1.055Z4.602
G1A1.759Z4.708
G1A3.341Z4.807
G1A4.221Z4.905
G1A5.628Z4.985
G1A6.507Z5.071
G1A7.035Z5.112
G1A7.914Z5.214
G1A9.497Z5.376
G1A11.080Z5.531
G1A12.662Z5.682
G1A14.069Z5.778
G1A15.300Z5.794
G1A16.532Z5.732
G1A18.290Z5.581
G1A19.873Z5.426
G1A21.280Z5.278
G1A22.687Z5.133
G1A23.214Z5.077
G1A24.094Z5.004
G1A24.621Z4.954
G1A25.852Z4.880
G1A26.556Z4.793
G1A27.963Z4.713
G1A28.842Z4.592
G1A30.073Z4.521
G1A30.601Z4.439
G1A30.777Z4.396
G1A35.349Z4.311
G1A35.877Z4.244
G1A36.229Z4.114
G1A36.404Z1.981
G1A38.339Z1.980
G1A38.515Z4.113
G1A38.867Z4.243
G1A39.394Z4.310
G1A43.967Z4.393
G1A44.494Z4.497
G1A45.198Z4.556
G1A46.077Z4.605
G1A46.781Z4.711
G1A48.188Z4.802
G1A49.067Z4.900
G1A50.474Z4.981
G1A51.353Z5.066
G1A51.881Z5.104
G1A52.760Z5.206
G1A54.343Z5.368
G1A55.926Z5.525
G1A57.509Z5.676
G1A59.091Z5.784
G1A60.322Z5.798
G1A61.553Z5.736
G1A63.488Z5.571
G1A65.247Z5.391
G1A66.478Z5.267
G1A67.885Z5.122
G1A68.412Z5.071
G1A69.292Z4.999
G1A69.819Z4.948
G1A71.226Z4.866
G1A71.930Z4.778
G1A73.161Z4.706
G1A74.040Z4.585
G1A75.271Z4.514
G1A75.799Z4.432
G1A75.975Z4.389
G1A81.075Z4.302
G1A81.602Z4.235
G1A81.954Z4.104
G1A82.130Z1.977
G1A82.658Z1.977
G1A82.833Z4.104
G1A83.185Z4.234
G1A83.713Z4.301
G1A88.813Z4.387
G1A89.341Z4.491
G1A90.044Z4.550
G1A90.923Z4.599
G1A91.627Z4.705
G1A93.034Z4.795
G1A93.913Z4.894
G1A95.320Z4.974
G1A96.199Z5.060
G1A96.727Z5.093
G1A97.606Z5.195
G1A98.310Z5.264
G1A99.365Z5.370
G1A102.179Z5.650
G1A103.937Z5.779
G1A105.169Z5.799
G1A106.400Z5.748
G1A108.510Z5.569
G1A110.796Z5.344
G1A112.027Z5.209
G1A112.907Z5.120
G1A113.434Z5.070
G1A114.314Z4.998
G1A114.841Z4.947
G1A116.248Z4.865
G1A116.952Z4.777
G1A118.183Z4.705
G1A119.062Z4.584
G1A120.293Z4.513
G1A120.821Z4.431
G1A120.997Z4.388
G1A126.097Z4.301
G1A126.624Z4.234
G1A126.976Z4.104
G1A127.152Z1.976
G1A127.680Z1.976
G1A127.855Z4.104
G1A128.207Z4.235
G1A128.735Z4.302
G1A133.835Z4.388
G1A134.362Z4.492
G1A135.066Z4.551
G1A135.945Z4.600
G1A136.649Z4.706
G1A138.056Z4.796
G1A138.935Z4.895
G1A140.342Z4.975
G1A141.221Z5.061
G1A141.749Z5.094
G1A142.628Z5.196
G1A143.332Z5.266
G1A144.387Z5.372
G1A147.201Z5.652
G1A148.959Z5.781
G1A150.191Z5.797
G1A151.422Z5.747
G1A153.532Z5.567
G1A155.818Z5.341
G1A157.049Z5.206
G1A158.280Z5.076
G1A159.160Z5.004
G1A159.687Z4.953
G1A160.918Z4.879
G1A161.622Z4.791
G1A163.029Z4.711
G1A163.908Z4.589
G1A164.963Z4.526
G1A165.491Z4.444
G1A165.667Z4.401
G1A166.546Z4.375
G1A170.239Z4.312
G1A170.767Z4.245
G1A171.119Z4.115
G1A171.295Z1.981
G1A173.581Z1.981
G1A173.757Z4.116
G1A174.108Z4.246
G1A174.636Z4.313
G1A179.033Z4.386
G1A179.209Z4.403
G1A179.736Z4.507
G1A180.440Z4.566
G1A181.143Z4.606
G1A181.847Z4.712
G1A183.429Z4.810
G1A184.309Z4.909
G1A185.716Z4.989
G1A186.595Z5.074
G1A188.002Z5.221
G1A189.585Z5.382
G1A192.399Z5.661
G1A194.157Z5.783
G1A195.388Z5.789
G1A196.619Z5.725
G1A198.202Z5.588
G1A199.785Z5.433
G1A201.368Z5.271
G1A202.775Z5.114
G1A203.302Z5.071
G1A204.533Z4.959
G1A205.940Z4.876
G1A206.644Z4.789
G1A208.051Z4.709
G1A208.930Z4.588
G1A209.985Z4.525
G1A210.513Z4.443
G1A210.689Z4.400
G1A211.920Z4.369
G1A215.437Z4.310
G1A215.965Z4.243
G1A216.317Z4.112
G1A216.492Z1.980
G1A218.427Z1.980
G1A218.603Z4.114
G1A218.955Z4.244
G1A219.482Z4.311
G1A224.055Z4.396
G1A224.582Z4.500
G1A225.286Z4.559
G1A226.165Z4.608
G1A226.869Z4.713
G1A228.451Z4.812
G1A229.331Z4.910
G1A230.562Z4.982
G1A231.441Z5.067
G1A231.969Z5.107
G1A232.848Z5.209
G1A233.552Z5.278
G1A235.838Z5.513
G1A237.772Z5.690
G1A239.179Z5.786
G1A240.410Z5.791
G1A241.817Z5.709
G1A243.224Z5.586
G1A244.807Z5.431
G1A246.390Z5.269
G1A247.797Z5.112
G1A249.028Z5.008
G1A249.555Z4.958
G1A250.962Z4.875
G1A251.666Z4.788
G1A253.073Z4.708
G1A253.952Z4.587
G1A255.007Z4.524
G1A255.535Z4.442
G1A255.711Z4.399
G1A257.997Z4.353
G1A260.459Z4.309
G1A260.987Z4.243
G1A261.339Z4.112
G1A261.514Z1.980
G1A263.273Z1.980
G1A263.449Z4.112
G1A263.801Z4.242
G1A264.328Z4.309
G1A269.077Z4.397
G1A269.604Z4.501
G1A270.308Z4.560
G1A271.187Z4.609
G1A271.891Z4.714
G1A273.298Z4.805
G1A274.177Z4.903
G1A275.584Z4.983
G1A276.463Z5.068
G1A276.991Z5.109
G1A277.870Z5.211
G1A278.574Z5.280
G1A280.860Z5.514
G1A282.794Z5.692
G1A284.201Z5.787
G1A285.432Z5.793
G1A286.663Z5.722
G1A288.246Z5.584
G1A289.829Z5.429
G1A291.412Z5.268
G1A292.819Z5.110
G1A294.050Z5.006
G1A294.577Z4.956
G1A295.984Z4.874
G1A296.688Z4.787
G1A297.919Z4.715
G1A298.798Z4.594
G1A300.029Z4.523
G1A300.557Z4.441
G1A300.733Z4.398
G1A305.481Z4.309
G1A306.009Z4.242
G1A306.361Z4.112
G1A306.536Z1.980
G1A308.295Z1.980
G1A308.471Z4.112
G1A308.823Z4.242
G1A309.350Z4.309
G1A314.099Z4.398
G1A314.626Z4.502
G1A315.330Z4.561
G1A316.209Z4.610
G1A316.913Z4.715
G1A318.320Z4.806
G1A319.199Z4.904
G1A320.606Z4.984
G1A321.485Z5.069
G1A322.013Z5.111
G1A322.892Z5.213
G1A324.475Z5.374
G1A326.058Z5.530
G1A327.640Z5.680
G1A329.223Z5.787
G1A330.454Z5.792
G1A331.685Z5.720
G1A333.268Z5.582
G1A334.851Z5.428
G1A336.258Z5.279
G1A337.665Z5.135
G1A338.192Z5.077
G1A339.072Z5.005
G1A339.599Z4.955
G1A341.006Z4.873
G1A341.710Z4.786
G1A342.941Z4.714
G1A343.820Z4.593
G1A345.051Z4.522
G1A345.579Z4.440
G1A345.755Z4.397
G1A350.503Z4.309
G1A351.031Z4.242
G1A351.383Z4.111
G1A351.558Z1.980
G1A353.317Z1.980
G1A353.493Z4.112
G1A353.845Z4.243
G1A354.372Z4.309
G1A358.945Z4.386
G1A359.121Z4.399
G1A359.648Z4.503
G1A360.000Z4.541
G1X60.523Z4.846
G1X60.325Z5.144
G1A358.945Z5.091
G1A353.845Z5.004
G1A352.614Z4.968
G1A351.207Z4.994
G1A348.920Z5.044
G1A345.579Z5.104
G1A343.293Z5.232
G1A338.192Z5.512
G1A331.510Z6.057
G1A330.103Z6.105
G1A328.696Z6.076
G1A325.002Z5.795
G1A321.133Z5.482
G1A316.209Z5.206
G1A313.923Z5.090
G1A308.823Z5.003
G1A307.592Z4.967
G1A306.185Z4.994
G1A303.898Z5.044
G1A300.557Z5.104
G1A298.271Z5.233
G1A293.170Z5.514
G1A286.488Z6.057
G1A285.081Z6.106
G1A283.674Z6.077
G1A278.749Z5.693
G1A276.287Z5.489
G1A271.187Z5.205
G1A268.901Z5.090
G1A263.801Z5.003
G1A262.570Z4.967
G1A261.163Z4.995
G1A258.876Z5.044
G1A255.535Z5.106
G1A253.425Z5.225
G1A248.324Z5.502
G1A241.641Z6.046
G1A240.235Z6.103
G1A238.828Z6.083
G1A237.069Z5.960
G1A231.265Z5.488
G1A226.165Z5.204
G1A223.879Z5.090
G1A218.955Z5.005
G1A217.724Z4.969
G1A216.317Z4.985
G1A214.910Z5.028
G1A210.689Z5.093
G1A203.127Z5.517
G1A196.619Z6.048
G1A195.037Z6.102
G1A193.630Z6.073
G1A188.705Z5.690
G1A186.067Z5.476
G1A181.143Z5.203
G1A178.857Z5.089
G1A174.108Z5.007
G1A172.877Z4.971
G1A171.295Z4.981
G1A169.712Z5.031
G1A165.667Z5.095
G1A158.280Z5.507
G1A151.597Z6.055
G1A150.191Z6.104
G1A148.784Z6.085
G1A146.849Z5.949
G1A141.221Z5.490
G1A135.945Z5.196
G1A133.659Z5.088
G1A128.207Z4.996
G1A127.328Z4.967
G1A125.569Z5.020
G1A120.645Z5.106
G1A118.710Z5.210
G1A113.258Z5.514
G1A106.400Z6.067
G1A104.993Z6.106
G1A103.586Z6.075
G1A98.486Z5.678
G1A96.199Z5.489
G1A90.923Z5.195
G1A88.813Z5.091
G1A83.185Z4.995
G1A82.306Z4.968
G1A80.547Z5.020
G1A75.623Z5.107
G1A73.688Z5.211
G1A68.236Z5.516
G1A61.378Z6.069
G1A59.971Z6.108
G1A58.388Z6.065
G1A51.705Z5.524
G1A49.419Z5.390
G1A46.077Z5.202
G1A43.791Z5.089
G1A38.867Z5.004
G1A37.636Z4.968
G1A36.229Z4.986
G1A34.822Z5.030
G1A30.601Z5.102
G1A28.315Z5.231
G1A23.214Z5.510
G1A16.532Z6.055
G1A15.125Z6.103
G1A13.718Z6.074
G1A11.607Z5.923
G1A6.155Z5.483
G1A1.055Z5.199
G1A0.000Z5.144
G1X60.087Z5.375
G1X60.007Z5.434
G1A6.507Z5.755
G1A13.366Z6.295
G1A14.773Z6.341
G1A16.180Z6.312
G1A18.818Z6.106
G1A23.918Z5.716
G1A30.777Z5.396
G1A37.636Z5.294
G1A44.494Z5.411
G1A51.529Z5.760
G1A58.388Z6.302
G1A59.795Z6.343
G1A61.202Z6.315
G1A63.840Z6.109
G1A68.940Z5.719
G1A75.799Z5.398
G1A82.658Z5.296
G1A89.516Z5.413
G1A96.375Z5.748
G1A103.410Z6.302
G1A104.817Z6.340
G1A106.224Z6.311
G1A109.038Z6.092
G1A113.962Z5.717
G1A120.821Z5.397
G1A127.680Z5.297
G1A134.538Z5.414
G1A141.397Z5.750
G1A148.432Z6.305
G1A149.839Z6.343
G1A151.422Z6.301
G1A158.984Z5.715
G1A165.843Z5.395
G1A172.702Z5.295
G1A179.560Z5.412
G1A186.419Z5.748
G1A193.454Z6.304
G1A194.861Z6.343
G1A196.268Z6.307
G1A198.730Z6.115
G1A204.006Z5.712
G1A210.689Z5.397
G1A217.724Z5.296
G1A224.582Z5.414
G1A231.441Z5.751
G1A238.476Z6.308
G1A239.883Z6.348
G1A241.290Z6.308
G1A243.752Z6.115
G1A249.028Z5.711
G1A255.711Z5.397
G1A262.745Z5.296
G1A269.604Z5.415
G1A276.463Z5.752
G1A283.498Z6.309
G1A284.905Z6.348
G1A286.312Z6.309
G1A293.874Z5.719
G1A300.733Z5.397
G1A307.592Z5.294
G1A314.450Z5.408
G1A321.485Z5.753
G1A328.520Z6.306
G1A329.927Z6.345
G1A331.334Z6.306
G1A338.896Z5.718
G1A345.755Z5.396
G1A352.614Z5.294
G1A359.472Z5.409
G1A360.000Z5.434
G1X59.690Z5.650
G1A358.769Z5.608
G1A352.086Z5.513
G1A345.227Z5.630
G1A338.368Z5.976
G1A331.334Z6.545
G1A329.927Z6.584
G1A328.520Z6.545
G1A325.706Z6.323
G1A321.133Z5.954
G1A314.099Z5.613
G1A307.240Z5.511
G1A300.205Z5.632
G1A293.346Z5.979
G1A286.312Z6.550
G1A284.905Z6.589
G1A283.498Z6.550
G1A276.111Z5.954
G1A269.077Z5.614
G1A262.218Z5.511
G1A255.359Z5.625
G1A248.500Z5.968
G1A241.466Z6.541
G1A240.059Z6.590
G1A238.652Z6.560
G1A236.365Z6.382
G1A231.089Z5.954
G1A224.231Z5.616
G1A217.196Z5.512
G1A210.337Z5.626
G1A203.478Z5.969
G1A196.444Z6.538
G1A195.037Z6.582
G1A193.630Z6.553
G1A191.343Z6.376
G1A186.067Z5.950
G1A179.033Z5.612
G1A172.174Z5.511
G1A165.315Z5.627
G1A158.280Z5.983
G1A151.422Z6.536
G1A149.839Z6.579
G1A148.432Z6.541
G1A141.045Z5.950
G1A134.011Z5.613
G1A127.152Z5.513
G1A120.293Z5.629
G1A113.258Z5.985
G1A106.400Z6.536
G1A104.993Z6.575
G1A103.586Z6.547
G1A100.948Z6.342
G1A96.023Z5.950
G1A88.989Z5.613
G1A82.130Z5.514
G1A75.271Z5.630
G1A68.412Z5.974
G1A61.378Z6.542
G1A59.971Z6.580
G1A58.564Z6.548
G1A56.102Z6.357
G1A51.001Z5.948
G1A44.143Z5.615
G1A37.108Z5.513
G1A30.249Z5.630
G1A23.390Z5.974
G1A16.356Z6.540
G1A14.949Z6.579
G1A13.542Z6.543
G1A11.080Z6.352
G1A5.979Z5.946
G1A0.000Z5.650
G1X59.372Z5.867
G1A6.507Z6.208
G1A13.366Z6.772
G1A14.773Z6.816
G1A16.180Z6.787
G1A17.938Z6.651
G1A23.918Z6.166
G1A30.777Z5.829
G1A37.636Z5.725
G1A44.494Z5.843
G1A51.353Z6.196
G1A58.388Z6.776
G1A59.795Z6.815
G1A61.202Z6.786
G1A62.960Z6.651
G1A68.940Z6.166
G1A75.623Z5.832
G1A82.658Z5.727
G1A89.516Z5.845
G1A96.375Z6.197
G1A103.410Z6.773
G1A104.817Z6.811
G1A106.224Z6.779
G1A108.334Z6.616
G1A113.962Z6.164
G1A120.645Z5.832
G1A127.680Z5.727
G1A134.538Z5.845
G1A141.397Z6.199
G1A148.432Z6.777
G1A149.839Z6.816
G1A151.246Z6.779
G1A153.180Z6.630
G1A158.808Z6.171
G1A165.667Z5.830
G1A172.702Z5.726
G1A179.560Z5.845
G1A186.419Z6.202
G1A193.454Z6.784
G1A194.861Z6.823
G1A196.268Z6.786
G1A198.026Z6.649
G1A203.830Z6.173
G1A210.689Z5.831
G1A217.724Z5.727
G1A224.582Z5.848
G1A231.441Z6.207
G1A238.476Z6.794
G1A239.883Z6.833
G1A241.290Z6.794
G1A244.631Z6.521
G1A248.852Z6.174
G1A255.711Z5.831
G1A262.570Z5.725
G1A269.604Z5.849
G1A276.463Z6.207
G1A283.498Z6.791
G1A284.905Z6.830
G1A286.312Z6.791
G1A293.874Z6.172
G1A300.733Z5.830
G1A307.592Z5.724
G1A314.450Z5.840
G1A321.485Z6.207
G1A328.344Z6.775
G1A329.751Z6.823
G1A331.158Z6.793
G1A332.741Z6.672
G1A338.896Z6.168
G1A345.755Z5.829
G1A352.614Z5.725
G1A359.472Z5.842
G1A360.000Z5.867
G1X59.055Z6.087
G1A358.769Z6.040
G1A352.086Z5.940
G1A345.403Z6.055
G1A338.544Z6.414
G1A331.334Z7.023
G1A329.927Z7.062
G1A328.520Z7.024
G1A326.761Z6.887
G1A320.958Z6.395
G1A313.923Z6.042
G1A307.240Z5.938
G1A300.381Z6.059
G1A293.522Z6.420
G1A286.312Z7.032
G1A284.905Z7.071
G1A283.498Z7.032
G1A280.156Z6.746
G1A275.760Z6.387
G1A269.077Z6.047
G1A262.218Z5.939
G1A255.359Z6.061
G1A248.500Z6.425
G1A241.466Z7.026
G1A240.059Z7.075
G1A238.652Z7.046
G1A237.069Z6.923
G1A231.089Z6.407
G1A224.055Z6.046
G1A217.196Z5.940
G1A210.337Z6.061
G1A203.478Z6.423
G1A196.444Z7.017
G1A195.037Z7.063
G1A193.630Z7.034
G1A191.871Z6.896
G1A186.067Z6.401
G1A179.033Z6.044
G1A172.174Z5.939
G1A165.315Z6.060
G1A158.456Z6.419
G1A151.422Z7.005
G1A150.015Z7.051
G1A148.608Z7.022
G1A146.849Z6.887
G1A140.870Z6.387
G1A134.011Z6.043
G1A127.152Z5.939
G1A120.293Z6.062
G1A113.434Z6.420
G1A106.400Z7.005
G1A104.993Z7.046
G1A103.586Z7.017
G1A101.827Z6.882
G1A95.848Z6.386
G1A88.989Z6.044
G1A82.130Z5.940
G1A75.271Z6.063
G1A68.412Z6.424
G1A61.378Z7.014
G1A59.971Z7.052
G1A58.564Z7.022
G1A56.805Z6.886
G1A51.001Z6.395
G1A43.967Z6.042
G1A37.108Z5.940
G1A30.249Z6.064
G1A23.566Z6.411
G1A16.356Z7.015
G1A14.949Z7.054
G1A13.366Z7.010
G1A5.804Z6.385
G1A0.000Z6.087
G1X58.737Z6.303
G1A6.331Z6.646
G1A13.190Z7.238
G1A14.597Z7.288
G1A16.004Z7.269
G1A17.411Z7.173
G1A23.742Z6.624
G1A30.601Z6.264
G1A37.636Z6.152
G1A44.494Z6.276
G1A51.353Z6.646
G1A58.212Z7.240
G1A59.619Z7.287
G1A61.026Z7.266
G1A62.433Z7.170
G1A68.764Z6.621
G1A75.623Z6.263
G1A82.658Z6.153
G1A89.516Z6.279
G1A96.375Z6.646
G1A103.234Z7.234
G1A104.641Z7.281
G1A106.224Z7.248
G1A107.982Z7.114
G1A113.786Z6.618
G1A120.645Z6.263
G1A127.680Z6.153
G1A134.362Z6.269
G1A141.397Z6.647
G1A148.256Z7.239
G1A149.663Z7.287
G1A151.070Z7.258
G1A152.653Z7.145
G1A158.808Z6.617
G1A165.667Z6.262
G1A172.702Z6.153
G1A179.384Z6.272
G1A186.419Z6.655
G1A193.278Z7.254
G1A194.685Z7.301
G1A196.092Z7.273
G1A197.499Z7.176
G1A203.830Z6.624
G1A210.689Z6.264
G1A217.548Z6.152
G1A224.406Z6.275
G1A231.441Z6.662
G1A238.300Z7.268
G1A239.707Z7.315
G1A241.114Z7.287
G1A242.697Z7.169
G1A248.852Z6.627
G1A255.711Z6.264
G1A262.570Z6.152
G1A269.428Z6.276
G1A276.463Z6.662
G1A283.322Z7.261
G1A284.729Z7.309
G1A286.136Z7.281
G1A287.719Z7.160
G1A293.698Z6.632
G1A300.733Z6.263
G1A307.592Z6.152
G1A314.450Z6.274
G1A321.309Z6.646
G1A328.168Z7.245
G1A329.575Z7.298
G1A330.982Z7.279
G1A332.389Z7.182
G1A338.720Z6.626
G1A345.755Z6.260
G1A352.614Z6.152
G1A359.472Z6.277
G1A360.000Z6.303
G1X58.420Z6.523
G1A358.769Z6.472
G1A352.086Z6.366
G1A345.403Z6.488
G1A338.368Z6.872
G1A331.685Z7.423
G1A330.278Z7.474
G1A328.872Z7.458
G1A327.289Z7.368
G1A320.782Z6.828
G1A313.923Z6.474
G1A307.240Z6.364
G1A300.381Z6.493
G1A293.346Z6.879
G1A286.663Z7.435
G1A285.256Z7.486
G1A283.850Z7.469
G1A282.267Z7.372
G1A275.760Z6.832
G1A269.077Z6.480
G1A262.218Z6.367
G1A255.359Z6.496
G1A248.500Z6.873
G1A241.817Z7.430
G1A240.410Z7.488
G1A239.003Z7.480
G1A237.421Z7.390
G1A230.738Z6.833
G1A224.055Z6.480
G1A217.196Z6.367
G1A210.337Z6.496
G1A203.478Z6.870
G1A196.795Z7.422
G1A195.213Z7.479
G1A193.806Z7.462
G1A192.223Z7.363
G1A185.716Z6.826
G1A179.033Z6.478
G1A172.174Z6.366
G1A165.315Z6.493
G1A158.456Z6.861
G1A151.773Z7.403
G1A150.191Z7.462
G1A148.784Z7.445
G1A147.201Z7.348
G1A140.694Z6.817
G1A134.011Z6.473
G1A127.152Z6.365
G1A120.293Z6.494
G1A113.434Z6.861
G1A106.575Z7.416
G1A104.993Z7.462
G1A103.586Z7.436
G1A102.003Z7.328
G1A95.672Z6.817
G1A88.989Z6.476
G1A82.130Z6.366
G1A75.271Z6.495
G1A68.412Z6.866
G1A61.729Z7.412
G1A60.322Z7.463
G1A58.740Z7.447
G1A57.157Z7.349
G1A50.826Z6.827
G1A43.967Z6.474
G1A37.108Z6.366
G1A30.249Z6.498
G1A23.390Z6.869
G1A16.707Z7.417
G1A15.300Z7.468
G1A13.718Z7.448
G1A12.135Z7.349
G1A5.804Z6.828
G1A0.000Z6.523
G1X58.142Z6.679
G1X58.102Z6.696
G1A6.155Z6.996
G1A13.190Z7.526
G1A14.773Z7.569
G1A16.356Z7.537
G1A19.345Z7.323
G1A24.094Z6.967
G1A30.777Z6.650
G1A37.636Z6.547
G1A44.319Z6.657
G1A51.177Z6.996
G1A58.212Z7.524
G1A59.795Z7.564
G1A61.378Z7.532
G1A65.598Z7.227
G1A69.116Z6.964
G1A75.799Z6.650
G1A82.658Z6.548
G1A89.341Z6.660
G1A96.199Z6.996
G1A103.234Z7.521
G1A104.817Z7.561
G1A106.400Z7.525
G1A110.620Z7.221
G1A114.138Z6.960
G1A120.821Z6.648
G1A127.680Z6.546
G1A134.362Z6.658
G1A141.221Z6.996
G1A148.256Z7.522
G1A149.839Z7.563
G1A151.422Z7.523
G1A155.818Z7.207
G1A159.160Z6.962
G1A165.843Z6.651
G1A172.702Z6.550
G1A179.384Z6.663
G1A186.243Z7.007
G1A193.278Z7.539
G1A194.861Z7.580
G1A196.444Z7.542
G1A199.433Z7.326
G1A204.182Z6.969
G1A210.865Z6.653
G1A217.724Z6.552
G1A224.406Z6.667
G1A231.265Z7.014
G1A238.300Z7.551
G1A239.883Z7.591
G1A241.466Z7.551
G1A245.686Z7.240
G1A249.204Z6.973
G1A255.711Z6.656
G1A262.570Z6.549
G1A269.428Z6.668
G1A276.287Z7.013
G1A283.146Z7.537
G1A284.729Z7.586
G1A286.312Z7.555
G1A289.301Z7.340
G1A294.050Z6.975
G1A300.909Z6.650
G1A307.592Z6.546
G1A314.450Z6.666
G1A321.133Z6.996
G1A328.168Z7.529
G1A329.751Z7.574
G1A331.334Z7.543
G1A334.499Z7.315
G1A339.072Z6.969
G1A345.755Z6.650
G1A352.614Z6.546
G1A359.297Z6.659
G1A360.000Z6.696
G1X57.785Z6.786
G1A358.769Z6.743
G1A352.086Z6.654
G1A345.227Z6.764
G1A338.368Z7.082
G1A331.510Z7.566
G1A329.927Z7.605
G1A328.344Z7.568
G1A323.947Z7.267
G1A320.782Z7.045
G1A313.923Z6.746
G1A307.064Z6.654
G1A300.205Z6.767
G1A293.346Z7.089
G1A286.488Z7.577
G1A284.905Z7.616
G1A283.322Z7.577
G1A275.760Z7.050
G1A268.901Z6.750
G1A262.042Z6.659
G1A255.359Z6.765
G1A248.500Z7.084
G1A241.641Z7.573
G1A240.059Z7.621
G1A238.476Z7.591
G1A233.903Z7.274
G1A230.738Z7.051
G1A224.055Z6.753
G1A217.196Z6.656
G1A210.337Z6.765
G1A203.478Z7.080
G1A196.619Z7.564
G1A195.037Z7.609
G1A193.454Z7.579
G1A189.585Z7.315
G1A185.716Z7.045
G1A179.033Z6.750
G1A172.174Z6.656
G1A165.315Z6.762
G1A158.456Z7.071
G1A151.597Z7.546
G1A150.015Z7.592
G1A148.432Z7.562
G1A142.804Z7.175
G1A140.694Z7.034
G1A134.011Z6.744
G1A127.152Z6.651
G1A120.293Z6.759
G1A113.434Z7.070
G1A106.575Z7.549
G1A104.993Z7.590
G1A103.410Z7.560
G1A99.189Z7.276
G1A95.672Z7.035
G1A88.989Z6.747
G1A82.130Z6.654
G1A75.271Z6.763
G1A68.412Z7.076
G1A61.553Z7.555
G1A59.971Z7.594
G1A58.388Z7.564
G1A53.815Z7.252
G1A50.650Z7.035
G1A43.967Z6.745
G1A37.108Z6.653
G1A30.249Z6.763
G1A23.390Z7.079
G1A16.532Z7.560
G1A14.949Z7.599
G1A13.366Z7.565
G1A9.849Z7.328
G1A5.628Z7.036
G1A0.000Z6.786
G1X57.467Z6.813
G1A6.507Z7.088
G1A13.366Z7.538
G1A14.949Z7.572
G1A16.532Z7.532
G1A23.918Z7.053
G1A30.953Z6.774
G1A37.636Z6.690
G1A44.494Z6.790
G1A51.529Z7.087
G1A58.212Z7.524
G1A59.795Z7.564
G1A61.378Z7.532
G1A66.302Z7.216
G1A69.116Z7.043
G1A75.799Z6.777
G1A82.658Z6.692
G1A89.516Z6.792
G1A96.375Z7.078
G1A103.410Z7.533
G1A104.993Z7.564
G1A106.575Z7.522
G1A113.962Z7.046
G1A120.821Z6.775
G1A127.680Z6.690
G1A134.538Z6.790
G1A141.573Z7.087
G1A148.256Z7.521
G1A149.839Z7.561
G1A151.422Z7.525
G1A158.984Z7.047
G1A165.843Z6.778
G1A172.702Z6.694
G1A179.560Z6.797
G1A186.419Z7.089
G1A193.454Z7.550
G1A195.037Z7.581
G1A196.619Z7.537
G1A204.006Z7.055
G1A210.865Z6.780
G1A217.724Z6.695
G1A224.406Z6.793
G1A231.441Z7.095
G1A238.300Z7.550
G1A239.883Z7.590
G1A241.466Z7.552
G1A247.973Z7.120
G1A249.731Z7.033
G1A255.887Z6.780
G1A262.745Z6.696
G1A269.428Z6.793
G1A276.463Z7.094
G1A283.322Z7.547
G1A284.905Z7.586
G1A286.488Z7.546
G1A293.874Z7.061
G1A300.909Z6.777
G1A307.767Z6.692
G1A314.450Z6.789
G1A321.485Z7.089
G1A328.168Z7.529
G1A329.751Z7.572
G1A331.334Z7.541
G1A335.906Z7.250
G1A339.072Z7.047
G1A345.931Z6.775
G1A352.614Z6.690
G1A359.472Z6.790
G1A360.000Z6.813
G1X57.150Z6.777
G1A358.945Z6.743
G1A352.086Z6.664
G1A345.227Z6.758
G1A338.192Z7.032
G1A331.158Z7.454
G1A329.751Z7.479
G1A328.168Z7.433
G1A320.958Z6.999
G1A313.923Z6.745
G1A307.064Z6.664
G1A300.205Z6.761
G1A293.170Z7.039
G1A286.136Z7.467
G1A284.729Z7.492
G1A283.146Z7.442
G1A275.936Z7.006
G1A269.077Z6.753
G1A262.042Z6.671
G1A255.183Z6.767
G1A248.324Z7.036
G1A241.114Z7.471
G1A239.707Z7.496
G1A238.300Z7.454
G1A230.914Z7.007
G1A224.055Z6.753
G1A217.020Z6.671
G1A210.161Z6.767
G1A203.302Z7.033
G1A196.092Z7.464
G1A194.509Z7.486
G1A192.926Z7.426
G1A186.067Z7.008
G1A179.033Z6.751
G1A172.174Z6.670
G1A165.139Z6.764
G1A158.280Z7.025
G1A151.070Z7.444
G1A149.487Z7.466
G1A147.904Z7.408
G1A140.870Z6.990
G1A134.011Z6.743
G1A126.976Z6.664
G1A120.293Z6.753
G1A113.258Z7.023
G1A106.048Z7.450
G1A104.465Z7.469
G1A102.882Z7.410
G1A96.023Z6.997
G1A88.989Z6.745
G1A81.954Z6.668
G1A75.095Z6.764
G1A68.236Z7.028
G1A61.202Z7.445
G1A59.619Z7.470
G1A58.036Z7.420
G1A51.001Z6.996
G1A43.967Z6.744
G1A37.108Z6.664
G1A30.249Z6.757
G1A23.214Z7.030
G1A16.004Z7.460
G1A14.597Z7.477
G1A13.014Z7.425
G1A5.979Z6.997
G1A0.000Z6.777
G1X56.832Z6.672
G1A6.859Z6.910
G1A14.069Z7.291
G1A15.476Z7.298
G1A18.290Z7.163
G1A23.566Z6.882
G1A30.601Z6.651
G1A37.811Z6.579
G1A44.846Z6.664
G1A51.881Z6.909
G1A59.091Z7.286
G1A60.674Z7.285
G1A68.588Z6.881
G1A75.447Z6.655
G1A82.833Z6.582
G1A89.868Z6.666
G1A96.903Z6.910
G1A104.113Z7.286
G1A105.520Z7.288
G1A108.334Z7.153
G1A113.610Z6.876
G1A120.469Z6.650
G1A127.855Z6.578
G1A134.890Z6.664
G1A141.925Z6.908
G1A149.135Z7.283
G1A150.542Z7.283
G1A155.115Z7.057
G1A158.632Z6.879
G1A165.491Z6.658
G1A172.877Z6.586
G1A179.912Z6.671
G1A186.947Z6.921
G1A194.157Z7.303
G1A195.564
G1A198.378Z7.167
G1A203.654Z6.887
G1A210.513Z6.660
G1A217.724Z6.585
G1A224.934Z6.675
G1A231.969Z6.927
G1A239.179Z7.311
G1A240.586
G1A245.159Z7.076
G1A248.676Z6.891
G1A255.535Z6.661
G1A262.745Z6.585
G1A269.956Z6.675
G1A276.991Z6.926
G1A284.201Z7.308
G1A285.608Z7.308
G1A291.939Z6.969
G1A293.874Z6.878
G1A300.557Z6.653
G1A307.767Z6.579
G1A314.978Z6.671
G1A322.013Z6.919
G1A329.047Z7.290
G1A330.454Z7.299
G1A333.444Z7.155
G1A338.544Z6.884
G1A345.579Z6.653
G1A352.789Z6.579
G1A359.824Z6.664
G1A360.000Z6.672
G1X56.515Z6.486
G1A351.910Z6.414
G1A344.524Z6.496
G1A336.961Z6.731
G1A330.454Z7.047
G1A329.047Z7.038
G1A321.837Z6.693
G1A314.275Z6.477
G1A306.888Z6.414
G1A299.502Z6.497
G1A291.939Z6.737
G1A285.432Z7.059
G1A284.025Z7.049
G1A276.991Z6.705
G1A269.253Z6.483
G1A261.866Z6.421
G1A254.656Z6.501
G1A246.917Z6.745
G1A240.586Z7.058
G1A239.179Z7.058
G1A231.969Z6.707
G1A224.406Z6.485
G1A216.844Z6.421
G1A209.634Z6.500
G1A201.895Z6.742
G1A195.564Z7.050
G1A194.157Z7.050
G1A186.947Z6.702
G1A179.384Z6.483
G1A171.822Z6.421
G1A164.436Z6.503
G1A157.225Z6.716
G1A150.542Z7.033
G1A149.135Z7.033
G1A141.573Z6.675
G1A134.362Z6.475
G1A126.800Z6.413
G1A119.414Z6.495
G1A111.851Z6.731
G1A105.520Z7.038
G1A104.113Z7.035
G1A96.551Z6.677
G1A89.341Z6.478
G1A81.954Z6.416
G1A74.568Z6.496
G1A66.830Z6.735
G1A60.498Z7.039
G1A59.091Z7.034
G1A51.705Z6.681
G1A44.319Z6.476
G1A36.932Z6.413
G1A29.546Z6.494
G1A21.983Z6.729
G1A15.476Z7.046
G1A14.069Z7.039
G1A6.683Z6.682
G1A0.000Z6.486
G1X56.197Z6.277
G1A4.748Z6.386
G1A8.793Z6.524
G1A14.245Z6.788
G1A15.652Z6.788
G1A21.632Z6.503
G1A27.611Z6.321
G1A32.008Z6.249
G1A38.163Z6.214
G1A45.198Z6.282
G1A49.770Z6.386
G1A53.815Z6.523
G1A59.267Z6.785
G1A60.674Z6.782
G1A66.654Z6.502
G1A72.633Z6.323
G1A77.030Z6.252
G1A83.185Z6.216
G1A90.220Z6.283
G1A94.792Z6.388
G1A98.837Z6.525
G1A104.289Z6.786
G1A105.696Z6.781
G1A111.676Z6.499
G1A117.655Z6.319
G1A122.052Z6.248
G1A128.207Z6.214
G1A135.242Z6.282
G1A139.814Z6.387
G1A143.859Z6.524
G1A149.311Z6.785
G1A150.718Z6.777
G1A157.049Z6.484
G1A162.677Z6.325
G1A167.074Z6.255
G1A173.229Z6.220
G1A180.264Z6.288
G1A184.133Z6.379
G1A189.233Z6.552
G1A194.333Z6.798
G1A195.740Z6.790
G1A201.720Z6.507
G1A207.699Z6.326
G1A211.920Z6.256
G1A218.251Z6.220
G1A225.286Z6.290
G1A228.979Z6.377
G1A234.255Z6.557
G1A239.355Z6.805
G1A240.762Z6.795
G1A246.742Z6.509
G1A252.721Z6.326
G1A256.942Z6.256
G1A263.273Z6.220
G1A270.308Z6.289
G1A274.001Z6.376
G1A279.277Z6.556
G1A284.377Z6.803
G1A285.784Z6.793
G1A291.588Z6.509
G1A297.567Z6.323
G1A301.964Z6.250
G1A308.119Z6.214
G1A315.154Z6.281
G1A319.023Z6.371
G1A324.299Z6.551
G1A329.223Z6.789
G1A330.630
G1A336.610Z6.505
G1A342.589Z6.323
G1A346.986Z6.250
G1A353.141Z6.213
G1A360.000Z6.277
G1X55.880Z6.068
G1A357.186Z6.039
G1A351.207Z6.023
G1A345.227Z6.061
G1A338.017Z6.213
G1A330.454Z6.550
G1A329.047Z6.541
G1A321.133Z6.190
G1A313.219Z6.045
G1A306.185Z6.023
G1A300.205Z6.061
G1A292.995Z6.215
G1A285.432Z6.557
G1A284.025Z6.548
G1A276.111Z6.194
G1A268.197Z6.048
G1A261.163Z6.027
G1A255.183Z6.067
G1A247.973Z6.221
G1A240.410Z6.559
G1A239.003Z6.549
G1A231.089Z6.195
G1A223.175Z6.049
G1A216.141Z6.028
G1A210.161Z6.067
G1A202.951Z6.221
G1A195.564Z6.550
G1A194.157Z6.549
G1A186.067Z6.193
G1A178.329Z6.050
G1A171.119Z6.028
G1A165.139Z6.069
G1A157.929Z6.220
G1A150.542Z6.542
G1A149.135Z6.540
G1A141.045Z6.188
G1A133.307Z6.046
G1A126.097Z6.024
G1A120.117Z6.063
G1A113.083Z6.210
G1A105.520Z6.545
G1A103.937Z6.535
G1A96.023Z6.188
G1A88.285Z6.047
G1A81.251Z6.025
G1A75.271Z6.063
G1A68.061Z6.213
G1A60.498Z6.545
G1A59.091Z6.538
G1A51.001Z6.187
G1A43.263Z6.045
G1A36.229Z6.023
G1A30.249Z6.060
G1A23.039Z6.212
G1A15.476Z6.549
G1A14.069Z6.540
G1A6.155Z6.189
G1A0.000Z6.068
G1X55.562Z5.896
G1A5.100Z5.969
G1A11.080Z6.191
G1A14.421Z6.332
G1A15.828Z6.323
G1A20.928Z6.104
G1A25.501Z5.953
G1A32.184Z5.881
G1A38.691Z5.861
G1A46.429Z5.913
G1A50.298Z5.977
G1A56.102Z6.191
G1A59.443Z6.329
G1A60.850Z6.320
G1A65.950Z6.104
G1A70.523Z5.954
G1A77.206Z5.883
G1A83.713Z5.863
G1A91.275Z5.913
G1A95.144Z5.973
G1A101.124Z6.193
G1A104.289Z6.328
G1A105.696Z6.325
G1A110.972Z6.103
G1A115.545Z5.954
G1A122.228Z5.882
G1A128.735Z5.863
G1A136.297Z5.914
G1A140.166Z5.974
G1A146.146Z6.194
G1A149.311Z6.329
G1A150.894Z6.318
G1A155.994Z6.105
G1A160.567Z5.956
G1A167.250Z5.885
G1A173.757Z5.866
G1A181.319Z5.916
G1A185.188Z5.978
G1A190.992Z6.191
G1A194.333Z6.336
G1A195.740Z6.329
G1A201.016Z6.105
G1A205.589Z5.955
G1A212.272Z5.884
G1A218.603Z5.865
G1A226.341Z5.916
G1A230.210Z5.979
G1A236.014Z6.195
G1A239.355Z6.340
G1A240.762Z6.331
G1A246.038Z6.105
G1A250.611Z5.955
G1A257.294Z5.883
G1A263.625Z5.864
G1A271.363Z5.915
G1A275.232Z5.979
G1A281.036Z6.194
G1A284.377Z6.339
G1A285.784Z6.329
G1A290.884Z6.107
G1A295.457Z5.954
G1A302.140Z5.881
G1A308.647Z5.861
G1A316.385Z5.913
G1A320.254Z5.977
G1A326.058Z6.191
G1A329.399Z6.334
G1A330.806Z6.324
G1A335.906Z6.105
G1A340.479Z5.953
G1A347.162Z5.881
G1A353.669Z5.861
G1A360.000Z5.896
G1X55.245Z5.750
G1A351.383Z5.717
G1A343.996Z5.762
G1A338.017Z5.853
G1A330.103Z6.122
G1A328.696Z6.094
G1A320.958Z5.831
G1A313.395Z5.740
G1A306.185Z5.719
G1A298.974Z5.762
G1A293.170Z5.849
G1A285.081Z6.125
G1A283.674Z6.097
G1A275.936Z5.832
G1A268.373Z5.742
G1A261.163Z5.720
G1A253.952Z5.765
G1A248.149Z5.852
G1A240.235Z6.124
G1A238.828Z6.106
G1A230.914Z5.833
G1A223.351Z5.743
G1A216.141Z5.722
G1A208.930Z5.766
G1A203.127Z5.853
G1A195.213Z6.121
G1A193.806Z6.102
G1A185.892Z5.833
G1A178.329Z5.743
G1A171.119Z5.722
G1A163.908Z5.767
G1A158.105Z5.854
G1A150.191Z6.117
G1A148.784Z6.098
G1A140.870Z5.832
G1A133.483Z5.742
G1A126.097Z5.721
G1A119.062Z5.763
G1A113.083Z5.853
G1A105.169Z6.119
G1A103.586Z6.088
G1A95.848Z5.831
G1A88.461Z5.742
G1A81.251Z5.719
G1A74.040Z5.763
G1A68.061Z5.853
G1A60.147Z6.118
G1A58.564Z6.086
G1A50.826Z5.829
G1A43.439Z5.740
G1A36.229Z5.718
G1A29.018Z5.761
G1A23.039Z5.853
G1A15.125Z6.120
G1A13.718Z6.094
G1A5.979Z5.830
G1A0.000Z5.750
G1X54.927Z5.643
G1A7.738Z5.751
G1A11.080Z5.848
G1A14.597Z5.962
G1A16.004Z5.945
G1A21.280Z5.770
G1A24.973Z5.706
G1A31.480Z5.633
G1A38.691Z5.614
G1A45.901Z5.655
G1A52.760Z5.751
G1A56.102Z5.848
G1A59.619Z5.962
G1A61.026Z5.944
G1A66.302Z5.770
G1A69.995Z5.707
G1A76.502Z5.634
G1A83.713Z5.615
G1A90.923Z5.657
G1A97.782Z5.753
G1A101.124Z5.850
G1A104.641Z5.962
G1A106.048Z5.945
G1A111.324Z5.771
G1A115.017Z5.707
G1A121.524Z5.635
G1A128.735Z5.616
G1A135.945Z5.658
G1A142.804Z5.754
G1A146.146Z5.852
G1A149.663Z5.963
G1A151.246Z5.938
G1A156.346Z5.771
G1A159.863Z5.710
G1A166.546Z5.636
G1A173.757Z5.618
G1A180.791Z5.657
G1A187.826Z5.756
G1A190.992Z5.848
G1A194.685Z5.966
G1A196.268Z5.939
G1A201.368Z5.771
G1A204.885Z5.710
G1A211.568Z5.636
G1A218.779Z5.617
G1A225.813Z5.657
G1A232.848Z5.757
G1A236.014Z5.850
G1A239.707Z5.968
G1A241.466Z5.933
G1A246.390Z5.770
G1A250.083Z5.707
G1A256.414Z5.636
G1A263.801Z5.617
G1A270.835Z5.656
G1A277.870Z5.756
G1A281.212Z5.855
G1A284.729Z5.967
G1A286.312Z5.936
G1A291.412Z5.768
G1A295.105Z5.705
G1A301.436Z5.634
G1A308.647Z5.614
G1A315.857Z5.655
G1A322.716Z5.751
G1A326.058Z5.848
G1A329.751Z5.965
G1A331.334Z5.934
G1A336.434Z5.766
G1A340.127Z5.704
G1A346.458Z5.633
G1A353.669Z5.614
G1A360.000Z5.643
G1X54.610Z5.536
G1A351.031Z5.509
G1A343.820Z5.549
G1A336.786Z5.644
G1A331.510Z5.777
G1A329.927Z5.815
G1A327.816Z5.760
G1A321.133Z5.610
G1A313.219Z5.527
G1A305.833Z5.511
G1A298.798Z5.550
G1A291.939Z5.641
G1A286.663Z5.773
G1A284.905Z5.817
G1A282.970Z5.767
G1A276.111Z5.611
G1A268.197Z5.528
G1A260.811Z5.512
G1A253.776Z5.551
G1A246.917Z5.643
G1A241.641Z5.775
G1A239.883Z5.818
G1A237.948Z5.767
G1A231.089Z5.611
G1A223.175Z5.529
G1A215.789Z5.513
G1A208.754Z5.552
G1A201.895Z5.644
G1A196.619Z5.776
G1A194.861Z5.816
G1A192.926Z5.765
G1A186.067Z5.611
G1A178.329Z5.530
G1A170.767Z5.513
G1A163.908Z5.551
G1A156.873Z5.644
G1A151.597Z5.776
G1A150.015Z5.814
G1A148.432Z5.782
G1A143.683Z5.660
G1A139.990Z5.597
G1A133.131Z5.528
G1A125.921Z5.512
G1A118.886Z5.550
G1A111.851Z5.644
G1A106.575Z5.776
G1A104.993Z5.814
G1A103.234Z5.774
G1A96.727Z5.617
G1A88.285Z5.528
G1A80.899Z5.511
G1A73.864Z5.549
G1A66.830Z5.643
G1A61.553Z5.776
G1A59.971Z5.813
G1A58.036Z5.766
G1A51.177Z5.609
G1A43.263Z5.526
G1A35.877Z5.510
G1A28.842Z5.548
G1A21.808Z5.643
G1A16.532Z5.776
G1A14.949Z5.814
G1A12.838Z5.759
G1A6.155Z5.609
G1A0.000Z5.536
G1X54.292Z5.448
G1A8.969Z5.554
G1A14.949Z5.681
G1A23.039Z5.519
G1A30.777Z5.444
G1A39.746Z5.427
G1A48.012Z5.475
G1A54.519Z5.566
G1A59.971Z5.681
G1A68.061Z5.519
G1A75.799Z5.444
G1A84.768Z5.428
G1A93.034Z5.476
G1A99.541Z5.568
G1A104.993Z5.681
G1A113.083Z5.520
G1A120.821Z5.445
G1A129.790Z5.429
G1A138.056Z5.477
G1A144.563Z5.569
G1A149.839Z5.682
G1A155.467Z5.565
G1A163.029Z5.463
G1A173.757Z5.427
G1A182.726Z5.474
G1A189.409Z5.567
G1A194.861Z5.683
G1A203.127Z5.521
G1A210.865Z5.446
G1A219.834Z5.430
G1A228.100Z5.478
G1A234.431Z5.568
G1A239.883Z5.684
G1A248.149Z5.520
G1A255.711Z5.446
G1A264.680Z5.429
G1A272.946Z5.476
G1A279.453Z5.567
G1A284.905Z5.684
G1A292.995Z5.521
G1A300.733Z5.445
G1A309.702Z5.428
G1A317.968Z5.475
G1A324.475Z5.567
G1A329.927Z5.682
G1A338.017Z5.520
G1A345.755Z5.444
G1A354.724Z5.427
G1A360.000Z5.448
G1X53.975Z5.366
G1A349.976Z5.349
G1A340.479Z5.398
G1A332.916Z5.513
G1A329.751Z5.573
G1A322.189Z5.432
G1A313.923Z5.362
G1A304.778Z5.350
G1A295.457Z5.399
G1A287.894Z5.515
G1A284.729Z5.575
G1A277.342Z5.436
G1A269.253Z5.364
G1A259.756Z5.351
G1A250.435Z5.400
G1A242.873Z5.516
G1A239.707Z5.575
G1A232.496Z5.439
G1A224.582Z5.366
G1A214.910Z5.351
G1A205.413Z5.400
G1A197.851Z5.517
G1A194.861Z5.575
G1A186.771Z5.428
G1A177.802Z5.358
G1A169.184Z5.352
G1A160.039Z5.404
G1A152.477Z5.525
G1A149.839Z5.573
G1A141.749Z5.427
G1A132.780Z5.357
G1A124.162Z5.351
G1A115.017Z5.404
G1A107.455Z5.524
G1A104.817Z5.572
G1A96.903Z5.428
G1A88.109Z5.358
G1A79.316Z5.350
G1A70.171Z5.401
G1A62.609Z5.520
G1A59.795Z5.572
G1A51.881Z5.427
G1A43.087Z5.357
G1A34.294Z5.350
G1A25.149Z5.401
G1A17.587Z5.520
G1A14.773Z5.572
G1A7.035Z5.429
G1A0.000Z5.366
G1X53.657Z5.283
G1A8.090Z5.353
G1A15.125Z5.464
G1A24.094Z5.324
G1A33.239Z5.273
G1A41.681Z5.273
G1A51.529Z5.330
G1A60.147Z5.463
G1A69.116Z5.324
G1A78.261Z5.273
G1A86.878Z5.274
G1A96.903Z5.334
G1A105.169Z5.463
G1A114.138Z5.324
G1A123.283Z5.274
G1A131.900Z5.275
G1A141.925Z5.335
G1A150.191Z5.464
G1A159.160Z5.325
G1A168.305Z5.275
G1A176.922Z5.276
G1A186.947Z5.336
G1A195.037Z5.465
G1A204.182Z5.326
G1A213.327Z5.275
G1A221.768Z5.276
G1A231.617Z5.333
G1A240.059Z5.467
G1A249.204Z5.326
G1A258.349Z5.275
G1A266.790Z5.276
G1A276.639Z5.333
G1A285.081Z5.467
G1A294.050Z5.326
G1A303.195Z5.275
G1A311.637Z5.275
G1A321.309Z5.330
G1A330.103Z5.465
G1A339.072Z5.325
G1A348.217Z5.274
G1A356.659Z5.274
G1A360.000Z5.283
G1X53.340Z5.208
G1A349.096Z5.198
G1A339.424Z5.244
G1A333.268Z5.323
G1A329.575Z5.371
G1A320.958Z5.249
G1A311.109Z5.199
G1A300.909Z5.206
G1A291.060Z5.279
G1A284.729Z5.374
G1A275.936Z5.249
G1A266.087Z5.200
G1A255.887Z5.207
G1A246.038Z5.280
G1A239.707Z5.374
G1A230.914Z5.249
G1A221.065Z5.200
G1A210.689Z5.207
G1A201.016Z5.280
G1A194.685Z5.373
G1A185.892Z5.249
G1A176.043Z5.199
G1A165.491Z5.207
G1A155.994Z5.280
G1A149.663Z5.371
G1A140.870Z5.248
G1A131.021Z5.198
G1A120.293Z5.206
G1A110.972Z5.279
G1A104.641Z5.370
G1A96.023Z5.248
G1A86.175Z5.198
G1A75.975Z5.204
G1A66.126Z5.276
G1A59.619Z5.370
G1A51.001Z5.248
G1A41.153Z5.198
G1A30.777Z5.205
G1A21.104Z5.277
G1A14.597Z5.370
G1A5.979Z5.248
G1A0.000Z5.208
G1X53.022Z5.135
G1A8.793Z5.201
G1A15.125Z5.288
G1A24.270Z5.167
G1A34.998Z5.122
G1A47.308Z5.147
G1A54.167Z5.206
G1A60.147Z5.287
G1A69.292Z5.167
G1A80.020Z5.122
G1A92.330Z5.147
G1A99.189Z5.206
G1A105.169Z5.287
G1A114.314Z5.167
G1A125.042Z5.123
G1A137.352Z5.148
G1A144.211Z5.207
G1A150.191Z5.287
G1A159.336Z5.167
G1A170.064Z5.123
G1A182.374Z5.148
G1A189.233Z5.208
G1A195.213Z5.288
G1A204.182Z5.169
G1A214.734Z5.125
G1A227.044Z5.147
G1A234.079Z5.207
G1A240.235Z5.289
G1A249.204Z5.169
G1A259.756Z5.125
G1A272.066Z5.147
G1A279.101Z5.207
G1A285.256Z5.289
G1A294.226Z5.169
G1A304.778Z5.124
G1A317.088Z5.147
G1A324.123Z5.207
G1A330.278Z5.288
G1A339.248Z5.168
G1A349.800Z5.123
G1A360.000Z5.135
G1X52.705Z5.061
G1A348.393Z5.053
G1A337.313Z5.106
G1A329.575Z5.204
G1A320.606Z5.093
G1A309.702Z5.051
G1A297.391Z5.075
G1A290.884Z5.126
G1A284.553Z5.205
G1A275.584Z5.093
G1A264.680Z5.051
G1A252.369Z5.076
G1A245.862Z5.127
G1A239.531Z5.205
G1A230.562Z5.093
G1A219.658Z5.051
G1A207.347Z5.075
G1A200.840Z5.127
G1A194.509Z5.204
G1A185.716Z5.093
G1A174.636Z5.050
G1A162.325Z5.075
G1A155.994Z5.124
G1A149.663Z5.204
G1A140.694Z5.092
G1A129.614Z5.050
G1A117.303Z5.074
G1A110.972Z5.124
G1A104.641Z5.203
G1A95.672Z5.092
G1A84.592Z5.049
G1A72.281Z5.074
G1A65.950Z5.124
G1A59.619Z5.203
G1A50.650Z5.092
G1A39.570Z5.049
G1A27.259Z5.075
G1A20.928Z5.124
G1A14.597Z5.203
G1A5.628Z5.092
G1A0.000Z5.061
G1X52.387Z5.000
G1A8.969Z5.059
G1A15.300Z5.134
G1A24.094Z5.029
G1A35.701Z4.988
G1A48.363Z5.016
G1A54.519Z5.066
G1A60.322Z5.132
G1A69.116Z5.029
G1A80.723Z4.988
G1A93.385Z5.016
G1A99.541Z5.066
G1A105.169Z5.134
G1A114.138Z5.029
G1A125.745Z4.988
G1A138.407Z5.016
G1A144.563Z5.066
G1A150.191Z5.134
G1A159.160Z5.029
G1A170.767Z4.988
G1A183.254Z5.016
G1A189.585Z5.067
G1A195.213Z5.134
G1A204.182Z5.030
G1A215.789Z4.989
G1A228.276Z5.017
G1A234.607Z5.069
G1A240.235Z5.135
G1A249.204Z5.030
G1A260.811Z4.989
G1A273.298Z5.017
G1A279.453Z5.067
G1A285.256Z5.136
G1A294.050Z5.031
G1A305.657Z4.989
G1A318.144Z5.016
G1A324.475Z5.067
G1A330.278Z5.135
G1A339.072Z5.030
G1A350.679Z4.989
G1A360.000Z5.000
G1X52.070Z4.941
G1A347.513Z4.936
G1A336.434Z4.992
G1A329.575Z5.071
G1A320.430Z4.969
G1A307.943Z4.930
G1A295.281Z4.964
G1A288.950Z5.023
G1A284.553Z5.072
G1A275.584Z4.970
G1A263.273Z4.930
G1A250.611Z4.962
G1A244.631Z5.015
G1A239.531Z5.072
G1A230.562Z4.969
G1A218.075Z4.930
G1A205.413Z4.962
G1A199.257Z5.018
G1A194.509Z5.070
G1A185.540Z4.968
G1A172.877Z4.929
G1A160.215Z4.963
G1A153.884Z5.022
G1A149.487Z5.069
G1A140.518Z4.968
G1A127.855Z4.928
G1A115.193Z4.963
G1A108.862Z5.022
G1A104.465Z5.069
G1A95.496Z4.967
G1A83.009Z4.928
G1A70.171Z4.962
G1A63.664Z5.024
G1A59.443Z5.069
G1A50.474Z4.967
G1A37.987Z4.929
G1A25.325Z4.962
G1A18.994Z5.021
G1A14.597Z5.071
G1A5.452Z4.968
G1A0.000Z4.941
G1X51.752Z4.883
G1A8.793Z4.937
G1A15.300Z5.007
G1A24.270Z4.909
G1A37.284Z4.870
G1A50.122Z4.906
G1A56.629Z4.970
G1A60.322Z5.005
G1A69.292Z4.908
G1A82.306Z4.870
G1A95.320Z4.907
G1A103.058Z4.987
G1A105.520Z5.003
G1A114.314Z4.908
G1A127.328Z4.870
G1A140.342Z4.907
G1A148.256Z4.990
G1A150.542Z5.003
G1A159.336Z4.908
G1A172.350Z4.870
G1A185.364Z4.908
G1A193.630Z4.995
G1A195.564Z5.003
G1A204.182Z4.909
G1A217.020Z4.871
G1A229.682Z4.905
G1A235.310Z4.956
G1A240.235Z5.008
G1A249.204Z4.910
G1A262.042Z4.872
G1A274.704Z4.906
G1A280.332Z4.956
G1A285.256Z5.008
G1A294.226Z4.910
G1A307.064Z4.872
G1A319.726Z4.906
G1A325.354Z4.956
G1A330.278Z5.008
G1A339.248Z4.909
G1A352.086Z4.871
G1A360.000Z4.883
G1X51.435Z4.845
G1A344.875Z4.845
G1A335.203Z4.897
G1A329.575Z4.957
G1A320.782Z4.868
G1A306.361Z4.836
G1A292.467Z4.876
G1A284.553Z4.957
G1A275.936Z4.869
G1A261.514Z4.836
G1A247.621Z4.875
G1A239.531Z4.957
G1A230.914Z4.868
G1A216.668Z4.836
G1A202.599Z4.874
G1A194.509Z4.955
G1A185.892Z4.867
G1A171.470Z4.835
G1A157.577Z4.873
G1A149.487Z4.955
G1A140.870Z4.867
G1A126.448Z4.835
G1A112.555Z4.873
G1A104.465Z4.954
G1A95.848Z4.867
G1A81.426Z4.835
G1A67.533Z4.873
G1A59.443Z4.953
G1A51.001Z4.867
G1A36.580Z4.835
G1A22.511Z4.875
G1A14.421Z4.955
G1A5.804Z4.868
G1A0.000Z4.845
G1X51.117Z4.810
G1A9.497Z4.855
G1A15.300Z4.908
G1A24.797Z4.823
G1A42.384Z4.805
G1A53.464Z4.843
G1A60.322Z4.905
G1A69.995Z4.821
G1A87.934Z4.805
G1A98.661Z4.846
G1A105.344Z4.907
G1A114.841Z4.822
G1A132.252Z4.804
G1A143.508Z4.844
G1A150.366Z4.906
G1A159.863Z4.822
G1A177.274Z4.805
G1A188.530Z4.845
G1A195.388Z4.907
G1A204.885Z4.823
G1A222.472Z4.806
G1A233.552Z4.846
G1A240.410Z4.908
G1A249.907Z4.823
G1A267.318Z4.806
G1A278.398Z4.845
G1A285.432Z4.907
G1A294.929Z4.823
G1A312.340Z4.806
G1A323.420Z4.845
G1A330.454Z4.907
G1A339.951Z4.823
G1A357.362Z4.805
G1A360.000Z4.810
G1X50.800Z4.774
G1A341.534Z4.783
G1A335.027Z4.817
G1A329.399Z4.860
G1A320.254Z4.788
G1A301.612Z4.773
G1A290.884Z4.809
G1A284.377Z4.860
G1A275.408Z4.789
G1A256.590Z4.773
G1A245.862Z4.809
G1A239.355Z4.859
G1A230.386Z4.788
G1A211.568Z4.773
G1A200.840Z4.809
G1A194.333Z4.858
G1A185.364Z4.788
G1A166.546Z4.772
G1A155.994Z4.807
G1A149.311Z4.857
G1A140.342Z4.787
G1A121.524Z4.772
G1A110.972Z4.807
G1A104.465Z4.859
G1A95.320Z4.787
G1A76.326Z4.772
G1A65.950Z4.806
G1A59.443Z4.857
G1A50.298Z4.786
G1A31.480Z4.773
G1A20.928Z4.808
G1A14.421Z4.860
G1A5.276Z4.788
G1A0.000Z4.774
G1X50.562Z4.761
G1X50.482Z4.789
G1A12.135Z4.799
G1A15.652Z4.817
G1A20.401Z4.789
G1A57.684Z4.797
G1A60.674Z4.810
G1A65.071Z4.789
G1A102.179Z4.798
G1A105.520Z4.817
G1A110.269Z4.789
G1A147.201Z4.798
G1A150.542Z4.817
G1A155.291Z4.789
G1A192.223Z4.798
G1A195.564Z4.817
G1A200.313Z4.789
G1A237.069Z4.798
G1A240.586Z4.818
G1A245.335Z4.789
G1A282.091Z4.798
G1A285.608Z4.818
G1A290.357Z4.789
G1A327.113Z4.799
G1A330.630Z4.818
G1A335.379Z4.789
G1A360.000Z4.789
G1X50.363Z4.822
G1X50.165Z5.043
G1A0.000
G1X49.887Z5.276
G1X49.847Z5.305
G1A360.000
G1X49.530Z5.496
G1A0.000
G1X49.212Z5.612
G1A360.000
G1X48.895Z5.674
G1A0.000
G1X48.577Z5.680
G1A360.000
G1X48.260Z5.630
G1A0.000
G1X47.942Z5.529
G1A360.000
G1X47.823Z5.480
G1X47.625Z5.663
G1A0.000
G1X47.307Z5.897
G1A360.000
G1X47.109Z6.011
G1X47.069Z6.058
G1X46.990Z6.267
G1A0.000
G1X46.712Z6.854
G1X46.672Z6.924
G1A360.000
G1X46.395Z7.360
G1X46.355Z7.411
G1A0.000
G1X46.037Z7.783
G1A360.000
G1X45.720Z8.060
G1A0.000
G1X45.402Z8.263
G1A360.000
G1X45.085Z8.416
G1A0.000
G1X44.767Z8.510
G1A360.000
G1X44.450Z8.562
G1A0.000
G1X44.132Z8.572
G1A360.000
G1X43.815Z8.532
G1A0.000
G1X43.497Z8.444
G1A360.000
G1X43.180Z8.297
G1A0.000
G1X42.862Z8.098
G1A360.000
G1X42.545Z7.814
G1A0.000
G1X42.267Z7.498
G1X42.227Z7.443
G1A360.000
G1X41.950Z7.016
G1X41.910Z6.944
G1A0.000
G1X41.632Z6.376
G1X41.592Z6.286
G1A360.000
G1X41.275Z5.399
G1A0.000
G1X40.957Z4.231
G1A360.000
G1X40.878Z3.868
G1X40.838Z3.812
G1X40.640Z3.815
G1A0.000
G1X40.322Z3.819
G1A360.000
G1X40.005Z3.826
G1A0.000
G1X39.687Z3.839
G1A360.000
G1X39.370Z3.851
G1A0.000
G1X39.052Z3.863
G1A360.000
G1X38.735Z3.876
G1A0.000
G1X38.417Z3.888
G1A360.000
G1X38.100Z3.900
G1A0.000
G1X37.782Z3.913
G1A360.000
G1X37.465Z3.928
G1A0.000
G1X37.147Z3.947
G1A360.000
G1X36.830Z3.965
G1A0.000
G1X36.512Z3.984
G1A360.000
G1X36.195Z4.004
G1A0.000
G1X35.877Z4.028
G1A360.000
G1X35.560Z4.051
G1A0.000
G1X35.242Z4.075
G1A360.000
G1X34.925Z4.099
G1A0.000
G1X34.607Z4.128
G1A360.000
G1X34.290Z4.157
G1A0.000
G1X33.972Z4.186
G1A360.000
G1X33.655Z4.215
G1A0.000
G1X33.337Z4.250
G1A360.000
G1X33.020Z4.286
G1A0.000
G1X32.702Z4.322
G1A360.000
G1X32.385Z4.358
G1A0.000
G1X32.067Z4.400
G1A360.000
G1X31.750Z4.444
G1A0.000
G1X31.432Z4.488
G1A360.000
G1X31.115Z4.533
G1A0.000
G1X30.797Z4.585
G1A360.000
G1X30.480Z4.640
G1A0.000
G1X30.162Z4.694
G1A360.000
G1X29.845Z4.751
G1A0.000
G1X29.527Z4.820
G1A360.000
G1X29.210Z4.888
G1A0.000
G1X28.892Z4.957
G1A360.000
G1X28.575Z5.042
G1A0.000
G1X28.257Z5.130
G1A360.000
G1X27.940Z5.219
G1A0.000
G1X27.622Z5.327
G1A360.000
G1X27.305Z5.452
G1A0.000
G1X26.987Z5.604
G1A360.000
G1X26.789Z5.728
G1X26.749Z5.766
G1X26.670Z5.916
G1A0.000
G1X26.472Z6.199
G1X26.352Z6.322
G1A360.000
G1X26.075Z6.530
G1X26.035Z6.552
G1A0.000
G1X25.717Z6.687
G1A360.000
G1X25.400Z6.755
G1A0.000
G1X25.082Z6.769
G1A360.000
G1X24.765Z6.778
G1A0.000
G1X24.447Z6.800
G1A360.000
G1X24.130Z6.829
G1A0.000
G1X23.812Z6.876
G1A360.000
G1X23.495Z6.930
G1A0.000
G1X23.177Z7.004
G1A360.000
G1X22.860Z7.095
G1A0.000
G1X22.542Z7.202
G1A360.000
G1X22.225Z7.330
G1A0.000
G1X21.907Z7.489
G1A360.000
G1X21.590Z7.679
G1A0.000
G1X21.272Z7.905
G1A360.000
G1X20.955Z8.177
G1A0.000
G1X20.637Z8.511
G1A360.000
G1X20.320Z8.929
G1A0.000
G1X20.002Z9.452
G1A360.000
G1X19.764Z9.966
G1X19.685Z10.160
G1A0.000
G1X19.487Z10.655
G1X19.367Z10.876
G1A360.000
G1X19.050Z11.344
G1A0.000
G1X18.732Z11.675
G1A360.000
G1X18.455Z11.915
G1X18.415Z11.944
G1A0.000
G1X18.097Z12.139
G1A360.000
G1X17.780Z12.293
G1A0.000
G1X17.462Z12.395
G1A360.000
G1X17.145Z12.469
G1A0.000
G1X16.827Z12.498
G1A360.000
G1X16.510Z12.487
G1A0.000
G1X16.351Z12.469
G1X16.192Z12.551
G1A360.000
G1X15.875Z12.660
G1A0.000
G1X15.557Z12.700
G1A360.000
G1X15.240Z12.700
G1A0.000
G1X14.922
G1A360.000
G1X14.605
G1A0.000
G1X14.287Z12.694
G1A360.000
G1X13.970Z12.632
G1A0.000
G1X13.652Z12.497
G1A360.000
G1X13.375Z12.299
G1X13.335Z12.263
G1A0.000
G1X13.137Z12.034
G1X13.017Z11.839
G1A360.000
G1X12.898Z11.534
G1X12.859Z11.346
G1X12.819Z0.000
G1X12.700
G1A0.000
G1X12.382
G1A360.000
G1X12.065
G1A0.000
G1X11.747
G1A360.000
G1X11.430
G1A0.000
G1X11.112
G1A360.000
G1X10.795
G1A0.000
G1X10.477
G1A360.000
G1X10.160
G1A0.000
G1X9.842
G1A360.000
G1X9.525
G1A0.000
G1X9.207
G1A360.000
G1X8.890
G1A0.000
G1X8.572
G1A360.000
G1X8.255
G1A0.000
G1X7.937
G1A360.000
G1X7.620
G1A0.000
G1X7.302
G1A360.000
G1X6.985
G1A0.000
G1X6.667
G1A360.000
G1X6.350
G1A0.000
G1X6.032
G1A360.000
G1X5.715
G1A0.000
G1X5.397
G1A360.000
G1X5.080
G1A0.000
G1X4.762
G1A360.000
G1X4.445
G1A0.000
G1X4.127
G1A360.000
G1X3.810
G1A0.000
G1X3.492
G1A360.000
G1X3.175
G1A0.000
G1X2.857
G1A360.000
G1X2.540
G1A0.000
G1X2.222
G1A360.000
G1X1.905
G1A0.000
G1X1.587
G1A360.000
G1X1.270
G1A0.000
G1X0.952
G1A360.000
G1X0.635
G1A0.000
G1X0.317
G1A360.000
G1X0.000
G1A0.000
G0Z17.780
M5
G0Z33.020
G0X0.000A0.000
M2
